public/luts/ameixa.cube
#Created by: Pixelmator Pro
#Color profile: "kCGColorSpaceDisplayP3"
TITLE "Custom"
#Data domain
#LUT size
LUT_3D_SIZE 5
DOMAIN_MIN 0.000000 0.000000 0.000000
DOMAIN_MAX 0.823529 0.823529 0.823529
0.0366 0.0377 0.0336
0.0721 0.0724 0.0664
0.2164 0.2137 0.2117
0.4487 0.4405 0.4470
0.6780 0.6687 0.6773
0.0926 0.0944 0.0881
0.1410 0.1414 0.1364
0.2831 0.2795 0.2796
0.4976 0.4893 0.4967
0.7044 0.6957 0.7041
0.3019 0.3003 0.3001
0.3439 0.3410 0.3426
0.4582 0.4524 0.4580
0.6197 0.6120 0.6197
0.7692 0.7624 0.7702
0.5864 0.5817 0.5878
0.6110 0.6060 0.6124
0.6758 0.6704 0.6772
0.7642 0.7592 0.7661
0.8472 0.8437 0.8502
0.7991 0.7972 0.8028
0.8089 0.8070 0.8127
0.8351 0.8335 0.8391
0.8724 0.8714 0.8767
0.9106 0.9104 0.9153
0.0633 0.0650 0.0606
0.1089 0.1092 0.1046
0.2536 0.2503 0.2500
0.4762 0.4678 0.4752
0.6929 0.6838 0.6926
0.1316 0.1327 0.1279
0.1803 0.1800 0.1767
0.3180 0.3138 0.3156
0.5226 0.5143 0.5222
0.7177 0.7093 0.7179
0.3361 0.3337 0.3353
0.3764 0.3728 0.3759
0.4852 0.4792 0.4856
0.6379 0.6304 0.6383
0.7788 0.7723 0.7802
0.6065 0.6017 0.6082
0.6297 0.6247 0.6314
0.6907 0.6855 0.6925
0.7741 0.7693 0.7763
0.8528 0.8495 0.8560
0.8071 0.8053 0.8110
0.8164 0.8147 0.8204
0.8413 0.8398 0.8455
0.8768 0.8759 0.8813
0.9132 0.9132 0.9181
0.1799 0.1797 0.1781
0.2272 0.2257 0.2255
0.3589 0.3537 0.3584
0.5514 0.5430 0.5519
0.7330 0.7248 0.7339
0.2488 0.2475 0.2477
0.2933 0.2907 0.2926
0.4156 0.4097 0.4159
0.5907 0.5824 0.5913
0.7538 0.7462 0.7551
0.4314 0.4271 0.4329
0.4662 0.4612 0.4679
0.5591 0.5526 0.5606
0.6871 0.6800 0.6885
0.8051 0.7995 0.8074
0.6608 0.6561 0.6634
0.6802 0.6754 0.6828
0.7311 0.7264 0.7338
0.8010 0.7970 0.8042
0.8681 0.8654 0.8720
0.8289 0.8276 0.8336
0.8368 0.8356 0.8415
0.8581 0.8571 0.8629
0.8888 0.8884 0.8938
0.9208 0.9211 0.9260
0.3809 0.3766 0.3836
0.4187 0.4134 0.4216
0.5202 0.5131 0.5231
0.6613 0.6534 0.6635
0.7912 0.7848 0.7940
0.4358 0.4308 0.4391
0.4703 0.4646 0.4736
0.5624 0.5555 0.5653
0.6893 0.6819 0.6918
0.8062 0.8004 0.8093
0.5741 0.5685 0.5777
0.5996 0.5937 0.6030
0.6666 0.6604 0.6698
0.7581 0.7523 0.7613
0.8438 0.8398 0.8477
0.7391 0.7351 0.7433
0.7529 0.7491 0.7572
0.7896 0.7860 0.7939
0.8407 0.8379 0.8453
0.8913 0.8897 0.8962
0.8614 0.8609 0.8671
0.8673 0.8670 0.8731
0.8835 0.8834 0.8893
0.9073 0.9076 0.9131
0.9325 0.9334 0.9383
0.6026 0.5963 0.6080
0.6261 0.6197 0.6313
0.6878 0.6813 0.6927
0.7721 0.7663 0.7768
0.8516 0.8476 0.8566
0.6366 0.6306 0.6420
0.6577 0.6516 0.6629
0.7131 0.7070 0.7180
0.7889 0.7837 0.7938
0.8611 0.8576 0.8663
0.7199 0.7150 0.7254
0.7351 0.7303 0.7406
0.7752 0.7707 0.7806
0.8308 0.8273 0.8363
0.8854 0.8833 0.8910
0.8189 0.8166 0.8252
0.8275 0.8253 0.8337
0.8504 0.8486 0.8565
0.8833 0.8821 0.8894
0.9173 0.9170 0.9234
0.8968 0.8975 0.9037
0.9009 0.9016 0.9078
0.9118 0.9128 0.9187
0.9282 0.9295 0.9350
0.9459 0.9477 0.9525
