public/luts/ameixa.cube
#Created by: Pixelmator Pro
#Color profile: "kCGColorSpaceDisplayP3"
TITLE "Custom"
#Data domain
#LUT size
LUT_3D_SIZE 7
DOMAIN_MIN 0.000000 0.000000 0.000000
DOMAIN_MAX 0.882353 0.882353 0.882353
0.0366 0.0377 0.0336
0.0551 0.0551 0.0498
0.1189 0.1184 0.1134
0.2459 0.2424 0.2415
0.4132 0.4056 0.4111
0.5866 0.5772 0.5855
0.7306 0.7218 0.7303
0.0630 0.0652 0.0582
0.0867 0.0879 0.0817
0.1576 0.1570 0.1527
0.2815 0.2776 0.2778
0.4420 0.4343 0.4404
0.6064 0.5972 0.6055
0.7422 0.7338 0.7422
0.1648 0.1656 0.1608
0.1909 0.1909 0.1870
0.2592 0.2571 0.2559
0.3718 0.3666 0.3700
0.5133 0.5054 0.5127
0.6548 0.6462 0.6544
0.7707 0.7633 0.7714
0.3414 0.3391 0.3403
0.3633 0.3604 0.3625
0.4196 0.4151 0.4193
0.5095 0.5032 0.5098
0.6186 0.6112 0.6187
0.7250 0.7178 0.7256
0.8125 0.8068 0.8142
0.5472 0.5426 0.5486
0.5623 0.5574 0.5636
0.6004 0.5950 0.6015
0.6599 0.6541 0.6610
0.7305 0.7249 0.7320
0.7998 0.7950 0.8019
0.8584 0.8549 0.8614
0.7223 0.7187 0.7249
0.7306 0.7270 0.7332
0.7515 0.7480 0.7542
0.7843 0.7810 0.7872
0.8239 0.8211 0.8272
0.8640 0.8620 0.8678
0.8997 0.8986 0.9039
0.8390 0.8382 0.8434
0.8430 0.8422 0.8474
0.8532 0.8526 0.8578
0.8696 0.8692 0.8743
0.8901 0.8901 0.8949
0.9118 0.9122 0.9168
0.9321 0.9330 0.9373
0.0508 0.0521 0.0492
0.0709 0.0718 0.0663
0.1402 0.1395 0.1354
0.2656 0.2618 0.2618
0.4292 0.4215 0.4276
0.5977 0.5883 0.5968
0.7370 0.7284 0.7371
0.0818 0.0835 0.0777
0.1072 0.1082 0.1029
0.1788 0.1778 0.1745
0.3006 0.2963 0.2975
0.4573 0.4494 0.4561
0.6169 0.6077 0.6162
0.7484 0.7401 0.7486
0.1859 0.1863 0.1825
0.2116 0.2113 0.2083
0.2787 0.2763 0.2760
0.3889 0.3834 0.3875
0.5265 0.5186 0.5262
0.6637 0.6552 0.6635
0.7760 0.7687 0.7768
0.3592 0.3565 0.3586
0.3806 0.3773 0.3802
0.4355 0.4307 0.4356
0.5229 0.5165 0.5234
0.6286 0.6213 0.6289
0.7316 0.7246 0.7325
0.8165 0.8110 0.8184
0.5595 0.5548 0.5610
0.5741 0.5691 0.5755
0.6110 0.6056 0.6123
0.6686 0.6629 0.6699
0.7370 0.7315 0.7387
0.8041 0.7995 0.8065
0.8611 0.8578 0.8642
0.7291 0.7255 0.7318
0.7371 0.7336 0.7398
0.7573 0.7539 0.7602
0.7891 0.7859 0.7922
0.8276 0.8249 0.8310
0.8666 0.8647 0.8705
0.9015 0.9004 0.9058
0.8422 0.8415 0.8468
0.8461 0.8454 0.8507
0.8561 0.8555 0.8607
0.8721 0.8717 0.8768
0.8921 0.8921 0.8970
0.9133 0.9137 0.9183
0.9331 0.9341 0.9383
0.1000 0.1012 0.0972
0.1263 0.1267 0.1230
0.1976 0.1962 0.1943
0.3175 0.3127 0.3153
0.4706 0.4626 0.4701
0.6260 0.6168 0.6257
0.7537 0.7456 0.7543
0.1387 0.1395 0.1357
0.1652 0.1652 0.1621
0.2349 0.2329 0.2321
0.3505 0.3453 0.3489
0.4966 0.4885 0.4964
0.6436 0.6346 0.6434
0.7641 0.7563 0.7649
0.2418 0.2410 0.2398
0.2663 0.2647 0.2645
0.3299 0.3264 0.3287
0.4332 0.4271 0.4330
0.5606 0.5527 0.5608
0.6865 0.6783 0.6868
0.7895 0.7827 0.7908
0.4055 0.4019 0.4061
0.4255 0.4213 0.4262
0.4765 0.4712 0.4775
0.5572 0.5508 0.5582
0.6543 0.6471 0.6551
0.7487 0.7421 0.7501
0.8269 0.8218 0.8292
0.5909 0.5860 0.5928
0.6043 0.5992 0.6061
0.6381 0.6328 0.6399
0.6908 0.6854 0.6927
0.7536 0.7484 0.7558
0.8154 0.8111 0.8182
0.8682 0.8652 0.8717
0.7463 0.7430 0.7494
0.7536 0.7503 0.7568
0.7722 0.7691 0.7755
0.8015 0.7986 0.8050
0.8371 0.8346 0.8409
0.8733 0.8716 0.8775
0.9059 0.9051 0.9105
0.8506 0.8501 0.8554
0.8543 0.8538 0.8591
0.8635 0.8632 0.8684
0.8784 0.8783 0.8834
0.8971 0.8973 0.9022
0.9170 0.9176 0.9223
0.9357 0.9368 0.9411
0.2046 0.2039 0.2033
0.2299 0.2285 0.2287
0.2958 0.2925 0.2951
0.4038 0.3976 0.4040
0.5380 0.5298 0.5388
0.6714 0.6627 0.6721
0.7805 0.7732 0.7821
0.2416 0.2404 0.2408
0.2661 0.2641 0.2654
0.3297 0.3259 0.3295
0.4330 0.4266 0.4337
0.5605 0.5524 0.5613
0.6864 0.6780 0.6873
0.7894 0.7825 0.7912
0.3360 0.3331 0.3365
0.3581 0.3546 0.3587
0.4148 0.4098 0.4159
0.5055 0.4987 0.5069
0.6155 0.6077 0.6166
0.7229 0.7154 0.7243
0.8113 0.8053 0.8135
0.4814 0.4766 0.4836
0.4988 0.4936 0.5010
0.5430 0.5372 0.5451
0.6126 0.6061 0.6143
0.6954 0.6888 0.6972
0.7761 0.7703 0.7784
0.8437 0.8393 0.8468
0.6413 0.6364 0.6439
0.6527 0.6477 0.6554
0.6816 0.6765 0.6842
0.7266 0.7216 0.7293
0.7803 0.7758 0.7833
0.8337 0.8300 0.8372
0.8799 0.8775 0.8839
0.7739 0.7711 0.7779
0.7803 0.7775 0.7842
0.7963 0.7936 0.8003
0.8216 0.8192 0.8258
0.8525 0.8506 0.8569
0.8844 0.8832 0.8891
0.9133 0.9129 0.9183
0.8643 0.8642 0.8697
0.8675 0.8674 0.8728
0.8757 0.8757 0.8811
0.8888 0.8890 0.8943
0.9054 0.9060 0.9109
0.9232 0.9242 0.9288
0.9400 0.9414 0.9456
0.3490 0.3453 0.3511
0.3707 0.3664 0.3729
0.4264 0.4207 0.4288
0.5153 0.5080 0.5177
0.6228 0.6148 0.6248
0.7278 0.7202 0.7299
0.8142 0.8082 0.8170
0.3807 0.3766 0.3832
0.4015 0.3968 0.4040
0.4546 0.4487 0.4573
0.5389 0.5317 0.5415
0.6406 0.6327 0.6426
0.7396 0.7323 0.7419
0.8213 0.8156 0.8243
0.4598 0.4547 0.4630
0.4780 0.4725 0.4812
0.5242 0.5180 0.5272
0.5970 0.5900 0.5995
0.6838 0.6767 0.6862
0.7684 0.7620 0.7711
0.8389 0.8341 0.8423
0.5777 0.5722 0.5811
0.5916 0.5860 0.5949
0.6267 0.6208 0.6298
0.6815 0.6754 0.6845
0.7466 0.7409 0.7497
0.8106 0.8058 0.8141
0.8652 0.8618 0.8692
0.7040 0.6995 0.7078
0.7129 0.7084 0.7167
0.7356 0.7312 0.7394
0.7711 0.7670 0.7751
0.8139 0.8103 0.8180
0.8570 0.8542 0.8614
0.8951 0.8934 0.8999
0.8087 0.8066 0.8137
0.8138 0.8117 0.8188
0.8267 0.8247 0.8317
0.8471 0.8454 0.8522
0.8724 0.8712 0.8775
0.8988 0.8982 0.9041
0.9231 0.9232 0.9286
0.8820 0.8824 0.8880
0.8847 0.8851 0.8907
0.8914 0.8920 0.8974
0.9024 0.9032 0.9084
0.9164 0.9174 0.9224
0.9315 0.9328 0.9375
0.9458 0.9474 0.9517
0.5104 0.5044 0.5152
0.5268 0.5206 0.5315
0.5683 0.5617 0.5726
0.6335 0.6263 0.6372
0.7109 0.7039 0.7145
0.7865 0.7805 0.7903
0.8501 0.8456 0.8543
0.5343 0.5283 0.5391
0.5498 0.5436 0.5544
0.5891 0.5825 0.5934
0.6506 0.6436 0.6544
0.7236 0.7169 0.7274
0.7951 0.7894 0.7990
0.8554 0.8513 0.8598
0.5930 0.5870 0.5975
0.6063 0.6002 0.6107
0.6399 0.6336 0.6441
0.6923 0.6860 0.6963
0.7547 0.7488 0.7587
0.8161 0.8113 0.8204
0.8687 0.8652 0.8733
0.6784 0.6731 0.6830
0.6884 0.6831 0.6930
0.7136 0.7083 0.7181
0.7529 0.7479 0.7574
0.8001 0.7958 0.8048
0.8473 0.8439 0.8522
0.8888 0.8865 0.8938
0.7690 0.7655 0.7743
0.7755 0.7721 0.7808
0.7920 0.7887 0.7972
0.8180 0.8150 0.8233
0.8497 0.8473 0.8551
0.8824 0.8807 0.8878
0.9120 0.9112 0.9175
0.8458 0.8446 0.8518
0.8496 0.8484 0.8556
0.8592 0.8582 0.8653
0.8748 0.8740 0.8808
0.8942 0.8939 0.9002
0.9149 0.9150 0.9209
0.9342 0.9349 0.9402
0.9016 0.9027 0.9083
0.9037 0.9048 0.9104
0.9090 0.9102 0.9157
0.9177 0.9190 0.9243
0.9288 0.9303 0.9353
0.9408 0.9426 0.9473
0.9523 0.9544 0.9586
0.6585 0.6525 0.6645
0.6693 0.6632 0.6751
0.6964 0.6904 0.7021
0.7388 0.7330 0.7443
0.7895 0.7843 0.7949
0.8400 0.8359 0.8454
0.8839 0.8812 0.8895
0.6742 0.6683 0.6801
0.6844 0.6785 0.6902
0.7099 0.7042 0.7157
0.7499 0.7444 0.7555
0.7979 0.7930 0.8034
0.8458 0.8420 0.8513
0.8877 0.8852 0.8934
0.7124 0.7071 0.7184
0.7210 0.7158 0.7270
0.7429 0.7379 0.7488
0.7772 0.7724 0.7830
0.8185 0.8144 0.8242
0.8601 0.8571 0.8659
0.8972 0.8952 0.9030
0.7680 0.7640 0.7742
0.7745 0.7706 0.7808
0.7911 0.7873 0.7973
0.8172 0.8139 0.8233
0.8491 0.8464 0.8552
0.8819 0.8800 0.8880
0.9117 0.9107 0.9177
0.8280 0.8258 0.8346
0.8323 0.8303 0.8390
0.8435 0.8416 0.8501
0.8613 0.8598 0.8679
0.8836 0.8825 0.8900
0.9070 0.9065 0.9134
0.9288 0.9289 0.9351
0.8807 0.8806 0.8877
0.8834 0.8833 0.8904
0.8902 0.8903 0.8972
0.9014 0.9017 0.9083
0.9155 0.9161 0.9224
0.9308 0.9318 0.9376
0.9453 0.9467 0.9519
0.9209 0.9227 0.9283
0.9225 0.9243 0.9298
0.9264 0.9283 0.9337
0.9328 0.9348 0.9400
0.9411 0.9433 0.9482
0.9502 0.9525 0.9572
0.9589 0.9614 0.9657
