public/luts/ameixa.cube
#Created by: Pixelmator Pro
#Color profile: "kCGColorSpaceDisplayP3"
TITLE "Custom"
#Data domain
DOMAIN_MIN 0.0000 0.0000 0.0000
DOMAIN_MAX 1.0000 1.0000 1.0000
#LUT size
LUT_3D_SIZE 35
0.0366 0.0377 0.0336
0.0390 0.0399 0.0356
0.0416 0.0423 0.0379
0.0453 0.0456 0.0412
0.0501 0.0498 0.0454
0.0551 0.0551 0.0498
0.0622 0.0624 0.0563
0.0721 0.0724 0.0664
0.0850 0.0851 0.0794
0.1005 0.1004 0.0950
0.1189 0.1184 0.1134
0.1398 0.1390 0.1345
0.1632 0.1619 0.1581
0.1888 0.1868 0.1838
0.2164 0.2137 0.2117
0.2459 0.2424 0.2415
0.2770 0.2727 0.2730
0.3095 0.3044 0.3060
0.3433 0.3373 0.3402
0.3779 0.3711 0.3754
0.4132 0.4056 0.4111
0.4487 0.4405 0.4470
0.4841 0.4754 0.4827
0.5191 0.5100 0.5179
0.5533 0.5441 0.5522
0.5866 0.5772 0.5855
0.6186 0.6091 0.6176
0.6491 0.6396 0.6482
0.6780 0.6687 0.6773
0.7052 0.6961 0.7047
0.7306 0.7218 0.7303
0.7541 0.7457 0.7542
0.7759 0.7680 0.7763
0.7960 0.7886 0.7967
0.8145 0.8075 0.8155
0.0399 0.0412 0.0366
0.0423 0.0433 0.0387
0.0448 0.0457 0.0411
0.0483 0.0489 0.0443
0.0526 0.0530 0.0481
0.0579 0.0586 0.0523
0.0657 0.0662 0.0600
0.0762 0.0766 0.0706
0.0893 0.0895 0.0838
0.1050 0.1050 0.0996
0.1235 0.1230 0.1181
0.1445 0.1436 0.1392
0.1678 0.1664 0.1627
0.1934 0.1914 0.1885
0.2209 0.2181 0.2162
0.2502 0.2467 0.2459
0.2812 0.2769 0.2773
0.3136 0.3084 0.3101
0.3472 0.3412 0.3442
0.3817 0.3748 0.3792
0.4167 0.4092 0.4147
0.4520 0.4438 0.4504
0.4872 0.4785 0.4859
0.5220 0.5129 0.5208
0.5560 0.5468 0.5549
0.5891 0.5796 0.5880
0.6208 0.6113 0.6198
0.6512 0.6417 0.6503
0.6798 0.6705 0.6791
0.7068 0.6978 0.7064
0.7320 0.7233 0.7318
0.7554 0.7471 0.7555
0.7771 0.7692 0.7775
0.7970 0.7896 0.7978
0.8153 0.8085 0.8164
0.0434 0.0449 0.0401
0.0457 0.0470 0.0422
0.0482 0.0493 0.0444
0.0515 0.0524 0.0474
0.0556 0.0565 0.0506
0.0616 0.0624 0.0560
0.0699 0.0706 0.0644
0.0808 0.0813 0.0753
0.0941 0.0944 0.0887
0.1100 0.1100 0.1047
0.1286 0.1281 0.1233
0.1496 0.1487 0.1444
0.1729 0.1715 0.1679
0.1983 0.1963 0.1935
0.2257 0.2230 0.2212
0.2550 0.2514 0.2507
0.2858 0.2814 0.2820
0.3180 0.3128 0.3147
0.3515 0.3454 0.3486
0.3857 0.3789 0.3833
0.4206 0.4130 0.4186
0.4556 0.4474 0.4541
0.4906 0.4819 0.4893
0.5251 0.5161 0.5240
0.5589 0.5497 0.5579
0.5917 0.5823 0.5907
0.6233 0.6138 0.6223
0.6533 0.6439 0.6525
0.6818 0.6725 0.6811
0.7086 0.6996 0.7081
0.7336 0.7249 0.7334
0.7568 0.7485 0.7569
0.7783 0.7704 0.7787
0.7981 0.7908 0.7989
0.8163 0.8095 0.8174
0.0482 0.0500 0.0448
0.0504 0.0519 0.0468
0.0526 0.0540 0.0485
0.0558 0.0572 0.0510
0.0605 0.0618 0.0552
0.0673 0.0683 0.0619
0.0762 0.0770 0.0708
0.0874 0.0880 0.0821
0.1010 0.1013 0.0957
0.1171 0.1170 0.1119
0.1358 0.1353 0.1306
0.1568 0.1559 0.1517
0.1800 0.1785 0.1751
0.2053 0.2032 0.2006
0.2326 0.2297 0.2282
0.2616 0.2580 0.2575
0.2923 0.2878 0.2886
0.3243 0.3190 0.3211
0.3574 0.3513 0.3547
0.3914 0.3845 0.3891
0.4260 0.4183 0.4241
0.4607 0.4525 0.4592
0.4953 0.4866 0.4941
0.5295 0.5205 0.5285
0.5629 0.5538 0.5619
0.5954 0.5861 0.5944
0.6266 0.6172 0.6257
0.6564 0.6470 0.6556
0.6846 0.6754 0.6839
0.7110 0.7021 0.7106
0.7357 0.7271 0.7356
0.7587 0.7505 0.7589
0.7800 0.7722 0.7805
0.7996 0.7923 0.8004
0.8177 0.8109 0.8188
0.0541 0.0562 0.0500
0.0563 0.0583 0.0516
0.0589 0.0608 0.0539
0.0627 0.0644 0.0577
0.0682 0.0696 0.0631
0.0756 0.0767 0.0704
0.0849 0.0858 0.0797
0.0965 0.0971 0.0913
0.1103 0.1106 0.1052
0.1267 0.1266 0.1216
0.1454 0.1449 0.1404
0.1664 0.1653 0.1614
0.1895 0.1879 0.1847
0.2146 0.2123 0.2101
0.2416 0.2387 0.2374
0.2704 0.2667 0.2665
0.3008 0.2962 0.2973
0.3325 0.3271 0.3295
0.3653 0.3591 0.3627
0.3989 0.3920 0.3968
0.4331 0.4254 0.4313
0.4674 0.4591 0.4660
0.5016 0.4929 0.5004
0.5353 0.5263 0.5343
0.5683 0.5592 0.5673
0.6003 0.5910 0.5993
0.6311 0.6217 0.6302
0.6604 0.6511 0.6597
0.6882 0.6790 0.6876
0.7142 0.7054 0.7139
0.7386 0.7301 0.7386
0.7613 0.7532 0.7615
0.7823 0.7746 0.7828
0.8016 0.7944 0.8025
0.8194 0.8127 0.8206
0.0630 0.0652 0.0582
0.0657 0.0677 0.0608
0.0687 0.0705 0.0638
0.0730 0.0747 0.0681
0.0790 0.0804 0.0740
0.0867 0.0879 0.0817
0.0964 0.0973 0.0914
0.1083 0.1089 0.1033
0.1224 0.1227 0.1174
0.1389 0.1387 0.1339
0.1576 0.1570 0.1527
0.1784 0.1773 0.1737
0.2014 0.1996 0.1968
0.2263 0.2239 0.2219
0.2530 0.2499 0.2490
0.2815 0.2776 0.2778
0.3115 0.3068 0.3083
0.3428 0.3373 0.3400
0.3752 0.3689 0.3728
0.4084 0.4013 0.4064
0.4420 0.4343 0.4404
0.4758 0.4675 0.4745
0.5094 0.5007 0.5083
0.5425 0.5336 0.5416
0.5750 0.5659 0.5740
0.6064 0.5972 0.6055
0.6366 0.6274 0.6358
0.6654 0.6562 0.6648
0.6927 0.6836 0.6922
0.7183 0.7095 0.7180
0.7422 0.7338 0.7422
0.7645 0.7565 0.7648
0.7851 0.7776 0.7857
0.8041 0.7970 0.8051
0.8216 0.8150 0.8228
0.0759 0.0780 0.0712
0.0789 0.0807 0.0741
0.0821 0.0838 0.0773
0.0867 0.0883 0.0819
0.0930 0.0943 0.0881
0.1010 0.1021 0.0961
0.1110 0.1118 0.1061
0.1231 0.1236 0.1183
0.1374 0.1375 0.1326
0.1539 0.1536 0.1491
0.1725 0.1717 0.1678
0.1931 0.1918 0.1886
0.2158 0.2139 0.2115
0.2404 0.2378 0.2363
0.2668 0.2635 0.2631
0.2949 0.2908 0.2915
0.3245 0.3196 0.3215
0.3553 0.3496 0.3527
0.3872 0.3807 0.3850
0.4197 0.4126 0.4180
0.4527 0.4450 0.4513
0.4858 0.4776 0.4847
0.5188 0.5101 0.5179
0.5512 0.5424 0.5504
0.5830 0.5740 0.5821
0.6138 0.6046 0.6129
0.6433 0.6341 0.6426
0.6715 0.6624 0.6709
0.6981 0.6892 0.6977
0.7231 0.7145 0.7230
0.7465 0.7383 0.7467
0.7683 0.7605 0.7687
0.7885 0.7811 0.7892
0.8071 0.8002 0.8081
0.8242 0.8178 0.8256
0.0926 0.0944 0.0881
0.0957 0.0974 0.0911
0.0991 0.1007 0.0945
0.1039 0.1053 0.0993
0.1103 0.1115 0.1057
0.1186 0.1196 0.1139
0.1288 0.1295 0.1241
0.1410 0.1414 0.1364
0.1553 0.1553 0.1507
0.1717 0.1712 0.1671
0.1901 0.1891 0.1856
0.2105 0.2089 0.2062
0.2329 0.2307 0.2288
0.2571 0.2543 0.2533
0.2831 0.2795 0.2796
0.3107 0.3064 0.3076
0.3397 0.3346 0.3371
0.3700 0.3641 0.3677
0.4012 0.3946 0.3993
0.4330 0.4258 0.4315
0.4653 0.4575 0.4641
0.4976 0.4893 0.4967
0.5298 0.5212 0.5289
0.5614 0.5527 0.5606
0.5924 0.5834 0.5916
0.6223 0.6133 0.6216
0.6511 0.6420 0.6504
0.6785 0.6695 0.6780
0.7044 0.6957 0.7041
0.7288 0.7204 0.7287
0.7516 0.7435 0.7518
0.7728 0.7651 0.7733
0.7925 0.7852 0.7933
0.8106 0.8039 0.8117
0.8273 0.8211 0.8288
0.1131 0.1146 0.1087
0.1162 0.1177 0.1118
0.1197 0.1211 0.1153
0.1247 0.1259 0.1202
0.1312 0.1322 0.1268
0.1396 0.1403 0.1351
0.1498 0.1502 0.1453
0.1620 0.1621 0.1576
0.1761 0.1758 0.1718
0.1923 0.1915 0.1880
0.2104 0.2091 0.2063
0.2305 0.2287 0.2266
0.2525 0.2500 0.2488
0.2763 0.2732 0.2729
0.3018 0.2979 0.2987
0.3288 0.3243 0.3261
0.3572 0.3519 0.3549
0.3868 0.3807 0.3848
0.4172 0.4104 0.4156
0.4482 0.4409 0.4470
0.4796 0.4718 0.4786
0.5111 0.5028 0.5103
0.5423 0.5338 0.5416
0.5730 0.5643 0.5723
0.6030 0.5942 0.6023
0.6321 0.6231 0.6314
0.6599 0.6510 0.6594
0.6865 0.6777 0.6861
0.7116 0.7030 0.7114
0.7352 0.7270 0.7353
0.7573 0.7494 0.7577
0.7779 0.7704 0.7785
0.7970 0.7899 0.7979
0.8146 0.8081 0.8159
0.8309 0.8248 0.8324
0.1373 0.1385 0.1330
0.1404 0.1416 0.1362
0.1440 0.1450 0.1397
0.1489 0.1498 0.1447
0.1554 0.1561 0.1512
0.1637 0.1642 0.1596
0.1739 0.1740 0.1697
0.1859 0.1857 0.1818
0.1998 0.1992 0.1958
0.2157 0.2146 0.2118
0.2335 0.2319 0.2298
0.2532 0.2510 0.2497
0.2747 0.2719 0.2715
0.2980 0.2945 0.2950
0.3229 0.3187 0.3202
0.3492 0.3444 0.3470
0.3769 0.3713 0.3749
0.4056 0.3994 0.4040
0.4351 0.4283 0.4339
0.4652 0.4578 0.4643
0.4956 0.4878 0.4949
0.5261 0.5179 0.5254
0.5562 0.5478 0.5556
0.5860 0.5773 0.5853
0.6149 0.6062 0.6143
0.6429 0.6341 0.6424
0.6698 0.6611 0.6694
0.6954 0.6868 0.6951
0.7196 0.7112 0.7196
0.7424 0.7343 0.7426
0.7637 0.7560 0.7642
0.7836 0.7763 0.7844
0.8021 0.7952 0.8031
0.8191 0.8128 0.8205
0.8348 0.8290 0.8365
0.1648 0.1656 0.1608
0.1679 0.1687 0.1640
0.1714 0.1720 0.1675
0.1762 0.1767 0.1723
0.1827 0.1830 0.1788
0.1909 0.1909 0.1870
0.2008 0.2006 0.1970
0.2126 0.2120 0.2089
0.2262 0.2252 0.2226
0.2418 0.2403 0.2383
0.2592 0.2571 0.2559
0.2784 0.2758 0.2753
0.2993 0.2962 0.2966
0.3220 0.3182 0.3195
0.3462 0.3417 0.3440
0.3718 0.3666 0.3700
0.3986 0.3928 0.3971
0.4264 0.4199 0.4252
0.4549 0.4479 0.4540
0.4840 0.4765 0.4832
0.5133 0.5054 0.5127
0.5425 0.5344 0.5420
0.5716 0.5632 0.5710
0.6001 0.5916 0.5996
0.6279 0.6193 0.6274
0.6548 0.6462 0.6544
0.6805 0.6720 0.6803
0.7051 0.6968 0.7050
0.7283 0.7203 0.7285
0.7502 0.7425 0.7506
0.7707 0.7633 0.7714
0.7898 0.7828 0.7907
0.8076 0.8010 0.8088
0.8240 0.8179 0.8255
0.8392 0.8335 0.8410
0.1953 0.1956 0.1917
0.1983 0.1986 0.1948
0.2017 0.2019 0.1982
0.2065 0.2065 0.2030
0.2128 0.2126 0.2094
0.2208 0.2203 0.2174
0.2305 0.2298 0.2272
0.2420 0.2409 0.2388
0.2553 0.2538 0.2522
0.2704 0.2684 0.2675
0.2873 0.2848 0.2846
0.3060 0.3029 0.3035
0.3263 0.3227 0.3241
0.3483 0.3440 0.3463
0.3717 0.3668 0.3700
0.3964 0.3909 0.3950
0.4222 0.4161 0.4211
0.4489 0.4423 0.4481
0.4763 0.4692 0.4757
0.5042 0.4967 0.5037
0.5323 0.5245 0.5319
0.5603 0.5523 0.5599
0.5881 0.5799 0.5877
0.6154 0.6070 0.6150
0.6419 0.6335 0.6416
0.6676 0.6592 0.6673
0.6921 0.6839 0.6921
0.7156 0.7075 0.7157
0.7377 0.7300 0.7381
0.7587 0.7512 0.7592
0.7783 0.7711 0.7791
0.7965 0.7898 0.7977
0.8136 0.8073 0.8149
0.8293 0.8235 0.8310
0.8439 0.8385 0.8458
0.2285 0.2283 0.2254
0.2315 0.2312 0.2284
0.2348 0.2343 0.2317
0.2394 0.2388 0.2364
0.2456 0.2448 0.2426
0.2533 0.2523 0.2504
0.2627 0.2614 0.2599
0.2739 0.2722 0.2712
0.2867 0.2847 0.2842
0.3014 0.2989 0.2990
0.3177 0.3147 0.3156
0.3357 0.3322 0.3338
0.3554 0.3513 0.3537
0.3765 0.3719 0.3751
0.3990 0.3938 0.3978
0.4227 0.4169 0.4218
0.4474 0.4412 0.4467
0.4730 0.4663 0.4725
0.4992 0.4920 0.4989
0.5258 0.5183 0.5255
0.5525 0.5448 0.5523
0.5793 0.5713 0.5790
0.6057 0.5976 0.6054
0.6316 0.6234 0.6313
0.6568 0.6486 0.6566
0.6811 0.6730 0.6811
0.7044 0.6965 0.7046
0.7267 0.7189 0.7270
0.7478 0.7403 0.7483
0.7677 0.7605 0.7684
0.7863 0.7795 0.7873
0.8037 0.7973 0.8050
0.8199 0.8140 0.8215
0.8350 0.8295 0.8368
0.8489 0.8438 0.8510
0.2641 0.2632 0.2616
0.2670 0.2661 0.2646
0.2702 0.2692 0.2678
0.2747 0.2735 0.2723
0.2806 0.2792 0.2783
0.2881 0.2865 0.2859
0.2972 0.2953 0.2950
0.3079 0.3057 0.3059
0.3203 0.3177 0.3185
0.3344 0.3314 0.3327
0.3501 0.3466 0.3486
0.3674 0.3634 0.3661
0.3862 0.3817 0.3851
0.4065 0.4014 0.4056
0.4279 0.4224 0.4273
0.4505 0.4445 0.4501
0.4741 0.4676 0.4738
0.4984 0.4916 0.4982
0.5233 0.5161 0.5232
0.5485 0.5411 0.5484
0.5739 0.5662 0.5737
0.5991 0.5913 0.5989
0.6241 0.6161 0.6239
0.6485 0.6405 0.6484
0.6723 0.6644 0.6723
0.6953 0.6874 0.6954
0.7173 0.7097 0.7177
0.7383 0.7309 0.7389
0.7583 0.7511 0.7590
0.7771 0.7703 0.7781
0.7947 0.7883 0.7960
0.8112 0.8052 0.8128
0.8266 0.8210 0.8284
0.8409 0.8357 0.8430
0.8542 0.8494 0.8565
0.3019 0.3003 0.3001
0.3047 0.3030 0.3029
0.3078 0.3060 0.3060
0.3121 0.3102 0.3104
0.3178 0.3157 0.3161
0.3249 0.3226 0.3234
0.3336 0.3310 0.3322
0.3439 0.3410 0.3426
0.3558 0.3525 0.3546
0.3692 0.3656 0.3682
0.3842 0.3802 0.3833
0.4007 0.3962 0.4000
0.4186 0.4137 0.4180
0.4378 0.4325 0.4374
0.4582 0.4524 0.4580
0.4796 0.4734 0.4795
0.5019 0.4953 0.5019
0.5249 0.5180 0.5249
0.5483 0.5412 0.5484
0.5721 0.5647 0.5721
0.5959 0.5884 0.5959
0.6197 0.6120 0.6197
0.6431 0.6354 0.6431
0.6661 0.6584 0.6662
0.6884 0.6808 0.6886
0.7100 0.7025 0.7104
0.7307 0.7234 0.7312
0.7504 0.7434 0.7512
0.7692 0.7624 0.7702
0.7869 0.7804 0.7881
0.8035 0.7974 0.8050
0.8191 0.8134 0.8208
0.8336 0.8284 0.8356
0.8472 0.8423 0.8494
0.8597 0.8553 0.8622
0.3414 0.3391 0.3403
0.3441 0.3417 0.3430
0.3470 0.3445 0.3460
0.3511 0.3485 0.3501
0.3565 0.3537 0.3556
0.3633 0.3604 0.3625
0.3716 0.3684 0.3708
0.3814 0.3779 0.3807
0.3927 0.3889 0.3921
0.4054 0.4013 0.4050
0.4196 0.4151 0.4193
0.4352 0.4303 0.4350
0.4521 0.4468 0.4521
0.4702 0.4646 0.4703
0.4894 0.4834 0.4896
0.5095 0.5032 0.5098
0.5305 0.5239 0.5307
0.5520 0.5452 0.5522
0.5740 0.5670 0.5742
0.5962 0.5890 0.5964
0.6186 0.6112 0.6187
0.6407 0.6333 0.6409
0.6626 0.6551 0.6628
0.6840 0.6766 0.6844
0.7048 0.6975 0.7053
0.7250 0.7178 0.7256
0.7443 0.7374 0.7451
0.7628 0.7561 0.7638
0.7803 0.7739 0.7815
0.7969 0.7909 0.7984
0.8125 0.8068 0.8142
0.8271 0.8219 0.8291
0.8408 0.8359 0.8430
0.8536 0.8491 0.8560
0.8655 0.8614 0.8681
0.3822 0.3792 0.3818
0.3847 0.3816 0.3843
0.3875 0.3843 0.3871
0.3913 0.3881 0.3910
0.3964 0.3930 0.3962
0.4029 0.3993 0.4027
0.4107 0.4069 0.4106
0.4199 0.4159 0.4199
0.4305 0.4262 0.4306
0.4425 0.4379 0.4426
0.4559 0.4509 0.4561
0.4705 0.4653 0.4708
0.4863 0.4808 0.4867
0.5033 0.4974 0.5037
0.5212 0.5151 0.5217
0.5400 0.5337 0.5405
0.5595 0.5530 0.5599
0.5796 0.5728 0.5799
0.6000 0.5931 0.6003
0.6207 0.6136 0.6210
0.6414 0.6343 0.6417
0.6620 0.6548 0.6624
0.6823 0.6751 0.6827
0.7021 0.6951 0.7027
0.7214 0.7145 0.7222
0.7401 0.7334 0.7411
0.7581 0.7516 0.7592
0.7753 0.7690 0.7766
0.7916 0.7857 0.7931
0.8071 0.8015 0.8088
0.8217 0.8164 0.8236
0.8354 0.8305 0.8376
0.8482 0.8437 0.8506
0.8602 0.8561 0.8628
0.8714 0.8676 0.8742
0.4237 0.4200 0.4239
0.4261 0.4224 0.4263
0.4286 0.4249 0.4289
0.4323 0.4284 0.4326
0.4371 0.4331 0.4374
0.4431 0.4389 0.4435
0.4504 0.4461 0.4508
0.4590 0.4545 0.4595
0.4689 0.4642 0.4694
0.4801 0.4751 0.4807
0.4925 0.4873 0.4931
0.5061 0.5007 0.5068
0.5208 0.5152 0.5215
0.5366 0.5307 0.5372
0.5532 0.5471 0.5538
0.5706 0.5643 0.5712
0.5887 0.5822 0.5892
0.6072 0.6006 0.6077
0.6261 0.6194 0.6266
0.6452 0.6383 0.6457
0.6643 0.6574 0.6648
0.6832 0.6764 0.6839
0.7019 0.6952 0.7027
0.7202 0.7136 0.7211
0.7381 0.7316 0.7391
0.7553 0.7491 0.7565
0.7720 0.7659 0.7733
0.7879 0.7821 0.7894
0.8030 0.7975 0.8048
0.8174 0.8122 0.8194
0.8309 0.8261 0.8332
0.8437 0.8392 0.8461
0.8557 0.8516 0.8583
0.8669 0.8631 0.8697
0.8773 0.8740 0.8804
0.4654 0.4612 0.4662
0.4676 0.4634 0.4684
0.4700 0.4657 0.4708
0.4734 0.4690 0.4742
0.4778 0.4734 0.4787
0.4834 0.4788 0.4843
0.4902 0.4855 0.4910
0.4981 0.4933 0.4990
0.5073 0.5023 0.5082
0.5176 0.5124 0.5185
0.5291 0.5237 0.5300
0.5416 0.5361 0.5425
0.5552 0.5495 0.5561
0.5697 0.5639 0.5705
0.5850 0.5790 0.5858
0.6010 0.5948 0.6017
0.6176 0.6113 0.6183
0.6346 0.6282 0.6353
0.6519 0.6454 0.6526
0.6694 0.6629 0.6702
0.6869 0.6804 0.6877
0.7042 0.6978 0.7052
0.7214 0.7150 0.7224
0.7382 0.7320 0.7394
0.7546 0.7485 0.7559
0.7704 0.7646 0.7719
0.7857 0.7802 0.7874
0.8004 0.7951 0.8023
0.8143 0.8093 0.8164
0.8276 0.8229 0.8299
0.8401 0.8358 0.8426
0.8520 0.8480 0.8547
0.8631 0.8594 0.8660
0.8736 0.8702 0.8766
0.8833 0.8803 0.8866
0.5068 0.5023 0.5079
0.5088 0.5042 0.5100
0.5110 0.5064 0.5122
0.5141 0.5094 0.5153
0.5181 0.5135 0.5193
0.5233 0.5185 0.5245
0.5295 0.5246 0.5307
0.5368 0.5318 0.5380
0.5452 0.5401 0.5463
0.5547 0.5494 0.5558
0.5652 0.5598 0.5662
0.5767 0.5712 0.5777
0.5891 0.5834 0.5900
0.6023 0.5965 0.6032
0.6163 0.6104 0.6172
0.6309 0.6249 0.6318
0.6460 0.6399 0.6469
0.6615 0.6553 0.6624
0.6772 0.6711 0.6782
0.6931 0.6870 0.6942
0.7090 0.7029 0.7102
0.7249 0.7189 0.7261
0.7405 0.7346 0.7418
0.7558 0.7501 0.7573
0.7708 0.7652 0.7724
0.7853 0.7800 0.7871
0.7993 0.7942 0.8013
0.8127 0.8079 0.8149
0.8255 0.8210 0.8279
0.8377 0.8335 0.8403
0.8493 0.8454 0.8521
0.8603 0.8567 0.8632
0.8706 0.8673 0.8737
0.8803 0.8773 0.8835
0.8894 0.8867 0.8928
0.5472 0.5426 0.5486
0.5491 0.5444 0.5504
0.5511 0.5464 0.5524
0.5539 0.5491 0.5552
0.5576 0.5528 0.5589
0.5623 0.5574 0.5636
0.5679 0.5630 0.5692
0.5746 0.5696 0.5758
0.5822 0.5771 0.5834
0.5908 0.5856 0.5920
0.6004 0.5950 0.6015
0.6108 0.6053 0.6119
0.6220 0.6165 0.6231
0.6340 0.6284 0.6351
0.6466 0.6409 0.6478
0.6599 0.6541 0.6610
0.6735 0.6677 0.6747
0.6875 0.6817 0.6887
0.7017 0.6960 0.7030
0.7161 0.7104 0.7175
0.7305 0.7249 0.7320
0.7449 0.7394 0.7465
0.7590 0.7537 0.7607
0.7730 0.7678 0.7748
0.7866 0.7816 0.7886
0.7998 0.7950 0.8019
0.8125 0.8080 0.8148
0.8248 0.8205 0.8273
0.8365 0.8325 0.8392
0.8477 0.8440 0.8505
0.8584 0.8549 0.8614
0.8684 0.8653 0.8716
0.8780 0.8751 0.8813
0.8869 0.8844 0.8904
0.8954 0.8931 0.8990
0.5864 0.5817 0.5878
0.5880 0.5833 0.5895
0.5899 0.5851 0.5913
0.5924 0.5876 0.5938
0.5957 0.5909 0.5972
0.5999 0.5951 0.6014
0.6050 0.6001 0.6064
0.6110 0.6060 0.6124
0.6179 0.6128 0.6193
0.6256 0.6205 0.6270
0.6342 0.6290 0.6356
0.6436 0.6383 0.6449
0.6537 0.6484 0.6550
0.6645 0.6591 0.6658
0.6758 0.6704 0.6772
0.6877 0.6823 0.6891
0.6999 0.6946 0.7014
0.7125 0.7072 0.7141
0.7253 0.7200 0.7270
0.7383 0.7330 0.7400
0.7512 0.7461 0.7531
0.7642 0.7592 0.7661
0.7769 0.7721 0.7790
0.7895 0.7849 0.7917
0.8018 0.7974 0.8042
0.8138 0.8095 0.8163
0.8253 0.8213 0.8280
0.8365 0.8327 0.8393
0.8472 0.8437 0.8502
0.8575 0.8542 0.8606
0.8672 0.8642 0.8705
0.8765 0.8738 0.8799
0.8852 0.8828 0.8888
0.8935 0.8913 0.8972
0.9012 0.8994 0.9051
0.6237 0.6191 0.6253
0.6252 0.6206 0.6268
0.6268 0.6222 0.6284
0.6291 0.6244 0.6307
0.6321 0.6274 0.6337
0.6359 0.6311 0.6375
0.6404 0.6356 0.6420
0.6457 0.6409 0.6473
0.6519 0.6470 0.6535
0.6588 0.6539 0.6604
0.6664 0.6615 0.6681
0.6748 0.6699 0.6764
0.6838 0.6789 0.6855
0.6934 0.6884 0.6951
0.7036 0.6986 0.7053
0.7141 0.7092 0.7159
0.7251 0.7202 0.7270
0.7363 0.7315 0.7382
0.7478 0.7430 0.7498
0.7594 0.7547 0.7615
0.7710 0.7664 0.7732
0.7826 0.7782 0.7849
0.7941 0.7898 0.7965
0.8054 0.8013 0.8079
0.8165 0.8126 0.8192
0.8273 0.8236 0.8301
0.8377 0.8343 0.8407
0.8478 0.8446 0.8509
0.8576 0.8546 0.8608
0.8669 0.8642 0.8703
0.8758 0.8733 0.8793
0.8843 0.8820 0.8879
0.8923 0.8903 0.8960
0.8999 0.8981 0.9038
0.9070 0.9055 0.9110
0.6590 0.6546 0.6608
0.6603 0.6559 0.6622
0.6617 0.6573 0.6636
0.6637 0.6593 0.6656
0.6664 0.6619 0.6682
0.6697 0.6652 0.6716
0.6737 0.6693 0.6756
0.6785 0.6740 0.6804
0.6839 0.6794 0.6858
0.6900 0.6855 0.6919
0.6968 0.6923 0.6988
0.7042 0.6997 0.7062
0.7122 0.7077 0.7142
0.7207 0.7162 0.7228
0.7297 0.7253 0.7318
0.7391 0.7347 0.7413
0.7489 0.7445 0.7511
0.7589 0.7546 0.7611
0.7691 0.7648 0.7714
0.7794 0.7753 0.7818
0.7897 0.7858 0.7923
0.8001 0.7963 0.8028
0.8104 0.8067 0.8131
0.8205 0.8170 0.8234
0.8305 0.8271 0.8335
0.8402 0.8370 0.8433
0.8496 0.8467 0.8529
0.8587 0.8560 0.8621
0.8676 0.8651 0.8711
0.8760 0.8738 0.8797
0.8841 0.8821 0.8879
0.8918 0.8900 0.8957
0.8991 0.8976 0.9031
0.9061 0.9047 0.9102
0.9127 0.9115 0.9168
0.6919 0.6878 0.6940
0.6930 0.6890 0.6952
0.6943 0.6902 0.6965
0.6961 0.6920 0.6982
0.6984 0.6943 0.7006
0.7013 0.6973 0.7035
0.7049 0.7008 0.7071
0.7090 0.7050 0.7113
0.7138 0.7098 0.7161
0.7192 0.7152 0.7215
0.7252 0.7212 0.7275
0.7317 0.7277 0.7341
0.7388 0.7348 0.7411
0.7463 0.7423 0.7487
0.7542 0.7503 0.7567
0.7625 0.7587 0.7651
0.7711 0.7673 0.7737
0.7800 0.7763 0.7827
0.7890 0.7854 0.7918
0.7982 0.7947 0.8010
0.8074 0.8040 0.8103
0.8166 0.8134 0.8196
0.8258 0.8226 0.8289
0.8348 0.8319 0.8380
0.8437 0.8410 0.8471
0.8524 0.8498 0.8559
0.8609 0.8585 0.8645
0.8691 0.8669 0.8728
0.8771 0.8751 0.8809
0.8848 0.8830 0.8887
0.8921 0.8905 0.8961
0.8991 0.8977 0.9032
0.9058 0.9046 0.9100
0.9121 0.9112 0.9164
0.9181 0.9174 0.9225
0.7223 0.7187 0.7249
0.7234 0.7197 0.7259
0.7245 0.7209 0.7270
0.7260 0.7224 0.7286
0.7281 0.7245 0.7306
0.7306 0.7270 0.7332
0.7337 0.7301 0.7363
0.7374 0.7338 0.7400
0.7416 0.7380 0.7442
0.7463 0.7428 0.7490
0.7515 0.7480 0.7542
0.7573 0.7538 0.7600
0.7635 0.7600 0.7662
0.7700 0.7666 0.7728
0.7770 0.7737 0.7799
0.7843 0.7810 0.7872
0.7919 0.7887 0.7949
0.7997 0.7966 0.8028
0.8077 0.8046 0.8108
0.8158 0.8129 0.8190
0.8239 0.8211 0.8272
0.8321 0.8294 0.8355
0.8402 0.8377 0.8437
0.8483 0.8459 0.8518
0.8563 0.8540 0.8599
