public/luts/banana.cube
#Created by: Pixelmator Pro
#Color profile: "kCGColorSpaceDisplayP3"
TITLE "Custom"
#Data domain
DOMAIN_MIN 0.0000 0.0000 0.0000
DOMAIN_MAX 1.0000 1.0000 1.0000
#LUT size
LUT_3D_SIZE 35
0.1702 0.1702 0.1395
0.1714 0.1702 0.1395
0.1729 0.1702 0.1395
0.1751 0.1702 0.1395
0.1781 0.1702 0.1395
0.1823 0.1702 0.1395
0.1879 0.1702 0.1395
0.1953 0.1702 0.1395
0.2050 0.1702 0.1395
0.2174 0.1702 0.1395
0.2330 0.1702 0.1395
0.2521 0.1702 0.1395
0.2746 0.1702 0.1395
0.3002 0.1702 0.1395
0.3288 0.1702 0.1395
0.3602 0.1702 0.1395
0.3939 0.1702 0.1395
0.4296 0.1702 0.1395
0.4670 0.1702 0.1395
0.5055 0.1702 0.1395
0.5446 0.1702 0.1395
0.5839 0.1702 0.1395
0.6226 0.1702 0.1395
0.6603 0.1702 0.1395
0.6961 0.1701 0.1395
0.7294 0.1701 0.1395
0.7596 0.1701 0.1394
0.7860 0.1701 0.1394
0.8088 0.1701 0.1394
0.8284 0.1701 0.1394
0.8453 0.1703 0.1394
0.8601 0.1710 0.1394
0.8734 0.1721 0.1394
0.8858 0.1740 0.1394
0.8906 0.1841 0.1450
0.1702 0.1714 0.1395
0.1714 0.1714 0.1395
0.1729 0.1714 0.1395
0.1751 0.1714 0.1395
0.1781 0.1714 0.1395
0.1823 0.1714 0.1395
0.1879 0.1714 0.1395
0.1954 0.1714 0.1395
0.2051 0.1714 0.1395
0.2176 0.1714 0.1395
0.2333 0.1714 0.1395
0.2524 0.1714 0.1395
0.2749 0.1714 0.1395
0.3006 0.1715 0.1395
0.3293 0.1715 0.1395
0.3607 0.1715 0.1395
0.3944 0.1715 0.1395
0.4302 0.1715 0.1395
0.4675 0.1716 0.1395
0.5060 0.1716 0.1395
0.5452 0.1716 0.1395
0.5844 0.1717 0.1395
0.6231 0.1717 0.1395
0.6607 0.1717 0.1395
0.6965 0.1717 0.1395
0.7298 0.1718 0.1395
0.7600 0.1718 0.1394
0.7863 0.1718 0.1394
0.8090 0.1718 0.1394
0.8285 0.1719 0.1394
0.8454 0.1721 0.1394
0.8602 0.1729 0.1394
0.8735 0.1743 0.1394
0.8858 0.1762 0.1394
0.8906 0.1870 0.1450
0.1702 0.1729 0.1395
0.1714 0.1729 0.1395
0.1729 0.1729 0.1395
0.1751 0.1729 0.1395
0.1781 0.1729 0.1395
0.1823 0.1729 0.1395
0.1879 0.1729 0.1395
0.1954 0.1729 0.1395
0.2052 0.1729 0.1395
0.2177 0.1729 0.1395
0.2335 0.1730 0.1395
0.2527 0.1730 0.1395
0.2753 0.1731 0.1395
0.3011 0.1731 0.1395
0.3298 0.1732 0.1395
0.3612 0.1732 0.1395
0.3950 0.1733 0.1395
0.4308 0.1733 0.1395
0.4681 0.1734 0.1395
0.5066 0.1734 0.1395
0.5458 0.1735 0.1395
0.5850 0.1736 0.1395
0.6237 0.1736 0.1395
0.6612 0.1737 0.1395
0.6969 0.1737 0.1395
0.7302 0.1738 0.1395
0.7603 0.1739 0.1394
0.7865 0.1739 0.1394
0.8092 0.1740 0.1394
0.8287 0.1740 0.1394
0.8456 0.1744 0.1394
0.8603 0.1752 0.1394
0.8736 0.1766 0.1394
0.8859 0.1787 0.1394
0.8906 0.1903 0.1450
0.1702 0.1751 0.1395
0.1714 0.1751 0.1395
0.1729 0.1751 0.1395
0.1751 0.1751 0.1395
0.1781 0.1751 0.1395
0.1823 0.1751 0.1395
0.1880 0.1751 0.1395
0.1955 0.1751 0.1395
0.2054 0.1751 0.1395
0.2180 0.1752 0.1395
0.2338 0.1753 0.1395
0.2531 0.1753 0.1395
0.2759 0.1754 0.1395
0.3017 0.1755 0.1395
0.3305 0.1756 0.1395
0.3620 0.1757 0.1395
0.3958 0.1758 0.1395
0.4316 0.1759 0.1395
0.4690 0.1760 0.1395
0.5075 0.1761 0.1395
0.5466 0.1762 0.1395
0.5858 0.1763 0.1395
0.6244 0.1764 0.1395
0.6619 0.1765 0.1395
0.6976 0.1766 0.1395
0.7308 0.1767 0.1395
0.7607 0.1768 0.1394
0.7869 0.1770 0.1394
0.8095 0.1771 0.1394
0.8290 0.1772 0.1394
0.8458 0.1776 0.1394
0.8605 0.1786 0.1394
0.8737 0.1802 0.1394
0.8860 0.1825 0.1394
0.8906 0.1952 0.1451
0.1702 0.1781 0.1395
0.1714 0.1781 0.1395
0.1729 0.1781 0.1395
0.1751 0.1781 0.1395
0.1781 0.1781 0.1395
0.1823 0.1781 0.1395
0.1880 0.1782 0.1395
0.1957 0.1782 0.1395
0.2056 0.1783 0.1395
0.2183 0.1784 0.1395
0.2343 0.1785 0.1395
0.2537 0.1786 0.1395
0.2766 0.1787 0.1395
0.3026 0.1788 0.1395
0.3314 0.1790 0.1395
0.3630 0.1792 0.1395
0.3969 0.1793 0.1395
0.4327 0.1795 0.1395
0.4701 0.1797 0.1395
0.5086 0.1799 0.1395
0.5477 0.1800 0.1395
0.5869 0.1802 0.1395
0.6254 0.1804 0.1395
0.6628 0.1806 0.1395
0.6984 0.1808 0.1395
0.7315 0.1810 0.1395
0.7613 0.1812 0.1394
0.7874 0.1814 0.1394
0.8099 0.1815 0.1394
0.8293 0.1817 0.1394
0.8460 0.1823 0.1394
0.8607 0.1835 0.1394
0.8738 0.1854 0.1394
0.8861 0.1880 0.1394
0.8906 0.2022 0.1451
0.1702 0.1823 0.1395
0.1714 0.1823 0.1395
0.1729 0.1823 0.1395
0.1751 0.1823 0.1395
0.1781 0.1823 0.1395
0.1824 0.1824 0.1395
0.1882 0.1825 0.1395
0.1959 0.1826 0.1395
0.2059 0.1827 0.1395
0.2188 0.1828 0.1395
0.2349 0.1830 0.1395
0.2545 0.1831 0.1395
0.2775 0.1833 0.1395
0.3036 0.1836 0.1395
0.3326 0.1838 0.1395
0.3643 0.1841 0.1395
0.3982 0.1843 0.1395
0.4341 0.1846 0.1395
0.4716 0.1849 0.1395
0.5100 0.1852 0.1395
0.5491 0.1855 0.1395
0.5882 0.1858 0.1395
0.6267 0.1861 0.1395
0.6640 0.1864 0.1395
0.6995 0.1867 0.1395
0.7324 0.1870 0.1395
0.7621 0.1873 0.1394
0.7880 0.1876 0.1394
0.8104 0.1879 0.1394
0.8297 0.1882 0.1394
0.8463 0.1890 0.1394
0.8609 0.1905 0.1394
0.8740 0.1927 0.1394
0.8863 0.1957 0.1394
0.8906 0.2117 0.1452
0.1702 0.1880 0.1395
0.1714 0.1880 0.1395
0.1729 0.1880 0.1395
0.1751 0.1881 0.1395
0.1782 0.1881 0.1395
0.1825 0.1882 0.1395
0.1883 0.1883 0.1395
0.1962 0.1885 0.1395
0.2063 0.1887 0.1395
0.2193 0.1889 0.1395
0.2356 0.1892 0.1395
0.2555 0.1894 0.1395
0.2786 0.1897 0.1395
0.3049 0.1901 0.1395
0.3340 0.1904 0.1395
0.3658 0.1908 0.1395
0.3998 0.1912 0.1395
0.4358 0.1916 0.1395
0.4733 0.1921 0.1395
0.5117 0.1925 0.1395
0.5508 0.1929 0.1395
0.5898 0.1934 0.1395
0.6282 0.1939 0.1395
0.6654 0.1943 0.1395
0.7007 0.1948 0.1395
0.7335 0.1952 0.1394
0.7630 0.1957 0.1394
0.7888 0.1961 0.1394
0.8110 0.1966 0.1394
0.8301 0.1971 0.1394
0.8467 0.1983 0.1394
0.8612 0.2001 0.1394
0.8742 0.2027 0.1394
0.8864 0.2061 0.1394
0.8906 0.2241 0.1452
0.1702 0.1956 0.1395
0.1714 0.1957 0.1395
0.1729 0.1957 0.1395
0.1752 0.1958 0.1395
0.1783 0.1959 0.1395
0.1826 0.1961 0.1395
0.1886 0.1963 0.1395
0.1965 0.1965 0.1395
0.2068 0.1968 0.1395
0.2200 0.1971 0.1395
0.2365 0.1974 0.1395
0.2566 0.1978 0.1395
0.2799 0.1983 0.1395
0.3064 0.1988 0.1395
0.3357 0.1993 0.1395
0.3676 0.1998 0.1395
0.4018 0.2004 0.1395
0.4378 0.2010 0.1395
0.4753 0.2016 0.1395
0.5137 0.2023 0.1395
0.5527 0.2029 0.1395
0.5916 0.2036 0.1395
0.6299 0.2042 0.1395
0.6670 0.2049 0.1395
0.7022 0.2056 0.1395
0.7347 0.2062 0.1394
0.7641 0.2069 0.1394
0.7897 0.2075 0.1394
0.8117 0.2081 0.1394
0.8307 0.2090 0.1394
0.8471 0.2105 0.1394
0.8615 0.2128 0.1394
0.8745 0.2158 0.1394
0.8866 0.2197 0.1394
0.8906 0.2401 0.1452
0.1702 0.2057 0.1395
0.1714 0.2058 0.1395
0.1730 0.2059 0.1395
0.1752 0.2060 0.1395
0.1784 0.2062 0.1395
0.1828 0.2064 0.1395
0.1889 0.2067 0.1395
0.1969 0.2070 0.1395
0.2074 0.2074 0.1395
0.2208 0.2078 0.1395
0.2376 0.2084 0.1395
0.2578 0.2089 0.1395
0.2814 0.2095 0.1395
0.3081 0.2102 0.1395
0.3376 0.2109 0.1395
0.3697 0.2117 0.1395
0.4039 0.2125 0.1395
0.4400 0.2133 0.1395
0.4775 0.2141 0.1395
0.5160 0.2150 0.1395
0.5549 0.2159 0.1395
0.5938 0.2168 0.1395
0.6319 0.2177 0.1395
0.6689 0.2186 0.1395
0.7038 0.2196 0.1395
0.7362 0.2205 0.1394
0.7653 0.2214 0.1394
0.7907 0.2222 0.1394
0.8125 0.2231 0.1394
0.8313 0.2244 0.1394
0.8475 0.2264 0.1394
0.8618 0.2291 0.1394
0.8748 0.2326 0.1394
0.8869 0.2371 0.1394
0.8906 0.2597 0.1453
0.1702 0.2187 0.1395
0.1714 0.2189 0.1395
0.1730 0.2190 0.1395
0.1753 0.2192 0.1395
0.1785 0.2194 0.1395
0.1830 0.2197 0.1395
0.1892 0.2201 0.1395
0.1974 0.2206 0.1395
0.2081 0.2211 0.1395
0.2217 0.2217 0.1395
0.2387 0.2223 0.1395
0.2592 0.2231 0.1395
0.2831 0.2239 0.1395
0.3100 0.2248 0.1395
0.3397 0.2258 0.1395
0.3719 0.2268 0.1395
0.4063 0.2278 0.1395
0.4425 0.2289 0.1395
0.4801 0.2301 0.1395
0.5185 0.2312 0.1395
0.5574 0.2324 0.1395
0.5961 0.2336 0.1395
0.6342 0.2349 0.1395
0.6709 0.2361 0.1395
0.7056 0.2373 0.1395
0.7378 0.2385 0.1394
0.7667 0.2397 0.1394
0.7917 0.2408 0.1394
0.8134 0.2420 0.1394
0.8320 0.2438 0.1394
0.8480 0.2462 0.1394
0.8622 0.2494 0.1394
0.8751 0.2534 0.1394
0.8871 0.2582 0.1394
0.8906 0.2827 0.1452
0.1702 0.2353 0.1395
0.1714 0.2355 0.1395
0.1730 0.2356 0.1395
0.1754 0.2359 0.1395
0.1787 0.2362 0.1395
0.1833 0.2366 0.1395
0.1895 0.2371 0.1395
0.1979 0.2377 0.1395
0.2088 0.2384 0.1395
0.2227 0.2392 0.1395
0.2400 0.2400 0.1395
0.2609 0.2410 0.1395
0.2850 0.2420 0.1395
0.3121 0.2432 0.1395
0.3421 0.2444 0.1395
0.3745 0.2457 0.1395
0.4090 0.2470 0.1395
0.4453 0.2484 0.1395
0.4829 0.2498 0.1395
0.5213 0.2513 0.1395
0.5601 0.2527 0.1395
0.5987 0.2543 0.1395
0.6366 0.2558 0.1395
0.6731 0.2573 0.1395
0.7077 0.2588 0.1395
0.7396 0.2603 0.1394
0.7681 0.2618 0.1394
0.7929 0.2632 0.1394
0.8143 0.2648 0.1394
0.8327 0.2670 0.1394
0.8486 0.2699 0.1394
0.8626 0.2735 0.1394
0.8754 0.2778 0.1394
0.8874 0.2829 0.1394
0.8906 0.3089 0.1452
0.1702 0.2557 0.1395
0.1715 0.2559 0.1395
0.1731 0.2561 0.1395
0.1755 0.2564 0.1395
0.1788 0.2568 0.1395
0.1835 0.2573 0.1395
0.1899 0.2579 0.1395
0.1985 0.2586 0.1395
0.2096 0.2594 0.1395
0.2238 0.2604 0.1395
0.2414 0.2614 0.1395
0.2626 0.2626 0.1395
0.2870 0.2639 0.1395
0.3144 0.2652 0.1395
0.3446 0.2667 0.1395
0.3772 0.2682 0.1395
0.4119 0.2698 0.1395
0.4482 0.2714 0.1395
0.4859 0.2732 0.1395
0.5243 0.2749 0.1395
0.5630 0.2767 0.1395
0.6016 0.2785 0.1395
0.6393 0.2803 0.1395
0.6756 0.2821 0.1395
0.7099 0.2839 0.1394
0.7414 0.2856 0.1394
0.7697 0.2874 0.1394
0.7942 0.2891 0.1394
0.8153 0.2911 0.1394
0.8334 0.2938 0.1394
0.8492 0.2970 0.1394
0.8631 0.3009 0.1394
0.8758 0.3055 0.1394
0.8878 0.3107 0.1394
0.8906 0.3380 0.1451
0.1702 0.2797 0.1395
0.1715 0.2799 0.1395
0.1732 0.2801 0.1395
0.1756 0.2805 0.1395
0.1790 0.2810 0.1395
0.1838 0.2815 0.1395
0.1904 0.2823 0.1395
0.1991 0.2831 0.1395
0.2105 0.2841 0.1395
0.2250 0.2852 0.1395
0.2430 0.2864 0.1395
0.2645 0.2877 0.1395
0.2892 0.2892 0.1395
0.3169 0.2908 0.1395
0.3473 0.2924 0.1395
0.3801 0.2942 0.1395
0.4150 0.2960 0.1395
0.4514 0.2979 0.1395
0.4891 0.2999 0.1395
0.5275 0.3019 0.1395
0.5662 0.3039 0.1395
0.6045 0.3060 0.1395
0.6421 0.3080 0.1395
0.6782 0.3101 0.1395
0.7121 0.3121 0.1394
0.7434 0.3141 0.1394
0.7714 0.3161 0.1394
0.7955 0.3181 0.1394
0.8163 0.3206 0.1394
0.8342 0.3236 0.1394
0.8498 0.3271 0.1394
0.8636 0.3312 0.1394
0.8762 0.3359 0.1394
0.8881 0.3413 0.1394
0.8906 0.3696 0.1448
0.1702 0.3071 0.1395
0.1715 0.3074 0.1395
0.1732 0.3076 0.1395
0.1757 0.3080 0.1395
0.1792 0.3086 0.1395
0.1841 0.3092 0.1395
0.1909 0.3100 0.1395
0.1998 0.3110 0.1395
0.2114 0.3121 0.1395
0.2262 0.3133 0.1395
0.2446 0.3146 0.1395
0.2664 0.3161 0.1395
0.2915 0.3178 0.1395
0.3195 0.3195 0.1395
0.3502 0.3214 0.1395
0.3832 0.3233 0.1395
0.4182 0.3254 0.1395
0.4548 0.3275 0.1395
0.4925 0.3296 0.1395
0.5309 0.3319 0.1395
0.5695 0.3341 0.1395
0.6077 0.3364 0.1395
0.6450 0.3386 0.1395
0.6809 0.3409 0.1394
0.7146 0.3432 0.1394
0.7455 0.3454 0.1394
0.7731 0.3475 0.1394
0.7969 0.3500 0.1394
0.8173 0.3528 0.1394
0.8350 0.3560 0.1394
0.8504 0.3598 0.1394
0.8641 0.3640 0.1394
0.8766 0.3688 0.1394
0.8885 0.3741 0.1394
0.8906 0.4031 0.1445
0.1702 0.3377 0.1395
0.1715 0.3380 0.1395
0.1733 0.3383 0.1395
0.1758 0.3388 0.1395
0.1794 0.3393 0.1395
0.1845 0.3400 0.1395
0.1914 0.3409 0.1395
0.2005 0.3419 0.1395
0.2125 0.3431 0.1395
0.2276 0.3445 0.1395
0.2463 0.3459 0.1395
0.2685 0.3475 0.1395
0.2939 0.3493 0.1395
0.3222 0.3512 0.1395
0.3532 0.3532 0.1395
0.3864 0.3553 0.1395
0.4216 0.3575 0.1395
0.4582 0.3598 0.1395
0.4960 0.3621 0.1395
0.5344 0.3645 0.1395
0.5729 0.3669 0.1395
0.6110 0.3694 0.1395
0.6481 0.3718 0.1394
0.6837 0.3742 0.1394
0.7171 0.3766 0.1394
0.7477 0.3790 0.1394
0.7748 0.3815 0.1394
0.7982 0.3842 0.1394
0.8184 0.3873 0.1394
0.8358 0.3907 0.1394
0.8511 0.3945 0.1394
0.8646 0.3988 0.1394
0.8771 0.4035 0.1394
0.8888 0.4087 0.1394
0.8906 0.4383 0.1441
0.1702 0.3712 0.1395
0.1716 0.3715 0.1395
0.1734 0.3718 0.1395
0.1760 0.3723 0.1395
0.1796 0.3729 0.1395
0.1848 0.3737 0.1395
0.1919 0.3746 0.1395
0.2013 0.3757 0.1395
0.2135 0.3769 0.1395
0.2290 0.3783 0.1395
0.2481 0.3799 0.1395
0.2707 0.3816 0.1395
0.2964 0.3834 0.1395
0.3251 0.3854 0.1395
0.3563 0.3875 0.1395
0.3897 0.3897 0.1395
0.4251 0.3921 0.1395
0.4618 0.3945 0.1395
0.4996 0.3969 0.1395
0.5380 0.3994 0.1395
0.5764 0.4020 0.1395
0.6143 0.4045 0.1395
0.6513 0.4071 0.1394
0.6866 0.4096 0.1394
0.7196 0.4122 0.1394
0.7499 0.4147 0.1394
0.7766 0.4174 0.1394
0.7996 0.4203 0.1394
0.8195 0.4235 0.1394
0.8367 0.4270 0.1394
0.8518 0.4309 0.1394
0.8652 0.4351 0.1394
0.8775 0.4397 0.1394
0.8892 0.4447 0.1394
0.8906 0.4745 0.1436
0.1702 0.4072 0.1395
0.1716 0.4075 0.1395
0.1735 0.4078 0.1395
0.1761 0.4083 0.1395
0.1799 0.4089 0.1395
0.1852 0.4097 0.1395
0.1924 0.4106 0.1395
0.2021 0.4117 0.1395
0.2145 0.4130 0.1395
0.2304 0.4145 0.1395
0.2499 0.4161 0.1395
0.2729 0.4178 0.1395
0.2990 0.4197 0.1395
0.3280 0.4218 0.1395
0.3595 0.4240 0.1395
0.3931 0.4262 0.1395
0.4286 0.4286 0.1395
0.4655 0.4311 0.1395
0.5033 0.4336 0.1395
0.5417 0.4362 0.1395
0.5800 0.4388 0.1395
0.6178 0.4414 0.1394
0.6545 0.4441 0.1394
0.6895 0.4467 0.1394
0.7222 0.4493 0.1394
0.7520 0.4519 0.1394
0.7783 0.4548 0.1394
0.8010 0.4578 0.1394
0.8206 0.4610 0.1394
0.8376 0.4645 0.1394
0.8525 0.4683 0.1394
0.8658 0.4724 0.1394
0.8780 0.4769 0.1394
0.8896 0.4816 0.1394
0.8906 0.5113 0.1430
0.1702 0.4451 0.1395
0.1716 0.4454 0.1395
0.1735 0.4458 0.1395
0.1762 0.4462 0.1395
0.1801 0.4469 0.1395
0.1855 0.4477 0.1395
0.1929 0.4486 0.1395
0.2028 0.4497 0.1395
0.2157 0.4510 0.1395
0.2319 0.4525 0.1395
0.2518 0.4541 0.1395
0.2751 0.4559 0.1395
0.3016 0.4578 0.1395
0.3309 0.4599 0.1395
0.3627 0.4620 0.1395
0.3966 0.4643 0.1395
0.4322 0.4667 0.1395
0.4692 0.4692 0.1395
0.5071 0.4718 0.1395
0.5454 0.4744 0.1395
0.5836 0.4770 0.1394
0.6212 0.4796 0.1394
0.6577 0.4822 0.1394
0.6924 0.4849 0.1394
0.7248 0.4875 0.1394
0.7542 0.4902 0.1394
0.7801 0.4931 0.1394
0.8024 0.4961 0.1394
0.8217 0.4993 0.1394
0.8385 0.5027 0.1394
0.8532 0.5064 0.1394
0.8664 0.5103 0.1394
0.8785 0.5145 0.1394
0.8901 0.5189 0.1394
0.8906 0.5481 0.1423
0.1702 0.4846 0.1395
0.1717 0.4849 0.1395
0.1736 0.4852 0.1395
0.1764 0.4857 0.1395
0.1803 0.4863 0.1395
0.1859 0.4871 0.1395
0.1935 0.4880 0.1395
0.2036 0.4891 0.1395
0.2168 0.4904 0.1395
0.2334 0.4918 0.1395
0.2536 0.4934 0.1395
0.2774 0.4952 0.1395
0.3042 0.4971 0.1395
0.3338 0.4991 0.1395
0.3659 0.5013 0.1395
0.4000 0.5035 0.1395
0.4359 0.5059 0.1395
0.4729 0.5084 0.1395
0.5109 0.5109 0.1394
0.5491 0.5134 0.1394
0.5872 0.5160 0.1394
0.6247 0.5186 0.1394
0.6609 0.5212 0.1394
0.6953 0.5237 0.1394
0.7273 0.5263 0.1394
0.7563 0.5290 0.1394
0.7818 0.5318 0.1394
0.8038 0.5347 0.1394
0.8229 0.5378 0.1394
0.8394 0.5411 0.1394
0.8539 0.5445 0.1394
0.8670 0.5482 0.1394
0.8790 0.5521 0.1394
0.8905 0.5561 0.1394
0.8906 0.5845 0.1416
0.1702 0.5249 0.1395
0.1717 0.5252 0.1395
0.1737 0.5256 0.1395
0.1765 0.5260 0.1395
0.1805 0.5266 0.1395
0.1862 0.5274 0.1395
0.1941 0.5283 0.1395
0.2044 0.5293 0.1395
0.2179 0.5306 0.1395
0.2349 0.5320 0.1395
0.2556 0.5335 0.1395
0.2796 0.5352 0.1395
0.3068 0.5371 0.1395
0.3368 0.5390 0.1395
0.3691 0.5411 0.1395
0.4035 0.5433 0.1395
0.4395 0.5456 0.1394
0.4767 0.5479 0.1394
0.5146 0.5504 0.1394
0.5528 0.5528 0.1394
0.5908 0.5553 0.1394
0.6281 0.5578 0.1394
0.6641 0.5602 0.1394
0.6983 0.5627 0.1394
0.7299 0.5652 0.1394
0.7585 0.5677 0.1394
0.7836 0.5704 0.1394
0.8053 0.5731 0.1394
0.8240 0.5760 0.1394
0.8403 0.5791 0.1394
0.8547 0.5823 0.1394
0.8676 0.5856 0.1394
0.8796 0.5891 0.1394
0.8906 0.5935 0.1395
0.8906 0.6199 0.1411
0.1701 0.5656 0.1395
0.1717 0.5659 0.1395
0.1737 0.5662 0.1395
0.1766 0.5666 0.1395
0.1808 0.5672 0.1395
0.1866 0.5679 0.1395
0.1946 0.5688 0.1395
0.2053 0.5698 0.1395
0.2190 0.5710 0.1395
0.2363 0.5723 0.1395
0.2574 0.5738 0.1395
0.2819 0.5754 0.1395
0.3094 0.5771 0.1395
0.3397 0.5790 0.1395
0.3723 0.5809 0.1394
0.4069 0.5830 0.1394
0.4430 0.5852 0.1394
0.4803 0.5874 0.1394
0.5183 0.5897 0.1394
0.5565 0.5920 0.1394
0.5944 0.5943 0.1394
0.6316 0.5965 0.1394
0.6674 0.5988 0.1394
0.7013 0.6011 0.1394
0.7326 0.6034 0.1394
0.7608 0.6058 0.1394
0.7854 0.6082 0.1394
0.8068 0.6108 0.1394
0.8252 0.6134 0.1394
0.8413 0.6162 0.1394
0.8555 0.6191 0.1394
0.8683 0.6221 0.1394
0.8801 0.6252 0.1394
0.8906 0.6299 0.1397
0.8906 0.6538 0.1409
0.1701 0.6060 0.1395
0.1718 0.6062 0.1395
0.1738 0.6065 0.1395
0.1767 0.6069 0.1395
0.1810 0.6074 0.1395
0.1870 0.6081 0.1395
0.1951 0.6089 0.1395
0.2060 0.6098 0.1395
0.2201 0.6109 0.1395
0.2378 0.6121 0.1395
0.2593 0.6135 0.1394
0.2841 0.6150 0.1394
0.3120 0.6166 0.1394
0.3426 0.6183 0.1394
0.3754 0.6202 0.1394
0.4102 0.6221 0.1394
0.4465 0.6241 0.1394
0.4839 0.6261 0.1394
0.5220 0.6282 0.1394
0.5603 0.6302 0.1394
0.5982 0.6322 0.1394
0.6353 0.6342 0.1394
0.6708 0.6363 0.1394
0.7043 0.6383 0.1394
0.7353 0.6404 0.1394
0.7631 0.6426 0.1394
0.7873 0.6448 0.1394
0.8083 0.6471 0.1394
0.8265 0.6494 0.1394
0.8423 0.6519 0.1394
0.8563 0.6544 0.1394
0.8690 0.6571 0.1394
0.8807 0.6598 0.1394
0.8906 0.6646 0.1398
0.8906 0.6858 0.1411
0.1701 0.6453 0.1394
0.1718 0.6455 0.1394
0.1739 0.6458 0.1394
0.1769 0.6461 0.1394
0.1812 0.6466 0.1394
0.1873 0.6472 0.1394
0.1957 0.6479 0.1394
0.2068 0.6488 0.1394
0.2212 0.6498 0.1394
0.2393 0.6509 0.1394
0.2611 0.6521 0.1394
0.2863 0.6535 0.1394
0.3145 0.6549 0.1394
0.3453 0.6565 0.1394
0.3785 0.6581 0.1394
0.4135 0.6598 0.1394
0.4501 0.6616 0.1394
0.4878 0.6633 0.1394
0.5260 0.6650 0.1394
0.5644 0.6668 0.1394
0.6022 0.6685 0.1394
0.6391 0.6703 0.1394
0.6744 0.6721 0.1394
0.7076 0.6739 0.1394
0.7381 0.6757 0.1394
0.7655 0.6776 0.1394
0.7893 0.6795 0.1394
0.8099 0.6815 0.1394
0.8278 0.6836 0.1394
0.8434 0.6857 0.1394
0.8572 0.6879 0.1394
0.8697 0.6901 0.1394
0.8813 0.6924 0.1394
0.8906 0.6972 0.1402
0.8906 0.7154 0.1422
0.1701 0.6828 0.1394
0.1718 0.6831 0.1394
0.1740 0.6833 0.1394
0.1770 0.6836 0.1394
0.1814 0.6840 0.1394
0.1877 0.6846 0.1394
0.1962 0.6852 0.1394
0.2076 0.6860 0.1394
0.2222 0.6868 0.1394
0.2407 0.6878 0.1394
0.2628 0.6889 0.1394
0.2884 0.6901 0.1394
0.3169 0.6913 0.1394
0.3482 0.6926 0.1394
0.3818 0.6940 0.1394
0.4173 0.6954 0.1394
0.4543 0.6968 0.1394
0.4922 0.6982 0.1394
0.5306 0.6997 0.1394
0.5689 0.7012 0.1394
0.6066 0.7026 0.1394
0.6432 0.7041 0.1394
0.6782 0.7056 0.1394
0.7110 0.7072 0.1394
0.7411 0.7087 0.1394
0.7679 0.7103 0.1394
0.7913 0.7120 0.1394
0.8115 0.7136 0.1394
0.8291 0.7154 0.1394
0.8444 0.7172 0.1394
0.8581 0.7190 0.1394
0.8704 0.7208 0.1394
0.8819 0.7227 0.1394
0.8906 0.7272 0.1409
0.8906 0.7423 0.1444
0.1701 0.7179 0.1394
0.1718 0.7181 0.1394
0.1740 0.7183 0.1394
0.1771 0.7186 0.1394
0.1816 0.7189 0.1394
0.1880 0.7194 0.1394
0.1967 0.7199 0.1394
0.2083 0.7206 0.1394
0.2233 0.7213 0.1394
0.2422 0.7221 0.1394
0.2649 0.7230 0.1394
0.2911 0.7239 0.1394
0.3203 0.7249 0.1394
0.3521 0.7259 0.1394
0.3862 0.7270 0.1394
0.4221 0.7281 0.1394
0.4593 0.7292 0.1394
0.4973 0.7304 0.1394
0.5356 0.7315 0.1394
0.5738 0.7327 0.1394
0.6114 0.7339 0.1394
0.6477 0.7351 0.1394
0.6822 0.7364 0.1394
0.7146 0.7376 0.1394
0.7442 0.7389 0.1394
0.7705 0.7402 0.1394
0.7934 0.7416 0.1394
0.8132 0.7429 0.1394
0.8304 0.7444 0.1394
0.8455 0.7458 0.1394
0.8589 0.7472 0.1394
0.8711 0.7487 0.1394
0.8825 0.7502 0.1394
0.8906 0.7541 0.1422
0.8906 0.7661 0.1484
0.1703 0.7497 0.1394
0.1721 0.7499 0.1394
0.1743 0.7500 0.1394
0.1775 0.7502 0.1394
0.1822 0.7505 0.1394
0.1889 0.7508 0.1394
0.1980 0.7512 0.1394
0.2101 0.7517 0.1394
0.2257 0.7523 0.1394
0.2453 0.7529 0.1394
0.2686 0.7535 0.1394
0.2954 0.7542 0.1394
0.3251 0.7549 0.1394
0.3573 0.7557 0.1394
0.3917 0.7565 0.1394
0.4278 0.7574 0.1394
0.4651 0.7583 0.1394
0.5031 0.7591 0.1394
0.5414 0.7601 0.1394
0.5793 0.7610 0.1394
0.6165 0.7619 0.1394
0.6525 0.7629 0.1394
0.6866 0.7638 0.1394
0.7184 0.7648 0.1394
0.7474 0.7659 0.1394
