public/luts/banana.cube
#Created by: Pixelmator Pro
#Color profile: "kCGColorSpaceDisplayP3"
TITLE "Custom"
#Data domain
#LUT size
LUT_3D_SIZE 5
DOMAIN_MIN 0.000000 0.000000 0.000000
DOMAIN_MAX 0.823529 0.823529 0.823529
0.1702 0.1702 0.1395
0.1953 0.1702 0.1395
0.3288 0.1702 0.1395
0.5839 0.1702 0.1395
0.8088 0.1701 0.1394
0.1702 0.1956 0.1395
0.1965 0.1965 0.1395
0.3357 0.1993 0.1395
0.5916 0.2036 0.1395
0.8117 0.2081 0.1394
0.1702 0.3377 0.1395
0.2005 0.3419 0.1395
0.3532 0.3532 0.1395
0.6110 0.3694 0.1395
0.8184 0.3873 0.1394
0.1701 0.6060 0.1395
0.2060 0.6098 0.1395
0.3754 0.6202 0.1394
0.6353 0.6342 0.1394
0.8265 0.6494 0.1394
0.1777 0.8205 0.1394
0.2264 0.8212 0.1394
0.4159 0.8230 0.1394
0.6688 0.8256 0.1394
0.8361 0.8285 0.1394
0.1702 0.1702 0.1614
0.1959 0.1702 0.1620
0.3327 0.1702 0.1644
0.5883 0.1702 0.1683
0.8104 0.1701 0.1725
0.1702 0.1963 0.1623
0.1973 0.1973 0.1632
0.3114 0.2100 0.1744
0.5639 0.2223 0.1854
0.8088 0.2165 0.1801
0.1702 0.3412 0.1659
0.2143 0.3261 0.1783
0.3494 0.3494 0.1840
0.6001 0.3757 0.1864
0.8276 0.3751 0.1550
0.1701 0.6092 0.1708
0.2236 0.5981 0.1866
0.3819 0.6160 0.1833
0.6415 0.6400 0.1581
0.8360 0.6493 0.1394
0.1701 0.8250 0.1625
0.1839 0.8342 0.1394
0.3873 0.8333 0.1394
0.6677 0.8323 0.1394
0.8400 0.8318 0.1394
0.1702 0.1702 0.2807
0.1982 0.1702 0.2853
0.3434 0.1702 0.2981
0.6002 0.1702 0.3164
0.8150 0.1701 0.3346
0.1702 0.1986 0.2875
0.2081 0.2081 0.2615
0.3349 0.2169 0.2899
0.5856 0.2239 0.3224
0.8184 0.2072 0.3346
0.1702 0.3507 0.3051
0.2198 0.3458 0.3004
0.3633 0.3633 0.3173
0.5741 0.4072 0.3605
0.7985 0.4376 0.3835
0.1701 0.6178 0.3276
0.2209 0.6131 0.3345
0.4226 0.5962 0.3752
0.6339 0.6313 0.3839
0.8311 0.6538 0.3285
0.1701 0.8279 0.3231
0.1744 0.8385 0.2835
0.4369 0.8231 0.3454
0.6687 0.8368 0.2563
0.8488 0.8388 0.1610
0.1702 0.1702 0.5308
0.2020 0.1702 0.5372
0.3594 0.1702 0.5541
0.6177 0.1701 0.5778
0.8223 0.1701 0.5967
0.1702 0.2024 0.5401
0.2200 0.2200 0.5031
0.3639 0.2235 0.5347
0.6154 0.2201 0.5753
0.8342 0.1801 0.6012
0.1702 0.3649 0.5632
0.2239 0.3702 0.5472
0.4005 0.4005 0.5214
0.6099 0.4307 0.5677
0.8149 0.4412 0.5987
0.1701 0.6309 0.5913
0.2085 0.6337 0.5936
0.4417 0.6253 0.5825
0.6522 0.6478 0.6020
0.8146 0.6810 0.6232
0.1701 0.8320 0.5909
0.1717 0.8404 0.5812
0.4571 0.8259 0.5944
0.7030 0.8197 0.6184
0.8426 0.8318 0.5624
0.1701 0.1701 0.7772
0.2064 0.1701 0.7801
0.3768 0.1701 0.7877
0.6376 0.1701 0.7972
0.8311 0.1701 0.8019
0.1701 0.2066 0.7814
0.2225 0.2225 0.7703
0.3834 0.2169 0.7855
0.6456 0.1883 0.8074
0.8412 0.1701 0.8112
0.1701 0.3803 0.7918
0.2129 0.3839 0.7915
0.4371 0.4353 0.7559
0.6494 0.4424 0.7805
0.8347 0.4120 0.7984
0.1701 0.6451 0.8029
0.1789 0.6479 0.8134
0.4586 0.6520 0.7856
0.6890 0.6794 0.7691
0.8289 0.6960 0.7847
0.1701 0.8353 0.8020
0.1708 0.8404 0.8061
0.4259 0.8349 0.7975
0.7252 0.8255 0.7863
0.8401 0.8309 0.7912
