public/luts/banana.cube
#Created by: Pixelmator Pro
#Color profile: "kCGColorSpaceDisplayP3"
TITLE "Custom"
#Data domain
#LUT size
LUT_3D_SIZE 7
DOMAIN_MIN 0.000000 0.000000 0.000000
DOMAIN_MAX 0.882353 0.882353 0.882353
0.1702 0.1702 0.1395
0.1823 0.1702 0.1395
0.2330 0.1702 0.1395
0.3602 0.1702 0.1395
0.5446 0.1702 0.1395
0.7294 0.1701 0.1395
0.8453 0.1703 0.1394
0.1702 0.1823 0.1395
0.1824 0.1824 0.1395
0.2349 0.1830 0.1395
0.3643 0.1841 0.1395
0.5491 0.1855 0.1395
0.7324 0.1870 0.1395
0.8463 0.1890 0.1394
0.1702 0.2353 0.1395
0.1833 0.2366 0.1395
0.2400 0.2400 0.1395
0.3745 0.2457 0.1395
0.5601 0.2527 0.1395
0.7396 0.2603 0.1394
0.8486 0.2699 0.1394
0.1702 0.3712 0.1395
0.1848 0.3737 0.1395
0.2481 0.3799 0.1395
0.3897 0.3897 0.1395
0.5764 0.4020 0.1395
0.7499 0.4147 0.1394
0.8518 0.4309 0.1394
0.1701 0.5656 0.1395
0.1866 0.5679 0.1395
0.2574 0.5738 0.1395
0.4069 0.5830 0.1394
0.5944 0.5943 0.1394
0.7608 0.6058 0.1394
0.8555 0.6191 0.1394
0.1703 0.7497 0.1394
0.1889 0.7508 0.1394
0.2686 0.7535 0.1394
0.4278 0.7574 0.1394
0.6165 0.7619 0.1394
0.7732 0.7669 0.1394
0.8598 0.7723 0.1394
0.1913 0.8522 0.1394
0.2198 0.8524 0.1394
0.3143 0.8529 0.1394
0.4725 0.8537 0.1394
0.6486 0.8546 0.1394
0.7874 0.8556 0.1394
0.8643 0.8565 0.1394
0.1702 0.1702 0.1500
0.1823 0.1702 0.1500
0.2341 0.1702 0.1505
0.3624 0.1702 0.1514
0.5471 0.1702 0.1527
0.7311 0.1701 0.1541
0.8461 0.1701 0.1549
0.1702 0.1824 0.1501
0.1825 0.1825 0.1502
0.2238 0.1868 0.1540
0.3430 0.1914 0.1580
0.5304 0.1946 0.1608
0.7280 0.1918 0.1583
0.8553 0.1731 0.1413
0.1702 0.2364 0.1508
0.1883 0.2291 0.1553
0.2378 0.2378 0.1574
0.3627 0.2494 0.1600
0.5491 0.2597 0.1608
0.7403 0.2614 0.1551
0.8574 0.2457 0.1394
0.1702 0.3732 0.1522
0.1935 0.3612 0.1599
0.2535 0.3720 0.1606
0.3876 0.3876 0.1608
0.5748 0.4034 0.1576
0.7585 0.4106 0.1456
0.8585 0.4183 0.1394
0.1701 0.5675 0.1538
0.1935 0.5617 0.1599
0.2625 0.5708 0.1585
0.4079 0.5845 0.1545
0.5999 0.5996 0.1441
0.7690 0.6075 0.1394
0.8601 0.6166 0.1394
0.1701 0.7509 0.1548
0.1759 0.7606 0.1437
0.2452 0.7653 0.1394
0.4172 0.7666 0.1394
0.6172 0.7681 0.1394
0.7770 0.7703 0.1394
0.8627 0.7735 0.1394
0.1732 0.8575 0.1394
0.1969 0.8575 0.1394
0.2917 0.8575 0.1394
0.4605 0.8576 0.1394
0.6457 0.8576 0.1394
0.7885 0.8577 0.1394
0.8658 0.8577 0.1394
0.1702 0.1702 0.1944
0.1827 0.1702 0.1955
0.2369 0.1702 0.1986
0.3684 0.1702 0.2041
0.5535 0.1702 0.2110
0.7353 0.1701 0.2185
0.8478 0.1701 0.2236
0.1702 0.1828 0.1960
0.1862 0.1862 0.1848
0.2322 0.1892 0.1944
0.3545 0.1928 0.2065
0.5412 0.1947 0.2177
0.7350 0.1899 0.2217
0.8579 0.1701 0.2003
0.1702 0.2392 0.2007
0.1904 0.2364 0.1981
0.2436 0.2436 0.2047
0.3504 0.2629 0.2223
0.5212 0.2839 0.2417
0.7109 0.2994 0.2563
0.8464 0.2846 0.2364
0.1702 0.3784 0.2081
0.1943 0.3702 0.2130
0.2705 0.3637 0.2293
0.3865 0.3865 0.2414
0.5562 0.4118 0.2535
0.7359 0.4311 0.2551
0.8595 0.4192 0.1989
0.1701 0.5723 0.2168
0.1923 0.5692 0.2220
0.2947 0.5507 0.2519
0.4206 0.5696 0.2567
0.5923 0.5916 0.2538
0.7670 0.6088 0.2130
0.8722 0.6062 0.1409
0.1701 0.7537 0.2231
0.1727 0.7645 0.2037
0.2957 0.7465 0.2469
0.4335 0.7594 0.2260
0.6189 0.7731 0.1805
0.7871 0.7790 0.1394
0.8704 0.7759 0.1394
0.1701 0.8595 0.1911
0.1701 0.8648 0.1639
0.2243 0.8691 0.1428
0.4178 0.8682 0.1394
0.6348 0.8657 0.1394
0.7910 0.8633 0.1394
0.8697 0.8609 0.1394
0.1702 0.1702 0.3098
0.1836 0.1702 0.3127
0.2419 0.1702 0.3200
0.3780 0.1702 0.3317
0.5639 0.1702 0.3462
0.7420 0.1701 0.3613
0.8506 0.1701 0.3703
0.1702 0.1837 0.3140
0.1904 0.1904 0.2896
0.2436 0.1923 0.3045
0.3715 0.1944 0.3253
0.5579 0.1940 0.3470
0.7463 0.1855 0.3625
0.8594 0.1701 0.3569
0.1702 0.2439 0.3245
0.1930 0.2465 0.3107
0.2597 0.2597 0.2995
0.3720 0.2753 0.3258
0.5420 0.2917 0.3552
0.7251 0.3012 0.3801
0.8515 0.2797 0.3737
0.1702 0.3868 0.3403
0.1947 0.3837 0.3372
0.2814 0.3828 0.3363
0.4014 0.4014 0.3547
0.5482 0.4342 0.3873
0.7145 0.4647 0.4155
0.8410 0.4741 0.4105
0.1701 0.5802 0.3581
0.1890 0.5810 0.3596
0.2992 0.5665 0.3717
0.4471 0.5644 0.4000
0.5936 0.5921 0.4161
0.7508 0.6166 0.4150
0.8597 0.6233 0.3605
0.1701 0.7583 0.3694
0.1701 0.7688 0.3562
0.2942 0.7544 0.3800
0.4809 0.7411 0.4180
0.6316 0.7579 0.4030
0.7814 0.7724 0.3461
0.8759 0.7760 0.2168
0.1701 0.8610 0.3392
0.1701 0.8657 0.3141
0.2468 0.8665 0.3036
0.4591 0.8611 0.3281
0.6289 0.8693 0.2372
0.7926 0.8685 0.1897
0.8760 0.8657 0.1468
0.1702 0.1702 0.4904
0.1849 0.1702 0.4940
0.2484 0.1702 0.5030
0.3904 0.1702 0.5173
0.5771 0.1701 0.5347
0.7504 0.1701 0.5521
0.8544 0.1701 0.5595
0.1702 0.1850 0.4956
0.1939 0.1939 0.4699
0.2550 0.1946 0.4855
0.3903 0.1944 0.5089
0.5777 0.1901 0.5354
0.7606 0.1758 0.5582
0.8616 0.1701 0.5582
0.1702 0.2502 0.5085
0.1947 0.2568 0.4923
0.2784 0.2784 0.4621
0.3973 0.2893 0.4909
0.5669 0.2993 0.5240
0.7439 0.2973 0.5526
0.8603 0.2574 0.5565
0.1702 0.3975 0.5275
0.1929 0.3986 0.5231
0.2933 0.4052 0.5026
0.4288 0.4288 0.4973
0.5747 0.4547 0.5311
0.7346 0.4758 0.5601
0.8475 0.4790 0.5684
0.1701 0.5902 0.5485
0.1811 0.5946 0.5532
0.3016 0.5855 0.5431
0.4660 0.5872 0.5434
0.6112 0.6084 0.5630
0.7450 0.6372 0.5858
0.8455 0.6543 0.5881
0.1701 0.7643 0.5595
0.1701 0.7722 0.5587
0.2867 0.7643 0.5593
0.4962 0.7507 0.5704
0.6558 0.7518 0.5905
0.7775 0.7681 0.5856
0.8644 0.7764 0.5401
0.1701 0.8627 0.5384
0.1701 0.8667 0.5271
0.2239 0.8698 0.5112
0.4974 0.8567 0.5481
0.6733 0.8541 0.5592
0.7938 0.8621 0.4917
0.8753 0.8639 0.3801
0.1702 0.1702 0.6868
0.1863 0.1702 0.6894
0.2557 0.1702 0.6962
0.4038 0.1701 0.7067
0.5912 0.1701 0.7191
0.7604 0.1701 0.7291
0.8588 0.1701 0.7319
0.1702 0.1863 0.6907
0.1942 0.1942 0.6782
0.2623 0.1930 0.6898
0.4061 0.1892 0.7074
0.5968 0.1793 0.7281
0.7704 0.1701 0.7392
0.8644 0.1701 0.7360
0.1701 0.2571 0.7003
0.1922 0.2625 0.6949
0.2949 0.2949 0.6594
0.4210 0.3000 0.6816
0.5925 0.2995 0.7073
0.7647 0.2762 0.7298
0.8707 0.2105 0.7377
0.1701 0.4092 0.7140
0.1849 0.4096 0.7184
0.3011 0.4256 0.6907
0.4581 0.4574 0.6664
0.6045 0.4730 0.6932
0.7565 0.4814 0.7151
0.8586 0.4633 0.7251
0.1701 0.6013 0.7282
0.1701 0.6056 0.7398
0.2948 0.6036 0.7218
0.4851 0.6107 0.7012
0.6396 0.6338 0.6960
0.7630 0.6545 0.7149
0.8514 0.6650 0.7243
0.1701 0.7703 0.7343
0.1701 0.7755 0.7390
0.2667 0.7736 0.7351
0.5032 0.7636 0.7220
0.6770 0.7632 0.7198
0.7838 0.7747 0.7297
0.8554 0.7857 0.7325
0.1701 0.8642 0.7228
0.1701 0.8672 0.7215
0.2235 0.8695 0.7171
0.4765 0.8622 0.7146
0.6971 0.8517 0.7239
0.8022 0.8526 0.7277
0.8682 0.8576 0.6964
0.1701 0.1701 0.8198
0.1877 0.1701 0.8209
0.2628 0.1701 0.8237
0.4171 0.1701 0.8279
0.6070 0.1701 0.8323
0.7713 0.1701 0.8352
0.8633 0.1701 0.8350
0.1701 0.1877 0.8214
0.1855 0.1855 0.8243
0.2563 0.1816 0.8294
0.4104 0.1726 0.8381
0.6107 0.1701 0.8411
0.7775 0.1701 0.8412
0.8673 0.1701 0.8385
0.1701 0.2638 0.8254
0.1797 0.2541 0.8318
0.3012 0.3006 0.8101
0.4356 0.2933 0.8213
0.6148 0.2742 0.8332
0.7824 0.2257 0.8440
0.8748 0.1872 0.8442
0.1701 0.4197 0.8313
0.1701 0.4082 0.8414
0.2949 0.4340 0.8249
0.4830 0.4777 0.8027
0.6314 0.4813 0.8153
0.7764 0.4696 0.8269
0.8701 0.4115 0.8350
0.1701 0.6109 0.8369
0.1701 0.6099 0.8438
0.2786 0.6131 0.8373
0.5006 0.6290 0.8173
0.6666 0.6554 0.8039
0.7813 0.6645 0.8146
0.8618 0.6575 0.8218
0.1701 0.7747 0.8387
0.1701 0.7772 0.8427
0.2239 0.7788 0.8451
0.4981 0.7732 0.8288
0.6922 0.7754 0.8152
0.7972 0.7863 0.8114
0.8596 0.7927 0.8171
0.1701 0.8646 0.8331
0.1701 0.8667 0.8346
0.2218 0.8681 0.8346
0.4118 0.8670 0.8312
0.6909 0.8570 0.8205
0.8116 0.8531 0.8180
0.8643 0.8559 0.8208
