public/luts/cinema.cube
#Created by: Pixelmator Pro
#Color profile: "sRGB IEC61966-2.1"
TITLE "Cinema"
#Data domain
#LUT size
LUT_3D_SIZE 7
DOMAIN_MIN 0.000000 0.000000 0.000000
DOMAIN_MAX 0.882353 0.882353 0.882353
0.0309 0.0382 0.0584
0.0759 0.0429 0.0584
0.1692 0.0577 0.0584
0.2949 0.0750 0.0584
0.4525 0.0959 0.0584
0.6173 0.1272 0.0584
0.7467 0.1918 0.0584
0.0345 0.0936 0.0889
0.1229 0.0857 0.0584
0.2124 0.0917 0.0584
0.3182 0.1088 0.0584
0.4709 0.1288 0.0584
0.6277 0.1599 0.0584
0.7500 0.2262 0.0584
0.0607 0.1754 0.1313
0.1078 0.1838 0.1074
0.2726 0.1535 0.0584
0.4048 0.1519 0.0584
0.5152 0.1763 0.0584
0.6372 0.2150 0.0584
0.7531 0.2833 0.0584
0.0904 0.2914 0.1742
0.1385 0.2906 0.1699
0.2232 0.3140 0.0879
0.4552 0.2487 0.0584
0.5903 0.2391 0.0584
0.6739 0.2774 0.0584
0.7565 0.3572 0.0584
0.1285 0.4414 0.2285
0.1921 0.4278 0.2424
0.2415 0.4564 0.1841
0.3876 0.4705 0.0608
0.6215 0.3794 0.0584
0.7140 0.3638 0.0584
0.7700 0.4378 0.0584
0.1828 0.6086 0.3171
0.2493 0.5996 0.3323
0.3061 0.6071 0.3121
0.3801 0.6264 0.2335
0.5497 0.6343 0.0866
0.7305 0.5494 0.0584
0.7883 0.5445 0.0584
0.2862 0.7510 0.4951
0.3472 0.7485 0.5058
0.4333 0.7449 0.5234
0.4760 0.7512 0.4904
0.5437 0.7594 0.4109
0.6667 0.7658 0.2292
0.7998 0.7230 0.0584
0.0309 0.0470 0.0996
0.0905 0.0423 0.1384
0.1885 0.0611 0.1238
0.3998 0.0422 0.0973
0.5684 0.0576 0.0584
0.6686 0.1048 0.0584
0.7610 0.1749 0.0584
0.0309 0.1034 0.1403
0.0911 0.0979 0.1280
0.2314 0.1017 0.1136
0.4238 0.0987 0.0762
0.5656 0.1129 0.0584
0.6725 0.1449 0.0584
0.7631 0.2102 0.0584
0.0309 0.1954 0.1653
0.1122 0.1798 0.1653
0.2608 0.1638 0.1040
0.3881 0.1659 0.1077
0.5405 0.1806 0.0679
0.6700 0.2088 0.0584
0.7647 0.2717 0.0584
0.0516 0.3227 0.1966
0.1397 0.2969 0.2067
0.2103 0.3095 0.1656
0.4737 0.2573 0.0584
0.5970 0.2477 0.0804
0.6853 0.2805 0.0584
0.7652 0.3528 0.0584
0.1012 0.4655 0.2475
0.1776 0.4462 0.2597
0.2513 0.4476 0.2468
0.3659 0.4706 0.1462
0.6304 0.3876 0.0584
0.7203 0.3683 0.0584
0.7732 0.4408 0.0584
0.1578 0.6214 0.3343
0.2306 0.6116 0.3471
0.3243 0.6016 0.3629
0.3826 0.6225 0.2951
0.5339 0.6349 0.1596
0.7336 0.5554 0.0584
0.7901 0.5479 0.0585
0.2646 0.7546 0.5070
0.3295 0.7521 0.5164
0.4216 0.7483 0.5321
0.4885 0.7499 0.5254
0.5467 0.7584 0.4590
0.6612 0.7658 0.2894
0.8005 0.7252 0.0584
0.0309 0.0716 0.1815
0.0594 0.0655 0.2536
0.1793 0.0654 0.2434
0.3131 0.0864 0.2163
0.5067 0.0951 0.1926
0.7056 0.0634 0.1288
0.7818 0.1165 0.0584
0.0309 0.1191 0.2369
0.0811 0.1180 0.2543
0.1825 0.1211 0.2315
0.3117 0.1420 0.2138
0.5494 0.1283 0.1869
0.7215 0.1011 0.1004
0.7823 0.1657 0.0584
0.0309 0.2044 0.2527
0.0309 0.2119 0.2635
0.1817 0.1851 0.2109
0.3631 0.1915 0.1922
0.5766 0.1935 0.1564
0.7175 0.1845 0.0866
0.7820 0.2401 0.0584
0.0309 0.3341 0.2733
0.0474 0.3529 0.2564
0.2139 0.2996 0.2512
0.4059 0.2786 0.1757
0.5451 0.2831 0.1797
0.6783 0.3063 0.1385
0.7796 0.3354 0.0584
0.0309 0.5002 0.2992
0.1199 0.4863 0.2935
0.2552 0.4510 0.3060
0.3443 0.4638 0.2568
0.6160 0.4043 0.1347
0.7030 0.3998 0.1613
0.7730 0.4576 0.1100
0.0997 0.6432 0.3682
0.1834 0.6321 0.3753
0.3057 0.6156 0.3926
0.3969 0.6148 0.3832
0.5112 0.6341 0.2665
0.7341 0.5658 0.0957
0.7849 0.5700 0.1603
0.2202 0.7607 0.5269
0.2923 0.7580 0.5341
0.3961 0.7539 0.5466
0.5043 0.7490 0.5644
0.5546 0.7567 0.5228
0.6534 0.7656 0.3801
0.8017 0.7287 0.0584
0.0309 0.0965 0.2815
0.0309 0.0838 0.3830
0.1279 0.0986 0.3756
0.3033 0.0891 0.3645
0.4780 0.1113 0.3269
0.6433 0.1455 0.2856
0.7864 0.0960 0.1861
0.0309 0.1391 0.3411
0.0471 0.1326 0.4070
0.1541 0.1481 0.3678
0.3102 0.1439 0.3544
0.4768 0.1684 0.3216
0.6604 0.1804 0.2899
0.7901 0.1313 0.1699
0.0309 0.2239 0.3739
0.0439 0.2218 0.4146
0.1758 0.2156 0.3541
0.3055 0.2188 0.3278
0.4703 0.2546 0.3127
0.6872 0.2357 0.2792
0.7943 0.1989 0.1382
0.0309 0.3459 0.3836
0.0309 0.3552 0.3929
0.1148 0.3425 0.3702
0.3084 0.3081 0.3058
0.5205 0.3161 0.2833
0.6970 0.3264 0.2426
0.7902 0.3273 0.1416
0.0309 0.4992 0.4074
0.0309 0.5157 0.3969
0.1381 0.5081 0.3644
0.3470 0.4522 0.3594
0.5606 0.4293 0.2666
0.6723 0.4410 0.2757
0.7736 0.4832 0.2088
0.0309 0.6586 0.4442
0.0728 0.6621 0.4315
0.2302 0.6427 0.4312
0.3967 0.6191 0.4468
0.4942 0.6285 0.3946
0.7164 0.5827 0.2281
0.7774 0.5963 0.2697
0.1401 0.7689 0.5555
0.2203 0.7662 0.5592
0.3439 0.7616 0.5669
0.4765 0.7560 0.5795
0.5723 0.7539 0.5839
0.6458 0.7647 0.4890
0.7977 0.7344 0.1934
0.0309 0.1275 0.4071
0.0309 0.1191 0.4862
0.0977 0.1132 0.5351
0.2286 0.1309 0.5170
0.4611 0.1178 0.5036
0.6372 0.1514 0.4574
0.7617 0.2109 0.3969
0.0309 0.1687 0.4622
0.0309 0.1601 0.5270
0.1228 0.1646 0.5335
0.2466 0.1885 0.5083
0.4673 0.1731 0.4967
0.6359 0.2110 0.4542
0.7659 0.2495 0.4010
0.0309 0.2507 0.5092
0.0309 0.2450 0.5540
0.1494 0.2484 0.5325
0.2802 0.2668 0.4934
0.4691 0.2603 0.4812
0.6304 0.3079 0.4476
0.7724 0.3114 0.3999
0.0309 0.3697 0.5227
0.0309 0.3717 0.5480
0.1393 0.3593 0.5367
0.2988 0.3482 0.4777
0.4572 0.3531 0.4509
0.6267 0.4075 0.4414
0.7815 0.3880 0.3757
0.0309 0.5127 0.5303
0.0309 0.5201 0.5366
0.0309 0.5283 0.5440
0.2082 0.4995 0.5005
0.4594 0.4644 0.4308
0.6591 0.4788 0.4056
0.7814 0.5058 0.3441
0.0309 0.6581 0.5547
0.0309 0.6656 0.5498
0.0309 0.6777 0.5353
0.2518 0.6581 0.5061
0.4977 0.6214 0.5059
0.6840 0.6038 0.3911
0.7652 0.6273 0.4033
0.0309 0.7769 0.6028
0.0721 0.7777 0.5986
0.2194 0.7729 0.5987
0.3996 0.7666 0.6025
0.5633 0.7584 0.6135
0.6435 0.7621 0.5883
0.7911 0.7417 0.3521
0.0309 0.1767 0.5574
0.0309 0.1693 0.5981
0.0309 0.1372 0.6546
0.1704 0.1617 0.6441
0.3532 0.1844 0.6354
0.6199 0.1653 0.6268
0.7493 0.2669 0.5845
0.0309 0.2184 0.5883
0.0309 0.2108 0.6203
0.0596 0.1897 0.6559
0.1969 0.2149 0.6432
0.3685 0.2449 0.6322
0.6215 0.2249 0.6242
0.7482 0.3297 0.5842
0.0309 0.2957 0.6182
0.0309 0.2896 0.6407
0.0885 0.2804 0.6570
0.2324 0.3011 0.6420
0.3910 0.3371 0.6260
0.6221 0.3196 0.6189
0.7461 0.4231 0.5839
0.0309 0.4062 0.6360
0.0309 0.4039 0.6517
0.0998 0.3980 0.6595
0.2598 0.4055 0.6407
0.4245 0.4271 0.6173
0.6188 0.4260 0.6090
0.7433 0.5231 0.5841
0.0309 0.5396 0.6408
0.0309 0.5422 0.6498
0.0607 0.5397 0.6605
0.2409 0.5263 0.6430
0.4398 0.5172 0.6086
0.6078 0.5261 0.5900
0.7513 0.5912 0.5879
0.0309 0.6686 0.6453
0.0309 0.6722 0.6478
0.0309 0.6769 0.6510
0.0489 0.6802 0.6528
0.3095 0.6595 0.6258
0.6082 0.6346 0.5774
0.7649 0.6563 0.5567
0.0309 0.7774 0.6647
0.0309 0.7796 0.6630
0.0309 0.7830 0.6593
0.1046 0.7847 0.6518
0.4185 0.7749 0.6441
0.6481 0.7609 0.6484
0.7781 0.7518 0.5498
0.0309 0.2844 0.6785
0.0309 0.2787 0.6890
0.0309 0.2597 0.7036
0.0433 0.2160 0.7184
0.2273 0.2585 0.7144
0.4665 0.3233 0.7098
0.7388 0.3049 0.7061
0.0309 0.3258 0.6867
0.0309 0.3200 0.6955
0.0309 0.3026 0.7078
0.0709 0.2738 0.7182
0.2512 0.3150 0.7140
0.4781 0.3827 0.7091
0.7391 0.3638 0.7056
0.0309 0.3946 0.6962
0.0309 0.3904 0.7028
0.0309 0.3758 0.7126
0.1014 0.3655 0.7180
0.2862 0.4008 0.7136
0.5068 0.4590 0.7082
0.7395 0.4499 0.7049
0.0309 0.4857 0.7041
0.0309 0.4836 0.7090
0.0309 0.4740 0.7165
0.1310 0.4748 0.7181
0.3248 0.4991 0.7133
0.5381 0.5414 0.7070
0.7396 0.5431 0.7036
0.0309 0.5918 0.7099
0.0309 0.5917 0.7135
0.0309 0.5886 0.7190
0.1494 0.5892 0.7187
0.3575 0.5987 0.7133
0.5676 0.6198 0.7052
0.7386 0.6289 0.7011
0.0309 0.6947 0.7125
0.0309 0.6960 0.7148
0.0309 0.6969 0.7184
0.1139 0.6952 0.7198
0.3441 0.6913 0.7147
0.5847 0.6899 0.7035
0.7342 0.6996 0.6955
0.0309 0.7831 0.7156
0.0309 0.7841 0.7161
0.0309 0.7856 0.7169
0.0309 0.7874 0.7178
0.0309 0.7893 0.7188
0.3867 0.7825 0.7113
0.7348 0.7700 0.6903
