public/luts/cinema.cube
#Created by: Pixelmator Pro
#Color profile: "sRGB IEC61966-2.1"
TITLE "Cinema"
#Data domain
#LUT size
LUT_3D_SIZE 5
DOMAIN_MIN 0.000000 0.000000 0.000000
DOMAIN_MAX 0.823529 0.823529 0.823529
0.0309 0.0382 0.0584
0.1104 0.0480 0.0584
0.2671 0.0714 0.0584
0.4867 0.1010 0.0584
0.6999 0.1584 0.0584
0.0438 0.1231 0.1065
0.1768 0.1108 0.0584
0.3263 0.1204 0.0584
0.5107 0.1526 0.0584
0.7080 0.2120 0.0584
0.0840 0.2653 0.1651
0.1527 0.2783 0.1314
0.4177 0.2269 0.0584
0.5946 0.2304 0.0584
0.7156 0.3062 0.0584
0.1377 0.4746 0.2423
0.2189 0.4693 0.2433
0.3412 0.5038 0.1264
0.6476 0.4103 0.0584
0.7526 0.4192 0.0584
0.2341 0.6986 0.4076
0.3329 0.6915 0.4296
0.4093 0.7017 0.3844
0.5559 0.7173 0.2277
0.7752 0.6571 0.0584
0.0309 0.0569 0.1312
0.1223 0.0508 0.1780
0.2948 0.0763 0.1524
0.6180 0.0415 0.0905
0.7399 0.1199 0.0584
0.0309 0.1391 0.1827
0.1233 0.1292 0.1600
0.3612 0.1346 0.1339
0.6281 0.1279 0.0584
0.7420 0.1866 0.0584
0.0309 0.3028 0.2152
0.1609 0.2723 0.2152
0.4056 0.2439 0.1172
0.5883 0.2510 0.1174
0.7392 0.2979 0.0584
0.0886 0.5111 0.2742
0.2152 0.4813 0.2908
0.3291 0.4966 0.2352
0.6592 0.4226 0.0584
0.7550 0.4312 0.0910
0.1946 0.7092 0.4324
0.3059 0.7014 0.4501
0.4308 0.6976 0.4584
0.5466 0.7159 0.3236
0.7774 0.6629 0.0584
0.0309 0.0912 0.2599
0.0761 0.0833 0.3588
0.2756 0.0841 0.3388
0.5048 0.1233 0.2862
0.7506 0.1004 0.2095
0.0309 0.1635 0.3374
0.1080 0.1621 0.3570
0.2819 0.1676 0.3194
0.5154 0.2043 0.2867
0.7619 0.1554 0.1853
0.0309 0.3149 0.3557
0.0309 0.3275 0.3694
0.2804 0.2806 0.2852
0.5756 0.2930 0.2514
0.7620 0.2942 0.1585
0.0309 0.5339 0.3879
0.0813 0.5475 0.3621
0.3370 0.4858 0.3627
0.6121 0.4527 0.2301
0.7375 0.4804 0.2343
0.0908 0.7280 0.4843
0.2244 0.7194 0.4909
0.4190 0.7055 0.5116
0.5436 0.7116 0.4671
0.7721 0.6743 0.1793
0.0309 0.1353 0.4364
0.0309 0.1160 0.5526
0.1826 0.1376 0.5472
0.4950 0.1248 0.5311
0.7067 0.2115 0.4558
0.0309 0.2041 0.5093
0.0484 0.1902 0.5791
0.2272 0.2182 0.5404
0.5022 0.2134 0.5215
0.7045 0.3086 0.4576
0.0309 0.3497 0.5478
0.0511 0.3454 0.5863
0.2653 0.3402 0.5292
0.4951 0.3472 0.4926
0.7181 0.4131 0.4677
0.0309 0.5464 0.5571
0.0309 0.5563 0.5652
0.1398 0.5472 0.5491
0.4904 0.4991 0.4602
0.7379 0.5282 0.4193
0.0309 0.7349 0.5931
0.0309 0.7417 0.5839
0.2476 0.7334 0.5692
0.5517 0.7094 0.5772
0.7533 0.6916 0.4057
0.0309 0.2283 0.6361
0.0309 0.2148 0.6670
0.0848 0.1797 0.6963
0.3244 0.2385 0.6869
0.6954 0.2287 0.6794
0.0309 0.2960 0.6589
0.0309 0.2833 0.6812
0.1186 0.2685 0.6961
0.3635 0.3247 0.6854
0.6961 0.3249 0.6776
0.0309 0.4221 0.6789
0.0309 0.4152 0.6929
0.1592 0.4154 0.6961
0.4153 0.4537 0.6828
0.6959 0.4662 0.6738
0.0309 0.5900 0.6879
0.0309 0.5911 0.6963
0.1597 0.5864 0.6980
0.4516 0.5871 0.6798
0.6902 0.6018 0.6642
0.0309 0.7424 0.6923
0.0309 0.7452 0.6939
0.0309 0.7491 0.6961
0.2201 0.7445 0.6897
0.6869 0.7215 0.6513
