public/luts/cinema.cube
#Created by: Pixelmator Pro
#Color profile: "sRGB IEC61966-2.1"
TITLE "Cinema"
#Data domain
DOMAIN_MIN 0.0000 0.0000 0.0000
DOMAIN_MAX 1.0000 1.0000 1.0000
#LUT size
LUT_3D_SIZE 35
0.0309 0.0382 0.0584
0.0309 0.0382 0.0584
0.0309 0.0382 0.0584
0.0392 0.0389 0.0584
0.0582 0.0407 0.0584
0.0759 0.0429 0.0584
0.0929 0.0453 0.0584
0.1104 0.0480 0.0584
0.1287 0.0510 0.0584
0.1482 0.0543 0.0584
0.1692 0.0577 0.0584
0.1917 0.0611 0.0584
0.2155 0.0645 0.0584
0.2406 0.0679 0.0584
0.2671 0.0714 0.0584
0.2949 0.0750 0.0584
0.3240 0.0788 0.0584
0.3544 0.0827 0.0584
0.3860 0.0868 0.0584
0.4188 0.0912 0.0584
0.4525 0.0959 0.0584
0.4867 0.1010 0.0584
0.5209 0.1065 0.0584
0.5543 0.1126 0.0584
0.5865 0.1195 0.0584
0.6173 0.1272 0.0584
0.6464 0.1360 0.0584
0.6740 0.1463 0.0584
0.6999 0.1584 0.0584
0.7242 0.1732 0.0584
0.7467 0.1918 0.0584
0.7674 0.2166 0.0584
0.7868 0.2510 0.0584
0.8050 0.3018 0.0584
0.8224 0.3833 0.0584
0.0309 0.0382 0.0584
0.0313 0.0384 0.0584
0.0403 0.0405 0.0584
0.0539 0.0431 0.0584
0.0678 0.0461 0.0584
0.0835 0.0491 0.0584
0.0997 0.0522 0.0584
0.1169 0.0554 0.0584
0.1351 0.0585 0.0584
0.1547 0.0616 0.0584
0.1757 0.0647 0.0584
0.1981 0.0678 0.0584
0.2218 0.0710 0.0584
0.2469 0.0742 0.0584
0.2732 0.0775 0.0584
0.3008 0.0809 0.0584
0.3298 0.0845 0.0584
0.3599 0.0883 0.0584
0.3913 0.0923 0.0584
0.4237 0.0966 0.0584
0.4571 0.1012 0.0584
0.4909 0.1063 0.0584
0.5245 0.1118 0.0584
0.5575 0.1178 0.0584
0.5892 0.1246 0.0584
0.6195 0.1323 0.0584
0.6483 0.1412 0.0584
0.6755 0.1515 0.0584
0.7011 0.1637 0.0584
0.7251 0.1785 0.0584
0.7473 0.1972 0.0584
0.7679 0.2220 0.0584
0.7870 0.2565 0.0584
0.8052 0.3073 0.0584
0.8225 0.3884 0.0584
0.0309 0.0471 0.0626
0.0373 0.0507 0.0584
0.0541 0.0481 0.0584
0.0683 0.0488 0.0584
0.0802 0.0518 0.0584
0.0924 0.0553 0.0584
0.1049 0.0590 0.0584
0.1214 0.0621 0.0584
0.1393 0.0651 0.0584
0.1585 0.0681 0.0584
0.1797 0.0710 0.0584
0.2023 0.0738 0.0584
0.2262 0.0768 0.0584
0.2513 0.0799 0.0584
0.2777 0.0831 0.0584
0.3053 0.0864 0.0584
0.3341 0.0899 0.0584
0.3642 0.0937 0.0584
0.3954 0.0976 0.0584
0.4277 0.1019 0.0584
0.4608 0.1065 0.0584
0.4944 0.1114 0.0584
0.5276 0.1169 0.0584
0.5601 0.1229 0.0584
0.5915 0.1297 0.0584
0.6214 0.1374 0.0584
0.6499 0.1463 0.0584
0.6768 0.1566 0.0584
0.7021 0.1689 0.0584
0.7259 0.1837 0.0584
0.7479 0.2025 0.0584
0.7683 0.2274 0.0584
0.7873 0.2619 0.0584
0.8053 0.3126 0.0584
0.8226 0.3932 0.0584
0.0309 0.0639 0.0702
0.0380 0.0671 0.0647
0.0545 0.0669 0.0584
0.0767 0.0611 0.0584
0.0933 0.0599 0.0584
0.1058 0.0626 0.0584
0.1187 0.0655 0.0584
0.1323 0.0687 0.0584
0.1466 0.0720 0.0584
0.1635 0.0751 0.0584
0.1845 0.0779 0.0584
0.2066 0.0808 0.0584
0.2299 0.0839 0.0584
0.2549 0.0869 0.0584
0.2815 0.0899 0.0584
0.3093 0.0931 0.0584
0.3382 0.0965 0.0584
0.3683 0.1001 0.0584
0.3995 0.1040 0.0584
0.4317 0.1082 0.0584
0.4647 0.1128 0.0584
0.4979 0.1177 0.0584
0.5309 0.1232 0.0584
0.5630 0.1293 0.0584
0.5940 0.1362 0.0584
0.6236 0.1439 0.0584
0.6517 0.1527 0.0584
0.6782 0.1631 0.0584
0.7033 0.1754 0.0584
0.7268 0.1902 0.0584
0.7486 0.2091 0.0584
0.7688 0.2341 0.0584
0.7876 0.2685 0.0584
0.8055 0.3191 0.0584
0.8227 0.3993 0.0584
0.0309 0.0796 0.0793
0.0426 0.0799 0.0780
0.0532 0.0829 0.0657
0.0732 0.0810 0.0584
0.0992 0.0735 0.0584
0.1195 0.0707 0.0584
0.1330 0.0731 0.0584
0.1474 0.0757 0.0584
0.1625 0.0785 0.0584
0.1782 0.0816 0.0584
0.1948 0.0849 0.0584
0.2120 0.0884 0.0584
0.2352 0.0913 0.0584
0.2601 0.0943 0.0584
0.2860 0.0975 0.0584
0.3129 0.1008 0.0584
0.3414 0.1043 0.0584
0.3717 0.1078 0.0584
0.4030 0.1116 0.0584
0.4353 0.1157 0.0584
0.4682 0.1202 0.0584
0.5013 0.1251 0.0584
0.5340 0.1306 0.0584
0.5659 0.1367 0.0584
0.5965 0.1435 0.0584
0.6257 0.1513 0.0584
0.6535 0.1604 0.0584
0.6798 0.1709 0.0584
0.7045 0.1832 0.0584
0.7278 0.1981 0.0584
0.7493 0.2171 0.0584
0.7693 0.2421 0.0584
0.7880 0.2765 0.0584
0.8057 0.3268 0.0584
0.8228 0.4064 0.0584
0.0345 0.0936 0.0889
0.0488 0.0926 0.0903
0.0561 0.0959 0.0811
0.0702 0.0984 0.0643
0.0929 0.0945 0.0584
0.1229 0.0857 0.0584
0.1479 0.0814 0.0584
0.1630 0.0836 0.0584
0.1788 0.0860 0.0584
0.1953 0.0888 0.0584
0.2124 0.0917 0.0584
0.2301 0.0950 0.0584
0.2487 0.0983 0.0584
0.2678 0.1021 0.0584
0.2908 0.1056 0.0584
0.3182 0.1088 0.0584
0.3466 0.1123 0.0584
0.3760 0.1160 0.0584
0.4062 0.1201 0.0584
0.4379 0.1244 0.0584
0.4709 0.1288 0.0584
0.5040 0.1337 0.0584
0.5366 0.1391 0.0584
0.5683 0.1452 0.0584
0.5987 0.1520 0.0584
0.6277 0.1599 0.0584
0.6552 0.1689 0.0584
0.6813 0.1794 0.0584
0.7058 0.1919 0.0584
0.7287 0.2070 0.0584
0.7500 0.2262 0.0584
0.7698 0.2511 0.0584
0.7883 0.2855 0.0584
0.8060 0.3355 0.0584
0.8230 0.4143 0.0584
0.0388 0.1080 0.0979
0.0553 0.1058 0.1012
0.0607 0.1091 0.0940
0.0707 0.1125 0.0815
0.0888 0.1140 0.0611
0.1143 0.1081 0.0584
0.1487 0.0980 0.0584
0.1790 0.0922 0.0584
0.1954 0.0943 0.0584
0.2125 0.0967 0.0584
0.2302 0.0994 0.0584
0.2485 0.1023 0.0584
0.2674 0.1056 0.0584
0.2869 0.1090 0.0584
0.3071 0.1128 0.0584
0.3280 0.1169 0.0584
0.3509 0.1211 0.0584
0.3807 0.1248 0.0584
0.4113 0.1287 0.0584
0.4426 0.1331 0.0584
0.4745 0.1379 0.0584
0.5062 0.1432 0.0584
0.5387 0.1487 0.0584
0.5703 0.1547 0.0584
0.6006 0.1616 0.0584
0.6295 0.1695 0.0584
0.6568 0.1785 0.0584
0.6826 0.1890 0.0584
0.7070 0.2014 0.0584
0.7297 0.2166 0.0584
0.7507 0.2359 0.0584
0.7703 0.2611 0.0584
0.7887 0.2954 0.0584
0.8062 0.3451 0.0584
0.8231 0.4230 0.0584
0.0438 0.1231 0.1065
0.0604 0.1204 0.1102
0.0662 0.1229 0.1056
0.0738 0.1267 0.0957
0.0871 0.1298 0.0793
0.1093 0.1296 0.0584
0.1378 0.1220 0.0584
0.1768 0.1108 0.0584
0.2125 0.1033 0.0584
0.2299 0.1055 0.0584
0.2481 0.1079 0.0584
0.2669 0.1105 0.0584
0.2861 0.1136 0.0584
0.3060 0.1168 0.0584
0.3263 0.1204 0.0584
0.3474 0.1244 0.0584
0.3692 0.1286 0.0584
0.3915 0.1333 0.0584
0.4151 0.1383 0.0584
0.4468 0.1426 0.0584
0.4788 0.1473 0.0584
0.5107 0.1526 0.0584
0.5419 0.1585 0.0584
0.5722 0.1652 0.0584
0.6021 0.1723 0.0584
0.6309 0.1801 0.0584
0.6581 0.1891 0.0584
0.6839 0.1996 0.0584
0.7080 0.2120 0.0584
0.7306 0.2272 0.0584
0.7514 0.2464 0.0584
0.7708 0.2716 0.0584
0.7891 0.3060 0.0584
0.8065 0.3554 0.0584
0.8233 0.4323 0.0584
0.0495 0.1393 0.1148
0.0649 0.1364 0.1182
0.0721 0.1375 0.1163
0.0782 0.1415 0.1079
0.0886 0.1455 0.0952
0.1055 0.1479 0.0755
0.1317 0.1453 0.0584
0.1638 0.1366 0.0584
0.2071 0.1241 0.0584
0.2481 0.1148 0.0584
0.2663 0.1171 0.0584
0.2854 0.1196 0.0584
0.3049 0.1224 0.0584
0.3250 0.1255 0.0584
0.3456 0.1289 0.0584
0.3667 0.1326 0.0584
0.3883 0.1368 0.0584
0.4107 0.1413 0.0584
0.4337 0.1463 0.0584
0.4572 0.1519 0.0584
0.4822 0.1579 0.0584
0.5142 0.1631 0.0584
0.5455 0.1689 0.0584
0.5758 0.1755 0.0584
0.6047 0.1830 0.0584
0.6322 0.1916 0.0584
0.6592 0.2007 0.0584
0.6849 0.2112 0.0584
0.7090 0.2235 0.0584
0.7314 0.2386 0.0584
0.7521 0.2578 0.0584
0.7713 0.2829 0.0584
0.7895 0.3170 0.0584
0.8067 0.3664 0.0584
0.8234 0.4422 0.0584
0.0551 0.1566 0.1231
0.0695 0.1537 0.1263
0.0783 0.1532 0.1267
0.0836 0.1574 0.1192
0.0921 0.1618 0.1085
0.1055 0.1656 0.0931
0.1266 0.1672 0.0694
0.1563 0.1619 0.0584
0.1920 0.1520 0.0584
0.2391 0.1383 0.0584
0.2833 0.1278 0.0584
0.3042 0.1293 0.0584
0.3237 0.1320 0.0584
0.3439 0.1350 0.0584
0.3646 0.1382 0.0584
0.3857 0.1418 0.0584
0.4074 0.1458 0.0584
0.4296 0.1503 0.0584
0.4521 0.1553 0.0584
0.4753 0.1606 0.0584
0.4986 0.1666 0.0584
0.5220 0.1735 0.0584
0.5484 0.1804 0.0584
0.5786 0.1869 0.0584
0.6075 0.1943 0.0584
0.6349 0.2028 0.0584
0.6609 0.2126 0.0584
0.6857 0.2237 0.0584
0.7097 0.2360 0.0584
0.7320 0.2511 0.0584
0.7526 0.2701 0.0584
0.7718 0.2950 0.0584
0.7898 0.3288 0.0584
0.8069 0.3775 0.0584
0.8235 0.4526 0.0584
0.0607 0.1754 0.1313
0.0743 0.1723 0.1343
0.0848 0.1701 0.1370
0.0896 0.1744 0.1302
0.0967 0.1793 0.1206
0.1078 0.1838 0.1074
0.1247 0.1871 0.0894
0.1503 0.1876 0.0634
0.1833 0.1797 0.0584
0.2222 0.1687 0.0584
0.2726 0.1535 0.0584
0.3192 0.1419 0.0584
0.3428 0.1425 0.0584
0.3629 0.1454 0.0584
0.3836 0.1485 0.0584
0.4048 0.1519 0.0584
0.4262 0.1558 0.0584
0.4482 0.1602 0.0584
0.4704 0.1650 0.0584
0.4927 0.1703 0.0584
0.5152 0.1763 0.0584
0.5378 0.1829 0.0584
0.5602 0.1904 0.0584
0.5823 0.1989 0.0584
0.6098 0.2067 0.0584
0.6372 0.2150 0.0584
0.6631 0.2246 0.0584
0.6875 0.2359 0.0584
0.7104 0.2493 0.0584
0.7326 0.2644 0.0584
0.7531 0.2833 0.0584
0.7722 0.3079 0.0584
0.7901 0.3414 0.0584
0.8072 0.3893 0.0584
0.8237 0.4633 0.0584
0.0663 0.1956 0.1395
0.0793 0.1925 0.1424
0.0901 0.1898 0.1454
0.0961 0.1928 0.1410
0.1023 0.1979 0.1320
0.1118 0.2029 0.1205
0.1258 0.2073 0.1053
0.1465 0.2099 0.0847
0.1769 0.2086 0.0584
0.2123 0.1987 0.0584
0.2543 0.1865 0.0584
0.3075 0.1699 0.0584
0.3562 0.1571 0.0584
0.3822 0.1567 0.0584
0.4026 0.1597 0.0584
0.4236 0.1630 0.0584
0.4449 0.1668 0.0584
0.4664 0.1710 0.0584
0.4881 0.1757 0.0584
0.5098 0.1809 0.0584
0.5314 0.1868 0.0584
0.5527 0.1934 0.0584
0.5742 0.2007 0.0584
0.5952 0.2089 0.0584
0.6159 0.2185 0.0584
0.6391 0.2283 0.0584
0.6649 0.2377 0.0584
0.6893 0.2487 0.0584
0.7120 0.2620 0.0584
0.7332 0.2783 0.0584
0.7535 0.2974 0.0584
0.7726 0.3217 0.0584
0.7904 0.3546 0.0584
0.8074 0.4018 0.0584
0.8238 0.4742 0.0584
0.0720 0.2174 0.1478
0.0845 0.2142 0.1507
0.0952 0.2114 0.1536
0.1030 0.2125 0.1518
0.1088 0.2176 0.1436
0.1170 0.2230 0.1330
0.1289 0.2282 0.1191
0.1463 0.2322 0.1018
0.1713 0.2339 0.0780
0.2053 0.2298 0.0584
0.2431 0.2190 0.0584
0.2880 0.2055 0.0584
0.3435 0.1875 0.0584
0.3938 0.1734 0.0584
0.4219 0.1719 0.0584
0.4425 0.1752 0.0584
0.4635 0.1787 0.0584
0.4843 0.1829 0.0584
0.5054 0.1874 0.0584
0.5262 0.1926 0.0584
0.5469 0.1982 0.0584
0.5674 0.2047 0.0584
0.5874 0.2120 0.0584
0.6074 0.2201 0.0584
0.6270 0.2293 0.0584
0.6463 0.2400 0.0584
0.6665 0.2518 0.0584
0.6908 0.2626 0.0584
0.7134 0.2757 0.0584
0.7344 0.2918 0.0584
0.7539 0.3121 0.0584
0.7729 0.3363 0.0584
0.7907 0.3687 0.0584
0.8076 0.4149 0.0584
0.8240 0.4856 0.0584
0.0779 0.2406 0.1563
0.0900 0.2374 0.1591
0.1006 0.2345 0.1619
0.1105 0.2335 0.1628
0.1159 0.2387 0.1551
0.1232 0.2444 0.1450
0.1337 0.2499 0.1327
0.1485 0.2548 0.1174
0.1694 0.2583 0.0979
0.1987 0.2591 0.0707
0.2353 0.2522 0.0584
0.2757 0.2405 0.0584
0.3230 0.2259 0.0584
0.3803 0.2065 0.0584
0.4318 0.1910 0.0584
0.4615 0.1884 0.0584
0.4818 0.1919 0.0584
0.5021 0.1957 0.0584
0.5221 0.2003 0.0584
0.5422 0.2051 0.0584
0.5618 0.2108 0.0584
0.5813 0.2170 0.0584
0.6004 0.2240 0.0584
0.6191 0.2321 0.0584
0.6376 0.2412 0.0584
0.6559 0.2514 0.0584
0.6739 0.2635 0.0584
0.6921 0.2776 0.0584
0.7146 0.2904 0.0584
0.7355 0.3062 0.0584
0.7549 0.3261 0.0584
0.7731 0.3517 0.0584
0.7909 0.3835 0.0584
0.8078 0.4287 0.0584
0.8241 0.4975 0.0584
0.0840 0.2653 0.1651
0.0958 0.2621 0.1678
0.1064 0.2592 0.1705
0.1186 0.2559 0.1741
0.1237 0.2611 0.1668
0.1304 0.2669 0.1573
0.1398 0.2727 0.1459
0.1527 0.2783 0.1314
0.1706 0.2828 0.1147
0.1951 0.2855 0.0934
0.2284 0.2854 0.0632
0.2670 0.2759 0.0584
0.3097 0.2633 0.0584
0.3590 0.2477 0.0584
0.4177 0.2269 0.0584
0.4697 0.2099 0.0584
0.5001 0.2061 0.0584
0.5195 0.2098 0.0584
0.5386 0.2141 0.0584
0.5576 0.2190 0.0584
0.5764 0.2243 0.0584
0.5946 0.2304 0.0584
0.6127 0.2373 0.0584
0.6304 0.2450 0.0584
0.6478 0.2539 0.0584
0.6650 0.2640 0.0584
0.6821 0.2756 0.0584
0.6987 0.2896 0.0584
0.7156 0.3062 0.0584
0.7364 0.3217 0.0584
0.7557 0.3412 0.0584
0.7738 0.3665 0.0584
0.7911 0.3991 0.0584
0.8080 0.4431 0.0584
0.8243 0.5098 0.0584
0.0904 0.2914 0.1742
0.1020 0.2882 0.1768
0.1125 0.2853 0.1795
0.1249 0.2819 0.1830
0.1322 0.2848 0.1789
0.1385 0.2906 0.1699
0.1469 0.2967 0.1589
0.1585 0.3024 0.1459
0.1740 0.3078 0.1303
0.1951 0.3120 0.1112
0.2232 0.3140 0.0879
0.2601 0.3122 0.0584
0.3003 0.3009 0.0584
0.3449 0.2875 0.0584
0.3958 0.2709 0.0584
0.4552 0.2487 0.0584
0.5065 0.2301 0.0584
0.5366 0.2251 0.0584
0.5549 0.2291 0.0584
0.5727 0.2339 0.0584
0.5903 0.2391 0.0584
0.6076 0.2449 0.0584
0.6246 0.2515 0.0584
0.6413 0.2591 0.0584
0.6578 0.2675 0.0584
0.6739 0.2774 0.0584
0.6898 0.2890 0.0584
0.7056 0.3025 0.0584
0.7210 0.3190 0.0584
0.7373 0.3382 0.0584
0.7565 0.3572 0.0584
0.7744 0.3818 0.0584
0.7914 0.4151 0.0584
0.8081 0.4583 0.0584
0.8244 0.5226 0.0584
0.0971 0.3189 0.1837
0.1086 0.3157 0.1863
0.1191 0.3128 0.1890
0.1316 0.3095 0.1924
0.1414 0.3098 0.1914
0.1475 0.3155 0.1830
0.1552 0.3217 0.1724
0.1657 0.3276 0.1602
0.1794 0.3335 0.1454
0.1976 0.3384 0.1287
0.2217 0.3421 0.1082
0.2535 0.3435 0.0814
0.2928 0.3390 0.0584
0.3347 0.3272 0.0584
0.3810 0.3132 0.0584
0.4331 0.2955 0.0584
0.4922 0.2719 0.0584
0.5416 0.2518 0.0584
0.5707 0.2455 0.0584
0.5876 0.2498 0.0584
0.6039 0.2550 0.0584
0.6201 0.2606 0.0584
0.6361 0.2670 0.0584
0.6518 0.2742 0.0584
0.6673 0.2824 0.0584
0.6825 0.2919 0.0584
0.6974 0.3033 0.0584
0.7120 0.3167 0.0584
0.7266 0.3325 0.0584
0.7410 0.3523 0.0584
0.7571 0.3742 0.0584
0.7750 0.3982 0.0584
0.7919 0.4304 0.0584
0.8083 0.4741 0.0584
0.8245 0.5358 0.0584
0.1043 0.3477 0.1938
0.1156 0.3446 0.1964
0.1261 0.3418 0.1990
0.1387 0.3384 0.2023
0.1514 0.3362 0.2046
0.1572 0.3417 0.1966
0.1646 0.3478 0.1867
0.1740 0.3540 0.1748
0.1864 0.3599 0.1613
0.2023 0.3655 0.1451
0.2233 0.3700 0.1269
0.2503 0.3731 0.1051
0.2853 0.3739 0.0753
0.3266 0.3672 0.0584
0.3700 0.3550 0.0584
0.4177 0.3402 0.0584
0.4703 0.3216 0.0584
0.5278 0.2965 0.0584
0.5745 0.2748 0.0584
0.6020 0.2674 0.0584
0.6175 0.2720 0.0584
0.6324 0.2776 0.0584
0.6474 0.2836 0.0584
0.6621 0.2905 0.0584
0.6765 0.2985 0.0584
0.6907 0.3078 0.0584
0.7047 0.3187 0.0584
0.7184 0.3317 0.0584
0.7320 0.3474 0.0584
0.7456 0.3663 0.0584
0.7590 0.3904 0.0584
0.7756 0.4155 0.0584
0.7924 0.4466 0.0584
0.8084 0.4904 0.0584
0.8246 0.5495 0.0584
0.1118 0.3778 0.2045
0.1231 0.3748 0.2071
0.1337 0.3720 0.2096
0.1464 0.3687 0.2129
0.1609 0.3651 0.2169
0.1679 0.3692 0.2109
0.1749 0.3751 0.2016
0.1835 0.3813 0.1902
0.1948 0.3872 0.1775
0.2090 0.3931 0.1623
0.2273 0.3983 0.1452
0.2508 0.4026 0.1252
0.2807 0.4051 0.1021
0.3185 0.4052 0.0693
0.3612 0.3968 0.0584
0.4059 0.3842 0.0584
0.4546 0.3687 0.0584
0.5066 0.3492 0.0584
0.5614 0.3227 0.0584
0.6049 0.2993 0.0584
0.6304 0.2907 0.0584
0.6446 0.2956 0.0584
0.6583 0.3017 0.0584
0.6720 0.3083 0.0584
0.6854 0.3160 0.0584
0.6987 0.3250 0.0584
0.7117 0.3355 0.0584
0.7246 0.3480 0.0584
0.7373 0.3633 0.0584
0.7500 0.3817 0.0584
0.7628 0.4048 0.0584
0.7760 0.4340 0.0584
0.7928 0.4638 0.0584
0.8088 0.5057 0.0584
0.8247 0.5636 0.0584
0.1199 0.4090 0.2160
0.1312 0.4061 0.2185
0.1418 0.4035 0.2210
0.1546 0.4003 0.2242
0.1693 0.3967 0.2281
0.1796 0.3979 0.2261
0.1862 0.4035 0.2173
0.1943 0.4096 0.2067
0.2044 0.4157 0.1943
0.2173 0.4214 0.1804
0.2334 0.4272 0.1637
0.2539 0.4319 0.1458
0.2799 0.4359 0.1241
0.3124 0.4379 0.0996
0.3527 0.4375 0.0643
0.3965 0.4276 0.0584
0.4422 0.4147 0.0584
0.4910 0.3986 0.0584
0.5413 0.3782 0.0584
0.5927 0.3502 0.0584
0.6327 0.3252 0.0584
0.6563 0.3155 0.0584
0.6692 0.3210 0.0584
0.6816 0.3277 0.0584
0.6941 0.3350 0.0584
0.7064 0.3435 0.0584
0.7185 0.3537 0.0584
0.7306 0.3658 0.0584
0.7425 0.3804 0.0584
0.7544 0.3984 0.0584
0.7664 0.4205 0.0584
0.7786 0.4492 0.0584
0.7932 0.4821 0.0584
0.8092 0.5218 0.0584
0.8248 0.5781 0.0584
0.1285 0.4414 0.2285
0.1398 0.4386 0.2310
0.1504 0.4360 0.2334
0.1634 0.4330 0.2366
0.1783 0.4296 0.2404
0.1921 0.4278 0.2424
0.1985 0.4332 0.2342
0.2061 0.4389 0.2243
0.2153 0.4449 0.2125
0.2270 0.4507 0.1994
0.2415 0.4564 0.1841
0.2594 0.4618 0.1664
0.2820 0.4662 0.1472
0.3102 0.4697 0.1245
0.3451 0.4714 0.0980
0.3876 0.4705 0.0608
0.4321 0.4597 0.0584
0.4782 0.4465 0.0584
0.5260 0.4299 0.0584
0.5738 0.4088 0.0584
0.6215 0.3794 0.0584
0.6581 0.3527 0.0584
0.6795 0.3423 0.0584
0.6912 0.3482 0.0584
0.7025 0.3556 0.0584
0.7140 0.3638 0.0584
0.7253 0.3734 0.0584
0.7364 0.3851 0.0584
0.7476 0.3990 0.0584
0.7587 0.4161 0.0584
0.7700 0.4378 0.0584
0.7816 0.4649 0.0584
0.7935 0.5012 0.0584
0.8095 0.5386 0.0584
0.8250 0.5926 0.0584
0.1377 0.4746 0.2423
0.1490 0.4721 0.2447
0.1597 0.4697 0.2472
0.1728 0.4668 0.2503
0.1877 0.4635 0.2541
0.2040 0.4600 0.2585
0.2117 0.4639 0.2524
0.2189 0.4693 0.2433
0.2275 0.4750 0.2324
0.2379 0.4808 0.2196
0.2510 0.4862 0.2057
0.2670 0.4917 0.1891
0.2867 0.4966 0.1706
0.3111 0.5008 0.1499
0.3412 0.5038 0.1264
0.3782 0.5052 0.0981
0.4223 0.5040 0.0592
0.4674 0.4930 0.0584
0.5129 0.4797 0.0584
0.5589 0.4628 0.0584
0.6037 0.4410 0.0584
0.6476 0.4103 0.0584
0.6811 0.3820 0.0584
0.7004 0.3711 0.0584
0.7110 0.3775 0.0584
0.7214 0.3858 0.0584
0.7318 0.3949 0.0584
0.7422 0.4057 0.0584
0.7526 0.4192 0.0584
0.7630 0.4354 0.0584
0.7736 0.4560 0.0584
0.7845 0.4821 0.0584
0.7958 0.5163 0.0584
0.8098 0.5561 0.0584
0.8252 0.6063 0.0584
0.1475 0.5085 0.2577
0.1588 0.5062 0.2601
0.1696 0.5039 0.2626
0.1827 0.5013 0.2657
0.1977 0.4982 0.2694
0.2141 0.4950 0.2737
0.2259 0.4955 0.2725
0.2328 0.5005 0.2639
0.2408 0.5058 0.2539
0.2503 0.5113 0.2420
0.2621 0.5166 0.2288
0.2764 0.5217 0.2138
0.2937 0.5269 0.1960
0.3150 0.5313 0.1767
0.3411 0.5351 0.1546
0.3728 0.5378 0.1302
0.4113 0.5389 0.1005
0.4565 0.5376 0.0602
0.5015 0.5271 0.0584
0.5458 0.5140 0.0584
0.5893 0.4971 0.0584
0.6310 0.4749 0.0584
0.6714 0.4430 0.0584
0.7018 0.4131 0.0584
0.7192 0.4020 0.0584
0.7288 0.4091 0.0584
0.7383 0.4182 0.0584
0.7479 0.4286 0.0584
0.7576 0.4409 0.0584
0.7673 0.4565 0.0584
0.7773 0.4757 0.0584
0.7874 0.5006 0.0584
0.7982 0.5325 0.0584
0.8101 0.5744 0.0584
0.8255 0.6204 0.0584
0.1581 0.5425 0.2751
0.1694 0.5404 0.2775
0.1802 0.5384 0.2799
0.1933 0.5360 0.2829
0.2084 0.5332 0.2866
0.2249 0.5303 0.2908
0.2414 0.5277 0.2947
0.2479 0.5323 0.2867
0.2555 0.5370 0.2773
0.2643 0.5420 0.2664
0.2747 0.5471 0.2537
0.2876 0.5519 0.2400
0.3030 0.5566 0.2241
0.3215 0.5614 0.2051
0.3441 0.5653 0.1852
0.3715 0.5688 0.1616
0.4044 0.5711 0.1363
0.4441 0.5721 0.1055
0.4894 0.5708 0.0644
0.5340 0.5614 0.0584
0.5764 0.5487 0.0584
0.6172 0.5322 0.0584
0.6559 0.5100 0.0584
0.6930 0.4773 0.0584
0.7206 0.4460 0.0584
0.7360 0.4351 0.0584
0.7448 0.4431 0.0584
0.7536 0.4529 0.0584
0.7625 0.4648 0.0584
0.7716 0.4791 0.0584
0.7808 0.4971 0.0584
0.7905 0.5201 0.0584
0.8006 0.5500 0.0584
0.8114 0.5900 0.0584
0.8257 0.6351 0.0584
0.1698 0.5760 0.2947
0.1811 0.5742 0.2972
0.1918 0.5724 0.2995
0.2049 0.5703 0.3025
0.2200 0.5679 0.3061
0.2365 0.5653 0.3102
0.2540 0.5626 0.3149
0.2646 0.5641 0.3118
0.2717 0.5683 0.3032
0.2799 0.5727 0.2932
0.2894 0.5773 0.2815
0.3007 0.5819 0.2683
0.3145 0.5861 0.2540
0.3308 0.5904 0.2373
0.3503 0.5947 0.2175
0.3740 0.5981 0.1967
0.4024 0.6013 0.1718
0.4361 0.6034 0.1453
0.4761 0.6043 0.1135
0.5206 0.6032 0.0731
0.5643 0.5953 0.0584
0.6045 0.5834 0.0584
0.6428 0.5675 0.0584
0.6786 0.5459 0.0584
0.7127 0.5129 0.0584
0.7377 0.4807 0.0584
0.7513 0.4706 0.0584
0.7593 0.4794 0.0584
0.7675 0.4901 0.0584
0.7759 0.5036 0.0584
0.7845 0.5201 0.0584
0.7935 0.5411 0.0584
0.8030 0.5687 0.0584
0.8133 0.6050 0.0584
0.8260 0.6504 0.0584
0.1828 0.6086 0.3171
0.1941 0.6071 0.3195
0.2048 0.6056 0.3218
0.2178 0.6039 0.3247
0.2328 0.6018 0.3283
0.2493 0.5996 0.3323
0.2667 0.5973 0.3368
0.2830 0.5957 0.3399
0.2897 0.5993 0.3319
0.2974 0.6031 0.3227
0.3061 0.6071 0.3121
0.3162 0.6111 0.2999
0.3283 0.6151 0.2863
0.3428 0.6189 0.2714
0.3599 0.6227 0.2539
0.3801 0.6264 0.2335
0.4044 0.6295 0.2119
0.4334 0.6323 0.1857
0.4675 0.6343 0.1579
0.5068 0.6352 0.1250
0.5497 0.6343 0.0866
0.5924 0.6284 0.0584
0.6304 0.6174 0.0584
0.6661 0.6026 0.0584
0.6992 0.5819 0.0584
