public/luts/damasco.cube
#Created by: Pixelmator Pro
#Color profile: "kCGColorSpaceDisplayP3"
TITLE "Custom"
#Data domain
DOMAIN_MIN 0.0000 0.0000 0.0000
DOMAIN_MAX 1.0000 1.0000 1.0000
#LUT size
LUT_3D_SIZE 35
0.0000 0.0000 0.0000
0.0000 0.0000 0.0000
0.0000 0.0000 0.0000
0.0000 0.0000 0.0000
0.0000 0.0000 0.0000
0.0000 0.0000 0.0000
0.0000 0.0000 0.0000
0.0185 0.0005 0.0000
0.0536 0.0016 0.0000
0.0861 0.0030 0.0000
0.1170 0.0049 0.0000
0.1479 0.0072 0.0000
0.1797 0.0102 0.0000
0.2127 0.0141 0.0000
0.2472 0.0188 0.0000
0.2832 0.0246 0.0000
0.3207 0.0317 0.0000
0.3596 0.0401 0.0000
0.3997 0.0494 0.0000
0.4410 0.0588 0.0000
0.4832 0.0685 0.0000
0.5260 0.0784 0.0000
0.5693 0.0883 0.0000
0.6128 0.0983 0.0000
0.6563 0.1083 0.0000
0.6995 0.1182 0.0000
0.7424 0.1280 0.0000
0.7847 0.1377 0.0000
0.8262 0.1473 0.0000
0.8668 0.1566 0.0000
0.9064 0.1657 0.0000
0.9450 0.1745 0.0000
0.9823 0.1831 0.0000
1.0000 0.2169 0.0789
1.0000 0.2617 0.1494
0.0000 0.0000 0.0000
0.0000 0.0000 0.0000
0.0000 0.0000 0.0000
0.0000 0.0000 0.0000
0.0000 0.0000 0.0000
0.0000 0.0000 0.0000
0.0010 0.0001 0.0000
0.0279 0.0023 0.0000
0.0609 0.0046 0.0000
0.0915 0.0070 0.0000
0.1214 0.0099 0.0000
0.1518 0.0132 0.0000
0.1833 0.0173 0.0000
0.2161 0.0221 0.0000
0.2504 0.0280 0.0000
0.2862 0.0350 0.0000
0.3235 0.0431 0.0000
0.3623 0.0518 0.0000
0.4023 0.0607 0.0000
0.4435 0.0699 0.0000
0.4855 0.0793 0.0000
0.5282 0.0888 0.0000
0.5713 0.0984 0.0000
0.6147 0.1081 0.0000
0.6580 0.1178 0.0000
0.7011 0.1274 0.0000
0.7438 0.1370 0.0000
0.7860 0.1464 0.0000
0.8274 0.1556 0.0000
0.8678 0.1647 0.0000
0.9074 0.1735 0.0000
0.9458 0.1821 0.0000
0.9830 0.1904 0.0000
1.0000 0.2240 0.0804
1.0000 0.2676 0.1500
0.0000 0.0000 0.0000
0.0000 0.0000 0.0000
0.0000 0.0000 0.0000
0.0000 0.0000 0.0000
0.0000 0.0000 0.0000
0.0000 0.0000 0.0000
0.0107 0.0019 0.0000
0.0374 0.0053 0.0000
0.0679 0.0087 0.0000
0.0969 0.0122 0.0000
0.1260 0.0161 0.0000
0.1559 0.0205 0.0000
0.1870 0.0256 0.0000
0.2196 0.0316 0.0000
0.2537 0.0386 0.0000
0.2894 0.0465 0.0000
0.3266 0.0547 0.0000
0.3653 0.0631 0.0000
0.4052 0.0719 0.0000
0.4461 0.0809 0.0000
0.4880 0.0901 0.0000
0.5305 0.0994 0.0000
0.5735 0.1088 0.0000
0.6167 0.1182 0.0000
0.6599 0.1276 0.0000
0.7028 0.1370 0.0000
0.7454 0.1463 0.0000
0.7874 0.1554 0.0000
0.8286 0.1644 0.0000
0.8690 0.1732 0.0000
0.9083 0.1817 0.0000
0.9466 0.1900 0.0000
0.9838 0.1980 0.0000
1.0000 0.2314 0.0821
1.0000 0.2740 0.1506
0.0000 0.0000 0.0000
0.0000 0.0000 0.0000
0.0000 0.0000 0.0000
0.0000 0.0000 0.0000
0.0000 0.0000 0.0000
0.0048 0.0011 0.0000
0.0229 0.0062 0.0000
0.0486 0.0112 0.0000
0.0762 0.0158 0.0000
0.1037 0.0206 0.0000
0.1320 0.0258 0.0000
0.1614 0.0316 0.0000
0.1922 0.0383 0.0000
0.2245 0.0456 0.0000
0.2584 0.0531 0.0000
0.2939 0.0610 0.0000
0.3309 0.0691 0.0000
0.3693 0.0775 0.0000
0.4090 0.0861 0.0000
0.4498 0.0949 0.0000
0.4915 0.1039 0.0000
0.5338 0.1130 0.0000
0.5765 0.1222 0.0000
0.6195 0.1314 0.0000
0.6625 0.1405 0.0000
0.7052 0.1496 0.0000
0.7476 0.1586 0.0000
0.7893 0.1674 0.0000
0.8304 0.1760 0.0000
0.8705 0.1845 0.0000
0.9097 0.1927 0.0000
0.9478 0.2007 0.0000
0.9848 0.2084 0.0000
1.0000 0.2415 0.0843
1.0000 0.2827 0.1515
0.0000 0.0000 0.0000
0.0000 0.0000 0.0000
0.0000 0.0000 0.0000
0.0000 0.0000 0.0000
0.0047 0.0024 0.0019
0.0175 0.0060 0.0054
0.0423 0.0099 0.0021
0.0631 0.0190 0.0000
0.0860 0.0271 0.0000
0.1118 0.0340 0.0000
0.1393 0.0409 0.0000
0.1682 0.0479 0.0000
0.1986 0.0551 0.0000
0.2307 0.0624 0.0000
0.2643 0.0701 0.0000
0.2996 0.0780 0.0000
0.3364 0.0862 0.0000
0.3746 0.0945 0.0000
0.4141 0.1031 0.0000
0.4546 0.1118 0.0000
0.4960 0.1207 0.0000
0.5380 0.1296 0.0000
0.5805 0.1386 0.0000
0.6232 0.1475 0.0000
0.6659 0.1564 0.0000
0.7083 0.1652 0.0000
0.7504 0.1738 0.0000
0.7919 0.1823 0.0000
0.8326 0.1906 0.0000
0.8725 0.1987 0.0000
0.9115 0.2065 0.0000
0.9494 0.2141 0.0000
0.9861 0.2214 0.0000
1.0000 0.2544 0.0870
1.0000 0.2939 0.1525
0.0000 0.0000 0.0000
0.0010 0.0012 0.0010
0.0036 0.0037 0.0035
0.0073 0.0074 0.0072
0.0129 0.0127 0.0120
0.0224 0.0188 0.0180
0.0397 0.0246 0.0242
0.0657 0.0312 0.0236
0.0977 0.0380 0.0091
0.1236 0.0489 0.0000
0.1477 0.0598 0.0000
0.1762 0.0669 0.0000
0.2063 0.0741 0.0000
0.2381 0.0816 0.0000
0.2716 0.0893 0.0000
0.3066 0.0972 0.0000
0.3432 0.1054 0.0000
0.3811 0.1139 0.0000
0.4203 0.1225 0.0000
0.4605 0.1312 0.0000
0.5015 0.1399 0.0000
0.5432 0.1487 0.0000
0.5854 0.1575 0.0000
0.6277 0.1662 0.0000
0.6700 0.1748 0.0000
0.7121 0.1833 0.0000
0.7538 0.1916 0.0000
0.7950 0.1998 0.0000
0.8354 0.2077 0.0000
0.8750 0.2154 0.0000
0.9137 0.2228 0.0000
0.9513 0.2300 0.0000
0.9878 0.2369 0.0000
1.0000 0.2698 0.0901
1.0000 0.3076 0.1536
0.0100 0.0102 0.0100
0.0126 0.0128 0.0126
0.0156 0.0157 0.0155
0.0199 0.0200 0.0198
0.0259 0.0260 0.0255
0.0346 0.0340 0.0328
0.0481 0.0431 0.0418
0.0668 0.0509 0.0509
0.0914 0.0592 0.0531
0.1231 0.0669 0.0423
0.1607 0.0744 0.0053
0.1875 0.0848 0.0000
0.2151 0.0953 0.0000
0.2467 0.1029 0.0000
0.2800 0.1107 0.0000
0.3148 0.1187 0.0000
0.3511 0.1269 0.0000
0.3887 0.1353 0.0000
0.4276 0.1439 0.0000
0.4675 0.1525 0.0000
0.5081 0.1612 0.0000
0.5494 0.1700 0.0000
0.5911 0.1786 0.0000
0.6330 0.1871 0.0000
0.6749 0.1955 0.0000
0.7166 0.2037 0.0000
0.7579 0.2117 0.0000
0.7987 0.2195 0.0000
0.8388 0.2271 0.0000
0.8780 0.2344 0.0000
0.9163 0.2414 0.0000
0.9536 0.2482 0.0000
0.9898 0.2547 0.0000
1.0000 0.2875 0.0935
1.0000 0.3235 0.1548
0.0257 0.0260 0.0257
0.0287 0.0290 0.0287
0.0321 0.0324 0.0321
0.0371 0.0373 0.0370
0.0438 0.0440 0.0436
0.0521 0.0522 0.0514
0.0624 0.0616 0.0601
0.0763 0.0709 0.0696
0.0952 0.0791 0.0793
0.1197 0.0880 0.0835
0.1513 0.0964 0.0782
0.1895 0.1045 0.0523
0.2301 0.1115 0.0000
0.2578 0.1242 0.0000
0.2894 0.1341 0.0000
0.3240 0.1422 0.0000
0.3600 0.1504 0.0000
0.3974 0.1589 0.0000
0.4359 0.1674 0.0000
0.4754 0.1759 0.0000
0.5157 0.1845 0.0000
0.5565 0.1931 0.0000
0.5978 0.2015 0.0000
0.6392 0.2099 0.0000
0.6806 0.2181 0.0000
0.7218 0.2261 0.0000
0.7626 0.2338 0.0000
0.8029 0.2413 0.0000
0.8426 0.2485 0.0000
0.8814 0.2554 0.0000
0.9193 0.2620 0.0000
0.9562 0.2683 0.0000
0.9920 0.2744 0.0000
1.0000 0.3073 0.0969
1.0000 0.3415 0.1558
0.0467 0.0471 0.0467
0.0498 0.0502 0.0498
0.0532 0.0535 0.0531
0.0578 0.0581 0.0577
0.0638 0.0640 0.0637
0.0712 0.0714 0.0709
0.0801 0.0801 0.0792
0.0912 0.0900 0.0883
0.1059 0.0998 0.0983
0.1256 0.1084 0.1090
0.1505 0.1181 0.1147
0.1825 0.1273 0.1126
0.2214 0.1360 0.0959
0.2664 0.1446 0.0407
0.3043 0.1531 0.0000
0.3345 0.1671 0.0000
0.3699 0.1758 0.0000
0.4069 0.1842 0.0000
0.4451 0.1927 0.0000
0.4842 0.2012 0.0000
0.5240 0.2096 0.0000
0.5644 0.2180 0.0000
0.6051 0.2262 0.0000
0.6461 0.2344 0.0000
0.6869 0.2423 0.0000
0.7276 0.2500 0.0000
0.7679 0.2574 0.0000
0.8077 0.2646 0.0000
0.8468 0.2715 0.0000
0.8851 0.2781 0.0000
0.9226 0.2843 0.0000
0.9590 0.2902 0.0000
0.9945 0.2958 0.0000
1.0000 0.3288 0.1002
1.0000 0.3613 0.1566
0.0692 0.0696 0.0692
0.0720 0.0724 0.0720
0.0750 0.0753 0.0750
0.0792 0.0795 0.0791
0.0847 0.0849 0.0846
0.0915 0.0917 0.0913
0.0997 0.0999 0.0992
0.1095 0.1095 0.1082
0.1216 0.1200 0.1180
0.1374 0.1304 0.1287
0.1582 0.1396 0.1404
0.1838 0.1500 0.1473
0.2164 0.1599 0.1476
0.2558 0.1693 0.1361
0.3011 0.1785 0.1019
0.3486 0.1864 0.0264
0.3842 0.1979 0.0000
0.4173 0.2114 0.0000
0.4550 0.2197 0.0000
0.4937 0.2281 0.0000
0.5330 0.2364 0.0000
0.5729 0.2446 0.0000
0.6131 0.2526 0.0000
0.6535 0.2605 0.0000
0.6938 0.2681 0.0000
0.7339 0.2754 0.0000
0.7737 0.2825 0.0000
0.8129 0.2894 0.0000
0.8514 0.2959 0.0000
0.8892 0.3021 0.0000
0.9262 0.3079 0.0000
0.9621 0.3135 0.0000
0.9971 0.3187 0.0000
1.0000 0.3520 0.1030
1.0000 0.3829 0.1567
0.0924 0.0928 0.0924
0.0950 0.0954 0.0949
0.0977 0.0981 0.0977
0.1016 0.1020 0.1016
0.1068 0.1071 0.1067
0.1132 0.1135 0.1131
0.1209 0.1212 0.1206
0.1301 0.1303 0.1294
0.1409 0.1407 0.1391
0.1541 0.1520 0.1496
0.1711 0.1630 0.1611
0.1930 0.1727 0.1737
0.2193 0.1838 0.1816
0.2523 0.1943 0.1838
0.2919 0.2044 0.1761
0.3377 0.2140 0.1515
0.3890 0.2233 0.0871
0.4355 0.2301 0.0000
0.4681 0.2448 0.0000
0.5038 0.2566 0.0000
0.5426 0.2647 0.0000
0.5820 0.2727 0.0000
0.6216 0.2805 0.0000
0.6614 0.2880 0.0000
0.7011 0.2953 0.0000
0.7406 0.3023 0.0000
0.7798 0.3090 0.0000
0.8184 0.3155 0.0000
0.8564 0.3215 0.0000
0.8936 0.3273 0.0000
0.9300 0.3327 0.0000
0.9655 0.3379 0.0000
1.0000 0.3427 0.0001
1.0000 0.3764 0.1052
1.0000 0.4059 0.1561
0.1167 0.1171 0.1167
0.1191 0.1195 0.1191
0.1217 0.1221 0.1217
0.1254 0.1258 0.1253
0.1302 0.1306 0.1301
0.1363 0.1366 0.1362
0.1437 0.1440 0.1435
0.1523 0.1527 0.1520
0.1625 0.1627 0.1615
0.1743 0.1739 0.1720
0.1886 0.1859 0.1832
0.2067 0.1975 0.1953
0.2296 0.2076 0.2086
0.2567 0.2192 0.2176
0.2900 0.2303 0.2212
0.3297 0.2408 0.2164
0.3755 0.2507 0.1977
0.4262 0.2605 0.1547
0.4780 0.2687 0.0755
0.5207 0.2777 0.0000
0.5539 0.2927 0.0000
0.5914 0.3021 0.0000
0.6305 0.3096 0.0000
0.6697 0.3168 0.0000
0.7087 0.3238 0.0000
0.7476 0.3305 0.0000
0.7861 0.3368 0.0000
0.8241 0.3428 0.0000
0.8615 0.3484 0.0000
0.8982 0.3537 0.0000
0.9340 0.3587 0.0000
0.9690 0.3633 0.0000
1.0000 0.3703 0.0121
1.0000 0.4018 0.1066
1.0000 0.4300 0.1544
0.1422 0.1427 0.1422
0.1445 0.1450 0.1445
0.1470 0.1475 0.1470
0.1505 0.1509 0.1504
0.1551 0.1555 0.1550
0.1609 0.1613 0.1608
0.1679 0.1683 0.1678
0.1762 0.1766 0.1760
0.1858 0.1862 0.1852
0.1969 0.1970 0.1955
0.2097 0.2090 0.2067
0.2250 0.2216 0.2185
0.2441 0.2337 0.2312
0.2679 0.2441 0.2450
0.2956 0.2559 0.2549
0.3289 0.2675 0.2597
0.3685 0.2783 0.2570
0.4138 0.2885 0.2428
0.4638 0.2984 0.2108
0.5185 0.3079 0.1406
0.5673 0.3145 0.0606
0.6063 0.3255 0.0000
0.6396 0.3399 0.0000
0.6781 0.3467 0.0000
0.7166 0.3533 0.0000
0.7548 0.3596 0.0000
0.7926 0.3655 0.0000
0.8300 0.3711 0.0000
0.8667 0.3763 0.0000
0.9028 0.3812 0.0000
0.9381 0.3857 0.0000
0.9725 0.3898 0.0000
1.0000 0.3986 0.0226
1.0000 0.4282 0.1065
1.0000 0.4551 0.1510
0.1690 0.1696 0.1690
0.1712 0.1718 0.1712
0.1736 0.1741 0.1736
0.1769 0.1774 0.1769
0.1813 0.1818 0.1812
0.1869 0.1873 0.1868
0.1936 0.1940 0.1934
0.2015 0.2019 0.2013
0.2107 0.2111 0.2103
0.2211 0.2215 0.2203
0.2331 0.2331 0.2313
0.2468 0.2457 0.2430
0.2629 0.2588 0.2552
0.2829 0.2712 0.2683
0.3074 0.2818 0.2827
0.3354 0.2938 0.2933
0.3686 0.3055 0.2990
0.4077 0.3166 0.2979
0.4520 0.3270 0.2872
0.5013 0.3368 0.2622
0.5543 0.3464 0.2132
0.6072 0.3545 0.1372
0.6550 0.3600 0.0384
0.6904 0.3723 0.0000
0.7245 0.3839 0.0000
0.7620 0.3896 0.0000
0.7992 0.3951 0.0000
0.8359 0.4002 0.0000
0.8720 0.4050 0.0000
0.9074 0.4095 0.0000
0.9421 0.4135 0.0000
0.9760 0.4171 0.0000
1.0000 0.4276 0.0310
1.0000 0.4553 0.1046
1.0000 0.4811 0.1453
0.1971 0.1978 0.1971
0.1992 0.1998 0.1992
0.2014 0.2021 0.2014
0.2046 0.2052 0.2046
0.2088 0.2094 0.2088
0.2141 0.2146 0.2140
0.2205 0.2210 0.2204
0.2281 0.2286 0.2279
0.2368 0.2373 0.2366
0.2468 0.2472 0.2463
0.2580 0.2584 0.2569
0.2707 0.2706 0.2684
0.2851 0.2837 0.2805
0.3020 0.2971 0.2931
0.3226 0.3097 0.3065
0.3476 0.3203 0.3211
0.3757 0.3322 0.3321
0.4086 0.3441 0.3385
0.4468 0.3553 0.3388
0.4900 0.3656 0.3309
0.5382 0.3752 0.3107
0.5893 0.3848 0.2738
0.6442 0.3938 0.2038
0.6920 0.4000 0.1421
0.7389 0.4047 0.0202
0.7714 0.4173 0.0000
0.8057 0.4255 0.0000
0.8417 0.4301 0.0000
0.8772 0.4344 0.0000
0.9120 0.4383 0.0000
0.9461 0.4419 0.0000
0.9793 0.4451 0.0000
1.0000 0.4569 0.0367
1.0000 0.4831 0.1003
1.0000 0.5078 0.1365
0.2263 0.2270 0.2263
0.2283 0.2290 0.2283
0.2304 0.2311 0.2304
0.2334 0.2341 0.2334
0.2374 0.2381 0.2374
0.2425 0.2431 0.2424
0.2486 0.2492 0.2485
0.2558 0.2563 0.2556
0.2641 0.2646 0.2639
0.2736 0.2741 0.2732
0.2842 0.2847 0.2835
0.2961 0.2964 0.2946
0.3093 0.3090 0.3064
0.3243 0.3224 0.3188
0.3418 0.3360 0.3316
0.3628 0.3486 0.3451
0.3880 0.3592 0.3599
0.4160 0.3709 0.3712
0.4483 0.3827 0.3780
0.4854 0.3938 0.3794
0.5274 0.4040 0.3736
0.5736 0.4136 0.3575
0.6232 0.4228 0.3282
0.6757 0.4316 0.2774
0.7271 0.4390 0.2087
0.7721 0.4440 0.1510
0.8172 0.4480 0.0204
0.8480 0.4597 0.0000
0.8822 0.4644 0.0000
0.9164 0.4678 0.0000
0.9499 0.4708 0.0000
0.9826 0.4735 0.0000
1.0000 0.4865 0.0395
1.0000 0.5113 0.0933
1.0000 0.5350 0.1236
0.2564 0.2572 0.2564
0.2583 0.2591 0.2583
0.2603 0.2611 0.2603
0.2632 0.2640 0.2632
0.2670 0.2677 0.2669
0.2718 0.2725 0.2717
0.2776 0.2782 0.2775
0.2844 0.2851 0.2843
0.2923 0.2929 0.2922
0.3013 0.3019 0.3010
0.3114 0.3119 0.3109
0.3225 0.3230 0.3216
0.3349 0.3351 0.3330
0.3486 0.3481 0.3451
0.3640 0.3616 0.3575
0.3818 0.3752 0.3703
0.4030 0.3876 0.3838
0.4282 0.3979 0.3986
0.4559 0.4093 0.4101
0.4873 0.4210 0.4171
0.5232 0.4319 0.4194
0.5637 0.4418 0.4151
0.6079 0.4513 0.4023
0.6557 0.4599 0.3783
0.7056 0.4686 0.3391
0.7583 0.4765 0.2735
0.8049 0.4811 0.2183
0.8514 0.4833 0.1364
0.8918 0.4878 0.0000
0.9205 0.4978 0.0000
0.9534 0.5003 0.0000
0.9856 0.5024 0.0000
1.0000 0.5162 0.0395
1.0000 0.5396 0.0831
1.0000 0.5625 0.1050
0.2873 0.2882 0.2873
0.2891 0.2899 0.2891
0.2910 0.2918 0.2910
0.2937 0.2945 0.2937
0.2973 0.2981 0.2972
0.3018 0.3026 0.3017
0.3073 0.3080 0.3072
0.3138 0.3145 0.3136
0.3213 0.3219 0.3211
0.3298 0.3304 0.3295
0.3393 0.3399 0.3389
0.3498 0.3503 0.3491
0.3613 0.3618 0.3601
0.3740 0.3742 0.3717
0.3880 0.3872 0.3838
0.4036 0.4007 0.3962
0.4216 0.4141 0.4089
0.4428 0.4263 0.4222
0.4678 0.4363 0.4369
0.4950 0.4472 0.4483
0.5254 0.4586 0.4555
0.5600 0.4691 0.4583
0.5986 0.4788 0.4553
0.6408 0.4879 0.4451
0.6866 0.4961 0.4251
0.7350 0.5039 0.3923
0.7875 0.5104 0.3368
0.8386 0.5153 0.2643
0.8815 0.5183 0.2106
0.9244 0.5202 0.1222
0.9599 0.5253 0.0000
0.9882 0.5317 0.0000
1.0000 0.5459 0.0368
1.0000 0.5679 0.0688
1.0000 0.5902 0.0775
0.3187 0.3196 0.3187
0.3203 0.3213 0.3203
0.3222 0.3231 0.3221
0.3247 0.3256 0.3247
0.3281 0.3290 0.3280
0.3323 0.3332 0.3323
0.3375 0.3383 0.3374
0.3436 0.3444 0.3435
0.3507 0.3514 0.3505
0.3587 0.3594 0.3585
0.3676 0.3683 0.3674
0.3775 0.3782 0.3770
0.3883 0.3890 0.3875
0.4001 0.4006 0.3986
0.4130 0.4131 0.4102
0.4271 0.4261 0.4223
0.4428 0.4394 0.4345
0.4608 0.4525 0.4470
0.4818 0.4643 0.4600
0.5064 0.4738 0.4744
0.5329 0.4842 0.4857
0.5622 0.4952 0.4928
0.5953 0.5053 0.4961
0.6321 0.5147 0.4940
0.6728 0.5231 0.4852
0.7178 0.5302 0.4667
0.7656 0.5366 0.4367
0.8143 0.5432 0.3928
0.8652 0.5490 0.3240
0.9085 0.5523 0.2717
0.9496 0.5540 0.2130
0.9905 0.5547 0.1141
1.0000 0.5743 0.0350
1.0000 0.5964 0.0497
1.0000 0.6180 0.0306
0.3503 0.3513 0.3503
0.3519 0.3529 0.3519
0.3536 0.3546 0.3536
0.3560 0.3570 0.3559
0.3592 0.3601 0.3591
0.3631 0.3641 0.3631
0.3680 0.3689 0.3679
0.3737 0.3746 0.3736
0.3804 0.3812 0.3802
0.3879 0.3886 0.3877
0.3963 0.3970 0.3960
0.4056 0.4063 0.4052
0.4157 0.4164 0.4151
0.4267 0.4273 0.4256
0.4386 0.4391 0.4367
0.4515 0.4514 0.4482
0.4656 0.4643 0.4601
0.4813 0.4773 0.4720
0.4991 0.4900 0.4841
0.5198 0.5013 0.4968
0.5437 0.5103 0.5108
0.5694 0.5200 0.5219
0.5975 0.5306 0.5289
0.6295 0.5401 0.5321
0.6654 0.5486 0.5300
0.7052 0.5559 0.5216
0.7472 0.5630 0.5061
0.7921 0.5690 0.4809
0.8383 0.5751 0.4443
0.8867 0.5805 0.3896
0.9336 0.5844 0.3230
0.9731 0.5860 0.2770
1.0000 0.5940 0.2172
1.0000 0.6196 0.1175
0.9984 0.6459 0.0000
0.3820 0.3831 0.3820
0.3835 0.3846 0.3835
0.3851 0.3861 0.3851
0.3873 0.3884 0.3873
0.3903 0.3913 0.3902
0.3940 0.3950 0.3939
0.3985 0.3995 0.3985
0.4039 0.4048 0.4038
0.4101 0.4110 0.4100
0.4171 0.4180 0.4170
0.4250 0.4258 0.4248
0.4337 0.4344 0.4334
0.4432 0.4439 0.4427
0.4534 0.4541 0.4526
0.4645 0.4651 0.4631
0.4764 0.4768 0.4741
0.4892 0.4890 0.4854
0.5032 0.5015 0.4969
0.5187 0.5142 0.5085
0.5361 0.5263 0.5202
0.5563 0.5371 0.5324
0.5796 0.5455 0.5459
0.6047 0.5544 0.5566
0.6322 0.5641 0.5631
0.6631 0.5729 0.5658
0.6970 0.5810 0.5644
0.7342 0.5880 0.5575
0.7740 0.5946 0.5440
0.8168 0.6001 0.5220
0.8610 0.6054 0.4904
0.9069 0.6103 0.4451
0.9547 0.6145 0.3785
0.9951 0.6164 0.3297
1.0000 0.6361 0.2840
1.0000 0.6613 0.2073
0.4136 0.4147 0.4136
0.4149 0.4161 0.4149
0.4164 0.4175 0.4164
0.4185 0.4196 0.4185
0.4212 0.4223 0.4212
0.4247 0.4258 0.4247
0.4290 0.4300 0.4289
0.4339 0.4350 0.4338
0.4397 0.4407 0.4396
0.4463 0.4472 0.4461
0.4536 0.4545 0.4534
0.4617 0.4625 0.4614
0.4705 0.4713 0.4702
0.4801 0.4809 0.4795
0.4904 0.4911 0.4894
0.5014 0.5020 0.4998
0.5132 0.5135 0.5105
0.5258 0.5254 0.5215
0.5396 0.5375 0.5326
0.5547 0.5497 0.5437
0.5718 0.5612 0.5549
0.5916 0.5713 0.5664
0.6145 0.5789 0.5792
0.6388 0.5870 0.5896
0.6649 0.5962 0.5957
0.6940 0.6046 0.5985
0.7262 0.6121 0.5975
0.7615 0.6186 0.5914
0.7994 0.6245 0.5794
0.8399 0.6297 0.5601
0.8823 0.6342 0.5322
0.9261 0.6387 0.4937
0.9719 0.6428 0.4396
1.0000 0.6541 0.3769
1.0000 0.6759 0.3340
0.4447 0.4459 0.4447
0.4460 0.4472 0.4460
0.4474 0.4486 0.4473
0.4493 0.4505 0.4493
0.4519 0.4530 0.4518
0.4551 0.4562 0.4550
0.4590 0.4601 0.4589
0.4637 0.4647 0.4635
0.4690 0.4701 0.4689
0.4751 0.4761 0.4749
0.4819 0.4829 0.4817
0.4895 0.4903 0.4892
0.4977 0.4985 0.4974
0.5066 0.5074 0.5061
0.5161 0.5169 0.5154
0.5263 0.5270 0.5251
0.5371 0.5377 0.5352
0.5487 0.5489 0.5457
0.5611 0.5604 0.5562
0.5746 0.5721 0.5668
0.5894 0.5837 0.5773
0.6061 0.5946 0.5879
0.6253 0.6040 0.5988
0.6473 0.6110 0.6110
0.6706 0.6185 0.6210
0.6956 0.6269 0.6268
0.7233 0.6347 0.6295
0.7539 0.6415 0.6287
0.7873 0.6476 0.6232
0.8233 0.6529 0.6125
0.8618 0.6577 0.5955
0.9030 0.6618 0.5708
0.9449 0.6663 0.5379
0.9889 0.6704 0.4926
1.0000 0.6903 0.4281
0.4753 0.4766 0.4753
0.4765 0.4778 0.4765
0.4778 0.4790 0.4778
0.4796 0.4808 0.4795
0.4819 0.4832 0.4819
0.4849 0.4861 0.4849
0.4886 0.4897 0.4885
0.4929 0.4940 0.4928
0.4978 0.4989 0.4977
0.5035 0.5045 0.5033
0.5098 0.5108 0.5096
0.5168 0.5177 0.5165
0.5244 0.5253 0.5241
0.5326 0.5335 0.5323
0.5415 0.5423 0.5409
0.5509 0.5517 0.5500
0.5609 0.5617 0.5595
0.5716 0.5721 0.5693
0.5828 0.5829 0.5793
0.5949 0.5940 0.5894
0.6080 0.6052 0.5994
0.6224 0.6161 0.6094
0.6386 0.6263 0.6194
0.6571 0.6351 0.6297
0.6783 0.6415 0.6412
0.7007 0.6483 0.6506
0.7246 0.6559 0.6562
0.7509 0.6631 0.6588
0.7799 0.6694 0.6581
0.8117 0.6752 0.6533
0.8464 0.6801 0.6440
0.8832 0.6850 0.6291
0.9227 0.6891 0.6074
0.9635 0.6932 0.5785
1.0000 0.6994 0.5396
0.5053 0.5066 0.5053
0.5063 0.5077 0.5063
0.5075 0.5088 0.5075
0.5092 0.5105 0.5091
0.5114 0.5126 0.5113
0.5141 0.5154 0.5141
0.5175 0.5187 0.5174
0.5214 0.5226 0.5213
0.5260 0.5272 0.5259
0.5313 0.5324 0.5311
0.5371 0.5381 0.5369
0.5435 0.5445 0.5433
0.5506 0.5515 0.5503
0.5582 0.5591 0.5579
0.5664 0.5673 0.5659
0.5751 0.5760 0.5744
0.5844 0.5852 0.5833
0.5941 0.5949 0.5925
0.6045 0.6050 0.6019
0.6155 0.6154 0.6114
0.6272 0.6260 0.6210
0.6398 0.6366 0.6305
0.6537 0.6469 0.6399
0.6693 0.6564 0.6493
0.6872 0.6645 0.6590
0.7076 0.6704 0.6698
0.7291 0.6764 0.6786
0.7519 0.6833 0.6841
0.7771 0.6901 0.6866
0.8050 0.6962 0.6863
0.8355 0.7019 0.6823
0.8689 0.7068 0.6742
0.9042 0.7115 0.6611
0.9420 0.7156 0.6421
0.9817 0.7193 0.6163
0.5344 0.5357 0.5344
0.5354 0.5367 0.5353
0.5364 0.5378 0.5364
0.5380 0.5393 0.5379
0.5400 0.5413 0.5399
0.5425 0.5438 0.5425
0.5456 0.5469 0.5455
0.5493 0.5505 0.5492
0.5535 0.5547 0.5534
0.5583 0.5595 0.5582
0.5637 0.5648 0.5635
0.5696 0.5707 0.5694
0.5761 0.5772 0.5759
0.5832 0.5841 0.5829
0.5907 0.5917 0.5904
0.5988 0.5997 0.5982
0.6073 0.6082 0.6065
0.6163 0.6172 0.6151
0.6258 0.6266 0.6239
0.6358 0.6363 0.6329
0.6464 0.6462 0.6419
0.6577 0.6563 0.6510
0.6700 0.6663 0.6599
0.6834 0.6759 0.6687
0.6984 0.6848 0.6775
