public/luts/damasco.cube
#Created by: Pixelmator Pro
#Color profile: "kCGColorSpaceDisplayP3"
TITLE "Custom"
#Data domain
#LUT size
LUT_3D_SIZE 5
DOMAIN_MIN 0.000000 0.000000 0.000000
DOMAIN_MAX 0.823529 0.823529 0.823529
0.0000 0.0000 0.0000
0.0185 0.0005 0.0000
0.2472 0.0188 0.0000
0.5260 0.0784 0.0000
0.8262 0.1473 0.0000
0.0257 0.0260 0.0257
0.0763 0.0709 0.0696
0.2894 0.1341 0.0000
0.5565 0.1931 0.0000
0.8426 0.2485 0.0000
0.1971 0.1978 0.1971
0.2281 0.2286 0.2279
0.3226 0.3097 0.3065
0.5893 0.3848 0.2738
0.8772 0.4344 0.0000
0.4136 0.4147 0.4136
0.4339 0.4350 0.4338
0.4904 0.4911 0.4894
0.5916 0.5713 0.5664
0.7994 0.6245 0.5794
0.6158 0.6174 0.6158
0.6273 0.6287 0.6272
0.6596 0.6607 0.6593
0.7114 0.7120 0.7086
0.7949 0.7699 0.7638
0.0000 0.0000 0.0000
0.0955 0.0000 0.0224
0.2853 0.0000 0.0873
0.5611 0.0000 0.1175
0.8603 0.0000 0.0984
0.0642 0.0645 0.0645
0.1048 0.1048 0.1048
0.3420 0.1037 0.0864
0.6179 0.0994 0.0000
0.8868 0.1612 0.0000
0.2224 0.2231 0.2226
0.2521 0.2526 0.2521
0.3407 0.3312 0.3288
0.6213 0.3977 0.2475
0.9101 0.4119 0.0000
0.4302 0.4313 0.4303
0.4498 0.4508 0.4498
0.5041 0.5047 0.5036
0.6006 0.5826 0.5783
0.8116 0.6322 0.5786
0.6252 0.6267 0.6253
0.6363 0.6377 0.6363
0.6676 0.6687 0.6674
0.7179 0.7186 0.7157
0.7991 0.7758 0.7701
0.1062 0.1009 0.1104
0.1586 0.1216 0.1516
0.3802 0.0816 0.1833
0.6223 0.0000 0.2949
0.8941 0.0000 0.3220
0.1575 0.1576 0.1589
0.1917 0.1884 0.1943
0.3910 0.1918 0.2437
0.6454 0.1644 0.3201
0.9345 0.0000 0.3033
0.2931 0.2937 0.2937
0.3193 0.3197 0.3197
0.3914 0.3914 0.3914
0.6792 0.3932 0.3802
0.9529 0.3686 0.3288
0.4770 0.4780 0.4774
0.4944 0.4954 0.4948
0.5429 0.5434 0.5429
0.6258 0.6147 0.6121
0.8594 0.6526 0.5518
0.6518 0.6533 0.6522
0.6620 0.6633 0.6622
0.6904 0.6915 0.6904
0.7370 0.7377 0.7363
0.8117 0.7932 0.7887
0.2583 0.2488 0.2658
0.2923 0.2698 0.2979
0.4696 0.2573 0.3581
0.7191 0.2254 0.3841
0.9134 0.2233 0.5272
0.2967 0.2941 0.3022
0.3247 0.3169 0.3309
0.4532 0.3394 0.4057
0.7183 0.3086 0.4250
0.9150 0.3051 0.5442
0.4037 0.4041 0.4048
0.4245 0.4249 0.4256
0.4832 0.4793 0.4865
0.7075 0.4747 0.5280
0.9192 0.4597 0.5880
0.5511 0.5520 0.5520
0.5653 0.5661 0.5661
0.6048 0.6053 0.6053
0.6667 0.6667 0.6667
0.9206 0.6445 0.6336
0.6953 0.6966 0.6960
0.7039 0.7051 0.7045
0.7286 0.7296 0.7290
0.7705 0.7710 0.7705
0.8337 0.8232 0.8207
0.4311 0.4170 0.4423
0.4544 0.4324 0.4649
0.5369 0.4601 0.5277
0.8449 0.3457 0.4892
0.9977 0.3699 0.5622
0.4574 0.4500 0.4670
0.4778 0.4656 0.4877
0.5468 0.4979 0.5470
0.8255 0.4143 0.5386
0.9907 0.4229 0.5866
0.5318 0.5318 0.5358
0.5468 0.5461 0.5516
0.5912 0.5830 0.5979
0.7425 0.5814 0.6582
0.9686 0.5453 0.6522
0.6396 0.6404 0.6411
0.6502 0.6509 0.6516
0.6800 0.6804 0.6810
0.7290 0.7253 0.7321
0.9269 0.7022 0.7506
0.7516 0.7528 0.7528
0.7589 0.7600 0.7600
0.7800 0.7809 0.7809
0.8161 0.8166 0.8166
0.8645 0.8645 0.8645
