public/luts/damasco.cube
#Created by: Pixelmator Pro
#Color profile: "kCGColorSpaceDisplayP3"
TITLE "Custom"
#Data domain
#LUT size
LUT_3D_SIZE 7
DOMAIN_MIN 0.000000 0.000000 0.000000
DOMAIN_MAX 0.882353 0.882353 0.882353
0.0000 0.0000 0.0000
0.0000 0.0000 0.0000
0.1170 0.0049 0.0000
0.2832 0.0246 0.0000
0.4832 0.0685 0.0000
0.6995 0.1182 0.0000
0.9064 0.1657 0.0000
0.0000 0.0000 0.0000
0.0224 0.0188 0.0180
0.1477 0.0598 0.0000
0.3066 0.0972 0.0000
0.5015 0.1399 0.0000
0.7121 0.1833 0.0000
0.9137 0.2228 0.0000
0.0924 0.0928 0.0924
0.1132 0.1135 0.1131
0.1711 0.1630 0.1611
0.3377 0.2140 0.1515
0.5426 0.2647 0.0000
0.7406 0.3023 0.0000
0.9300 0.3327 0.0000
0.2263 0.2270 0.2263
0.2425 0.2431 0.2424
0.2842 0.2847 0.2835
0.3628 0.3486 0.3451
0.5274 0.4040 0.3736
0.7721 0.4440 0.1510
0.9499 0.4708 0.0000
0.3820 0.3831 0.3820
0.3940 0.3950 0.3939
0.4250 0.4258 0.4248
0.4764 0.4768 0.4741
0.5563 0.5371 0.5324
0.6970 0.5810 0.5644
0.9069 0.6103 0.4451
0.5344 0.5357 0.5344
0.5425 0.5438 0.5425
0.5637 0.5648 0.5635
0.5988 0.5997 0.5982
0.6464 0.6462 0.6419
0.7156 0.6923 0.6866
0.8294 0.7224 0.7136
0.6648 0.6664 0.6648
0.6700 0.6716 0.6700
0.6838 0.6852 0.6836
0.7070 0.7081 0.7067
0.7393 0.7404 0.7382
0.7815 0.7802 0.7746
0.8439 0.8180 0.8117
0.0000 0.0000 0.0000
0.0151 0.0000 0.0028
0.1436 0.0000 0.0314
0.3070 0.0000 0.0537
0.5089 0.0000 0.0535
0.7274 0.0000 0.0152
0.9293 0.0783 0.0000
0.0154 0.0155 0.0155
0.0406 0.0406 0.0406
0.1844 0.0389 0.0290
0.3495 0.0378 0.0000
0.5368 0.0808 0.0000
0.7403 0.1276 0.0000
0.9356 0.1724 0.0000
0.1094 0.1098 0.1095
0.1293 0.1296 0.1293
0.1840 0.1783 0.1769
0.3635 0.2247 0.1301
0.5706 0.2508 0.0000
0.7646 0.2814 0.0000
0.9494 0.3086 0.0000
0.2395 0.2402 0.2396
0.2553 0.2559 0.2553
0.2960 0.2965 0.2957
0.3719 0.3595 0.3564
0.5399 0.4125 0.3753
0.7828 0.4471 0.1577
0.9653 0.4604 0.0000
0.3918 0.3929 0.3919
0.4035 0.4045 0.4035
0.4339 0.4346 0.4337
0.4840 0.4845 0.4823
0.5618 0.5439 0.5396
0.7030 0.5864 0.5677
0.9169 0.6139 0.4316
0.5410 0.5424 0.5410
0.5490 0.5503 0.5490
0.5698 0.5709 0.5696
0.6042 0.6051 0.6038
0.6508 0.6508 0.6469
0.7186 0.6963 0.6909
0.8326 0.7259 0.7163
0.6691 0.6707 0.6691
0.6742 0.6758 0.6742
0.6878 0.6892 0.6877
0.7106 0.7118 0.7104
0.7426 0.7436 0.7416
0.7842 0.7832 0.7779
0.8459 0.8208 0.8146
0.0344 0.0305 0.0376
0.0736 0.0432 0.0666
0.2053 0.0185 0.0832
0.3495 0.0000 0.1568
0.5414 0.0000 0.1872
0.7483 0.0000 0.2111
0.9487 0.0000 0.2092
0.0705 0.0706 0.0713
0.0933 0.0913 0.0949
0.2126 0.0937 0.1246
0.3726 0.0765 0.1743
0.5780 0.0000 0.1770
0.7784 0.0000 0.1837
0.9719 0.0000 0.1645
0.1523 0.1527 0.1527
0.1707 0.1709 0.1709
0.2177 0.2177 0.2177
0.4094 0.2243 0.2157
0.6194 0.2125 0.1827
0.8302 0.1788 0.0855
1.0000 0.1999 0.0375
0.2738 0.2744 0.2741
0.2886 0.2892 0.2888
0.3270 0.3274 0.3270
0.3956 0.3879 0.3860
0.5824 0.4335 0.3608
0.8035 0.4479 0.2503
0.9989 0.4319 0.1339
0.4173 0.4183 0.4175
0.4283 0.4293 0.4285
0.4570 0.4577 0.4570
0.5042 0.5047 0.5036
0.5761 0.5619 0.5584
0.7208 0.6001 0.5739
0.9387 0.6209 0.4167
0.5584 0.5597 0.5586
0.5659 0.5672 0.5661
0.5857 0.5867 0.5857
0.6184 0.6192 0.6182
0.6624 0.6628 0.6600
0.7265 0.7070 0.7023
0.8415 0.7352 0.7228
0.6803 0.6819 0.6804
0.6853 0.6868 0.6854
0.6982 0.6996 0.6982
0.7204 0.7215 0.7202
0.7515 0.7524 0.7509
0.7915 0.7910 0.7866
0.8511 0.8282 0.8226
0.1256 0.1198 0.1302
0.1492 0.1342 0.1522
0.2652 0.1226 0.1873
0.4287 0.0989 0.2107
0.5855 0.0768 0.3202
0.7881 0.0000 0.3402
0.9731 0.0000 0.3518
0.1523 0.1510 0.1554
0.1719 0.1673 0.1756
0.2553 0.1829 0.2242
0.4346 0.1640 0.2429
0.5934 0.1593 0.3378
0.8126 0.0037 0.3385
0.9922 0.0000 0.3430
0.2224 0.2227 0.2231
0.2387 0.2389 0.2393
0.2813 0.2788 0.2834
0.4424 0.2833 0.3202
0.6137 0.2842 0.3787
0.8281 0.2390 0.3688
1.0000 0.1659 0.3323
0.3309 0.3315 0.3315
0.3442 0.3448 0.3448
0.3787 0.3790 0.3790
0.4352 0.4352 0.4352
0.6408 0.4365 0.4284
0.8387 0.4263 0.4050
1.0000 0.4159 0.3739
0.4599 0.4608 0.4604
0.4699 0.4707 0.4703
0.4957 0.4964 0.4960
0.5384 0.5388 0.5384
0.6004 0.5921 0.5901
0.7641 0.6219 0.5646
0.9671 0.6228 0.4511
0.5876 0.5889 0.5880
0.5945 0.5957 0.5949
0.6125 0.6136 0.6128
0.6425 0.6433 0.6425
0.6826 0.6831 0.6819
0.7403 0.7257 0.7221
0.8599 0.7508 0.7312
0.6995 0.7010 0.6998
0.7041 0.7055 0.7044
0.7163 0.7176 0.7165
0.7373 0.7384 0.7373
0.7670 0.7677 0.7667
0.8045 0.8047 0.8017
0.8604 0.8411 0.8364
0.2345 0.2257 0.2415
0.2533 0.2383 0.2597
0.3150 0.2596 0.3068
0.5401 0.1763 0.2823
0.6732 0.2017 0.3551
0.8040 0.2238 0.4769
0.9927 0.1312 0.4944
0.2563 0.2520 0.2622
0.2731 0.2652 0.2793
0.3254 0.2915 0.3250
0.5302 0.2388 0.3270
0.6739 0.2533 0.3793
0.8042 0.2730 0.4920
0.9940 0.2014 0.5033
0.3143 0.3144 0.3169
0.3281 0.3277 0.3313
0.3655 0.3599 0.3700
0.4863 0.3695 0.4246
0.6726 0.3577 0.4387
0.8069 0.3661 0.5294
0.9966 0.3188 0.5245
0.4066 0.4072 0.4076
0.4179 0.4184 0.4189
0.4473 0.4476 0.4481
0.4963 0.4936 0.4986
0.6613 0.4914 0.5282
0.8147 0.4856 0.5745
1.0000 0.4480 0.5549
0.5167 0.5176 0.5176
0.5253 0.5261 0.5261
0.5476 0.5482 0.5482
0.5844 0.5848 0.5848
0.6330 0.6330 0.6330
0.8223 0.6203 0.6128
0.9943 0.6013 0.5838
0.6272 0.6284 0.6279
0.6332 0.6344 0.6339
0.6490 0.6500 0.6495
0.6754 0.6761 0.6757
0.7109 0.7113 0.7109
0.7602 0.7522 0.7502
0.9003 0.7712 0.7247
0.7264 0.7278 0.7270
0.7307 0.7321 0.7312
0.7420 0.7432 0.7424
0.7616 0.7626 0.7618
0.7892 0.7899 0.7892
0.8238 0.8242 0.8230
0.8738 0.8598 0.8564
0.3567 0.3445 0.3665
0.3715 0.3547 0.3809
0.4147 0.3766 0.4190
0.5261 0.3802 0.4732
0.8055 0.2521 0.3621
0.8902 0.3099 0.4913
0.9929 0.3301 0.5998
0.3738 0.3658 0.3826
0.3874 0.3762 0.3964
0.4265 0.3993 0.4329
0.5238 0.4115 0.4888
0.8038 0.2970 0.3879
0.8877 0.3467 0.5082
0.9896 0.3633 0.6121
0.4190 0.4173 0.4247
0.4303 0.4275 0.4367
0.4612 0.4523 0.4683
0.5289 0.4791 0.5230
0.7685 0.4102 0.4903
0.8795 0.4285 0.5504
0.9803 0.4372 0.6435
0.4929 0.4934 0.4947
0.5020 0.5025 0.5040
0.5256 0.5256 0.5284
0.5668 0.5611 0.5714
0.6961 0.5564 0.6139
0.8615 0.5393 0.6162
0.9672 0.5391 0.6869
0.5824 0.5832 0.5837
0.5894 0.5901 0.5906
0.6077 0.6083 0.6088
0.6382 0.6385 0.6390
0.6796 0.6769 0.6817
0.8300 0.6615 0.6968
0.9586 0.6503 0.7311
0.6739 0.6750 0.6750
0.6790 0.6800 0.6800
0.6923 0.6931 0.6931
0.7148 0.7155 0.7155
0.7464 0.7468 0.7468
0.7856 0.7856 0.7856
0.9567 0.7683 0.7617
0.7604 0.7617 0.7613
0.7643 0.7655 0.7651
0.7745 0.7756 0.7752
0.7922 0.7932 0.7928
0.8174 0.8181 0.8177
0.8491 0.8494 0.8491
0.8913 0.8838 0.8820
0.4794 0.4643 0.4915
0.4905 0.4720 0.5024
0.5219 0.4895 0.5312
0.5876 0.5074 0.5784
0.7547 0.4656 0.6066
0.9995 0.3550 0.4905
1.0000 0.4391 0.5989
0.4921 0.4807 0.5034
0.5025 0.4883 0.5138
0.5315 0.5063 0.5414
0.5916 0.5262 0.5876
0.7437 0.4955 0.6226
0.9963 0.3860 0.5066
1.0000 0.4611 0.6112
0.5254 0.5208 0.5342
0.5343 0.5283 0.5433
0.5583 0.5466 0.5678
0.6060 0.5699 0.6107
0.7218 0.5620 0.6564
0.9873 0.4566 0.5464
1.0000 0.5145 0.6428
0.5809 0.5809 0.5853
0.5880 0.5876 0.5928
0.6066 0.6048 0.6124
0.6398 0.6310 0.6470
0.7065 0.6477 0.6959
0.9514 0.5656 0.6329
1.0000 0.5953 0.6946
0.6508 0.6515 0.6525
0.6564 0.6570 0.6580
0.6708 0.6713 0.6724
0.6949 0.6951 0.6973
0.7301 0.7247 0.7345
0.8542 0.7091 0.7631
0.9987 0.6914 0.7610
0.7244 0.7253 0.7258
0.7287 0.7296 0.7300
0.7400 0.7408 0.7413
0.7597 0.7603 0.7607
0.7875 0.7878 0.7882
0.8229 0.8204 0.8249
0.9602 0.8026 0.8348
0.7998 0.8010 0.8010
0.8032 0.8044 0.8044
0.8123 0.8133 0.8133
0.8281 0.8290 0.8290
0.8506 0.8512 0.8512
0.8791 0.8794 0.8794
0.9123 0.9123 0.9123
