public/luts/guarana.cube
#Created by: Pixelmator Pro
#Color profile: "kCGColorSpaceDisplayP3"
TITLE "Custom"
#Data domain
#LUT size
LUT_3D_SIZE 7
DOMAIN_MIN 0.000000 0.000000 0.000000
DOMAIN_MAX 0.882353 0.882353 0.882353
0.1035 0.0633 0.0346
0.3009 0.0649 0.0000
0.4385 0.0982 0.0000
0.5539 0.1292 0.0000
0.6537 0.1589 0.0000
0.7480 0.1914 0.0000
0.8652 0.2563 0.0000
0.1682 0.2383 0.0000
0.2832 0.2467 0.0000
0.4690 0.2078 0.0000
0.5994 0.1801 0.0000
0.6853 0.1927 0.0000
0.7685 0.2170 0.0000
0.8785 0.2814 0.0000
0.2392 0.3740 0.0000
0.3298 0.3732 0.0000
0.4177 0.3857 0.0000
0.5629 0.3552 0.0000
0.6989 0.2934 0.0000
0.7969 0.2636 0.0000
0.8970 0.3245 0.0000
0.3001 0.4869 0.0000
0.3850 0.4785 0.0000
0.4471 0.4897 0.0000
0.5250 0.4998 0.0000
0.6594 0.4756 0.0000
0.7986 0.4218 0.0000
0.9162 0.3937 0.0000
0.3602 0.5924 0.0000
0.4280 0.5885 0.0000
0.4954 0.5935 0.0000
0.5602 0.6082 0.0000
0.6427 0.6270 0.0117
0.7869 0.6206 0.0000
0.9244 0.5673 0.0143
0.4557 0.7245 0.0000
0.5121 0.7257 0.0000
0.5928 0.7268 0.0000
0.6431 0.7428 0.0000
0.7085 0.7615 0.0000
0.7900 0.7858 0.0154
0.9212 0.7829 0.0000
0.6476 0.8916 0.0000
0.6823 0.8926 0.0000
0.7312 0.8940 0.0000
0.7846 0.8956 0.0000
0.8178 0.9050 0.0000
0.8628 0.9172 0.0000
0.9258 0.9362 0.0053
0.0551 0.0530 0.2631
0.3097 0.0132 0.2242
0.4895 0.0000 0.1718
0.6268 0.0000 0.0852
0.7119 0.0596 0.0000
0.7770 0.1395 0.0000
0.8758 0.2412 0.0000
0.0685 0.2624 0.1931
0.2799 0.2400 0.1778
0.4758 0.2126 0.1173
0.6189 0.1853 0.0388
0.7075 0.1851 0.0000
0.7835 0.2089 0.0000
0.8864 0.2783 0.0000
0.1138 0.4273 0.0953
0.3036 0.3997 0.0845
0.4172 0.3849 0.1293
0.5789 0.3409 0.1146
0.7015 0.2901 0.1116
0.8042 0.2668 0.0421
0.9036 0.3229 0.0000
0.2005 0.5376 0.0000
0.3330 0.5198 0.0000
0.4453 0.4978 0.0806
0.5236 0.4993 0.1225
0.6674 0.4709 0.1081
0.7999 0.4165 0.1480
0.9207 0.3932 0.0340
0.2942 0.6253 0.0000
0.3837 0.6186 0.0000
0.4941 0.6104 0.0000
0.5602 0.6121 0.1067
0.6428 0.6282 0.1443
0.7928 0.6207 0.1086
0.9251 0.5648 0.1680
0.4118 0.7461 0.0000
0.4799 0.7462 0.0000
0.5743 0.7454 0.0000
0.6454 0.7543 0.0000
0.7105 0.7658 0.1027
0.7907 0.7873 0.1523
0.9250 0.7822 0.0800
0.6238 0.8999 0.0000
0.6634 0.9006 0.0000
0.7184 0.9016 0.0000
0.7782 0.9023 0.0000
0.8191 0.9094 0.0000
0.8646 0.9208 0.0000
0.9261 0.9368 0.1602
0.0330 0.0710 0.4374
0.2792 0.0000 0.4344
0.4573 0.0000 0.3831
0.5879 0.0000 0.3443
0.7004 0.0000 0.2805
0.8010 0.0000 0.1789
0.9046 0.0793 0.0000
0.0330 0.2582 0.3819
0.2458 0.2288 0.3868
0.4367 0.2016 0.3532
0.5766 0.1836 0.3158
0.7019 0.1599 0.2380
0.8047 0.1514 0.1292
0.9060 0.2070 0.0000
0.0514 0.4087 0.3354
0.2376 0.3936 0.3262
0.4050 0.3716 0.3142
0.5596 0.3488 0.2691
0.6854 0.3268 0.2172
0.7982 0.3084 0.1535
0.9141 0.3139 0.0000
0.0902 0.5351 0.2726
0.2482 0.5252 0.2546
0.4214 0.5005 0.2468
0.5158 0.4939 0.2862
0.6655 0.4631 0.2814
0.7977 0.4326 0.2777
0.9202 0.4301 0.1522
0.1796 0.6474 0.1816
0.3016 0.6403 0.1773
0.4525 0.6256 0.1860
0.5585 0.6140 0.2564
0.6440 0.6307 0.2940
0.7954 0.6203 0.2768
0.9251 0.5773 0.3056
0.3006 0.7774 0.0683
0.3996 0.7756 0.0682
0.5281 0.7711 0.0820
0.6474 0.7628 0.1409
0.7121 0.7691 0.2595
0.7922 0.7896 0.3093
0.9262 0.7823 0.2727
0.5660 0.9133 0.0000
0.6181 0.9136 0.0000
0.6882 0.9138 0.0000
0.7609 0.9137 0.0000
0.8206 0.9164 0.0000
0.8655 0.9224 0.2059
0.9266 0.9376 0.3334
0.0330 0.1031 0.5659
0.2322 0.0000 0.6014
0.4304 0.0000 0.5507
0.5659 0.0000 0.5153
0.6762 0.0000 0.4823
0.7834 0.0000 0.4335
0.9075 0.0000 0.3074
0.0330 0.2583 0.5286
0.2058 0.2192 0.5596
0.4132 0.1812 0.5359
0.5544 0.1712 0.5003
0.6666 0.1667 0.4705
0.7873 0.1448 0.4159
0.9136 0.1375 0.2655
0.0330 0.3996 0.4970
0.1944 0.3894 0.4985
0.3759 0.3616 0.4937
0.5285 0.3406 0.4722
0.6562 0.3271 0.4494
0.7886 0.3144 0.3854
0.9168 0.3175 0.2328
0.0511 0.5207 0.4645
0.2123 0.5120 0.4604
0.3661 0.5000 0.4565
0.5103 0.4871 0.4544
0.6567 0.4772 0.4254
0.7942 0.4739 0.3804
0.9202 0.4744 0.2685
0.0959 0.6400 0.4349
0.2307 0.6386 0.4250
0.3852 0.6358 0.4115
0.5476 0.6250 0.4126
0.6458 0.6344 0.4576
0.7991 0.6184 0.4612
0.9246 0.6046 0.4299
0.2183 0.7837 0.3448
0.3289 0.7836 0.3390
0.4712 0.7824 0.3341
0.6145 0.7772 0.3443
0.7143 0.7741 0.4255
0.7941 0.7926 0.4787
0.9278 0.7820 0.4722
0.4485 0.9278 0.1202
0.5278 0.9276 0.1185
0.6292 0.9270 0.1214
0.7282 0.9254 0.1411
0.8182 0.9215 0.2040
0.8667 0.9243 0.4010
0.9272 0.9387 0.5127
0.0330 0.1363 0.6744
0.1763 0.0146 0.7223
0.3908 0.0000 0.6910
0.5408 0.0000 0.6596
0.6595 0.0000 0.6352
0.7725 0.0000 0.6188
0.9036 0.0000 0.5870
0.0330 0.2630 0.6525
0.1575 0.2128 0.6937
0.3692 0.1784 0.6790
0.5326 0.1525 0.6557
0.6554 0.1535 0.6314
0.7710 0.1624 0.6176
0.9095 0.1312 0.5774
0.0330 0.3981 0.6245
0.1375 0.3819 0.6516
0.3409 0.3537 0.6473
0.5128 0.3253 0.6369
0.6451 0.3212 0.6216
0.7716 0.3263 0.6185
0.9137 0.3103 0.5604
0.0330 0.5157 0.6119
0.1710 0.5120 0.6161
0.3313 0.5038 0.6155
0.4922 0.4871 0.6221
0.6420 0.4806 0.6188
0.7829 0.4825 0.6122
0.9190 0.4889 0.5292
0.0648 0.6395 0.6061
0.2079 0.6382 0.6076
0.3578 0.6376 0.6111
0.5063 0.6378 0.6166
0.6513 0.6379 0.6240
0.7976 0.6405 0.6029
0.9240 0.6470 0.5427
0.1248 0.7851 0.6086
0.2508 0.7869 0.6036
0.4020 0.7893 0.5960
0.5557 0.7909 0.5873
0.7073 0.7859 0.5931
0.7969 0.7969 0.6449
0.9299 0.7803 0.6624
0.3519 0.9318 0.4850
0.4467 0.9320 0.4806
0.5673 0.9320 0.4756
0.6849 0.9316 0.4746
0.7917 0.9295 0.4903
0.8683 0.9273 0.5903
0.9282 0.9401 0.6790
0.0330 0.1771 0.7708
0.1006 0.0504 0.8167
0.3284 0.0039 0.8070
0.5049 0.0000 0.7880
0.6436 0.0000 0.7745
0.7719 0.0000 0.7713
0.9023 0.0000 0.7822
0.0330 0.2786 0.7599
0.0863 0.2132 0.8019
0.3142 0.1859 0.7955
0.4946 0.1554 0.7879
0.6445 0.1392 0.7787
0.7762 0.1489 0.7754
0.9039 0.1680 0.7845
0.0330 0.4030 0.7466
0.0687 0.3741 0.7828
0.2975 0.3532 0.7815
0.4808 0.3293 0.7802
0.6433 0.3111 0.7780
0.7793 0.3195 0.7779
0.9069 0.3358 0.7869
0.0330 0.5239 0.7436
0.0754 0.5217 0.7657
0.2860 0.5116 0.7699
0.4726 0.4966 0.7767
0.6451 0.4805 0.7812
0.7840 0.4872 0.7820
0.9120 0.4987 0.7874
0.0330 0.6538 0.7565
0.1553 0.6562 0.7635
0.3217 0.6566 0.7673
0.4804 0.6571 0.7732
0.6448 0.6492 0.7846
0.7908 0.6500 0.7879
0.9199 0.6573 0.7812
0.0812 0.7939 0.7737
0.2217 0.7946 0.7757
0.3754 0.7957 0.7789
0.5266 0.7972 0.7831
0.6696 0.7993 0.7890
0.8031 0.8016 0.7972
0.9287 0.8073 0.7768
0.2066 0.9346 0.7747
0.3235 0.9352 0.7724
0.4699 0.9362 0.7686
0.6122 0.9371 0.7639
0.7430 0.9377 0.7590
0.8599 0.9350 0.7660
0.9295 0.9423 0.8217
0.0330 0.2505 0.8784
0.0330 0.1582 0.9051
0.2420 0.0855 0.9145
0.4476 0.0375 0.9160
0.6305 0.0000 0.9160
0.7819 0.0000 0.9156
0.9097 0.0000 0.9227
0.0330 0.3320 0.8791
0.0330 0.2707 0.9036
0.2364 0.2211 0.9144
0.4450 0.1937 0.9167
0.6303 0.1562 0.9192
0.7874 0.1174 0.9215
0.9131 0.1327 0.9261
0.0330 0.4457 0.8824
0.0330 0.4121 0.9037
0.2284 0.3798 0.9151
0.4413 0.3604 0.9178
0.6300 0.3344 0.9209
0.7902 0.3063 0.9238
0.9151 0.3216 0.9280
0.0330 0.5702 0.8874
0.0330 0.5562 0.9047
0.2188 0.5387 0.9160
0.4370 0.5259 0.9194
0.6295 0.5082 0.9232
0.7937 0.4859 0.9267
0.9176 0.5007 0.9304
0.0330 0.6944 0.8962
0.0330 0.6941 0.9082
0.2142 0.6902 0.9169
0.4333 0.6838 0.9209
0.6292 0.6734 0.9256
0.7961 0.6589 0.9303
0.9209 0.6676 0.9334
0.0330 0.8170 0.9118
0.0739 0.8199 0.9182
0.2887 0.8208 0.9201
0.4696 0.8219 0.9228
0.6362 0.8230 0.9267
0.7984 0.8163 0.9338
0.9253 0.8175 0.9374
0.0975 0.9407 0.9298
0.2445 0.9410 0.9305
0.4071 0.9415 0.9317
0.5619 0.9421 0.9332
0.7020 0.9429 0.9352
0.8253 0.9440 0.9382
0.9331 0.9453 0.9434
