public/luts/guarana.cube
#Created by: Pixelmator Pro
#Color profile: "kCGColorSpaceDisplayP3"
TITLE "Custom"
#Data domain
#LUT size
LUT_3D_SIZE 5
DOMAIN_MIN 0.000000 0.000000 0.000000
DOMAIN_MAX 0.823529 0.823529 0.823529
0.1035 0.0633 0.0346
0.3586 0.0784 0.0000
0.5323 0.1231 0.0000
0.6727 0.1650 0.0000
0.8125 0.2199 0.0000
0.1981 0.2959 0.0000
0.3417 0.3067 0.0000
0.5691 0.2510 0.0000
0.7152 0.2158 0.0000
0.8379 0.2577 0.0000
0.2884 0.4656 0.0000
0.3977 0.4633 0.0000
0.5042 0.4775 0.0000
0.6931 0.4339 0.0000
0.8722 0.3532 0.0000
0.3744 0.6154 0.0000
0.4753 0.6105 0.0000
0.5576 0.6291 0.0000
0.6718 0.6580 0.0138
0.8706 0.6424 0.0000
0.5578 0.8237 0.0000
0.6268 0.8257 0.0000
0.7122 0.8309 0.0000
0.7781 0.8501 0.0000
0.8746 0.8790 0.0113
0.0330 0.0500 0.3506
0.3772 0.0000 0.2932
0.5839 0.0000 0.2201
0.7385 0.0000 0.0916
0.8451 0.1328 0.0000
0.0590 0.3269 0.2519
0.3353 0.2972 0.2329
0.5688 0.2612 0.1563
0.7292 0.2252 0.0604
0.8545 0.2477 0.0000
0.1329 0.5217 0.1288
0.3619 0.4908 0.1223
0.4993 0.4740 0.1869
0.7003 0.4213 0.1853
0.8724 0.3802 0.1368
0.2540 0.6661 0.0000
0.4118 0.6547 0.0038
0.5585 0.6387 0.1337
0.6728 0.6606 0.2033
0.8757 0.6394 0.1826
0.5006 0.8449 0.0000
0.5895 0.8455 0.0000
0.7058 0.8453 0.0000
0.7814 0.8582 0.0697
0.8753 0.8805 0.2210
0.0330 0.0967 0.5419
0.3311 0.0000 0.5480
0.5461 0.0000 0.4903
0.6999 0.0000 0.4420
0.8566 0.0000 0.3222
0.0330 0.3189 0.4862
0.2887 0.2820 0.4990
0.5220 0.2483 0.4602
0.6930 0.2264 0.4129
0.8651 0.2128 0.2744
0.0501 0.4995 0.4391
0.2797 0.4837 0.4312
0.4879 0.4625 0.4243
0.6877 0.4450 0.3767
0.8709 0.4396 0.2804
0.1309 0.6688 0.3686
0.3175 0.6655 0.3559
0.5384 0.6540 0.3566
0.6753 0.6652 0.4274
0.8788 0.6359 0.4448
0.3535 0.8703 0.1853
0.4928 0.8696 0.1825
0.6596 0.8665 0.1983
0.7839 0.8627 0.3285
0.8769 0.8828 0.4627
0.0330 0.1436 0.6943
0.2576 0.0003 0.7362
0.5086 0.0000 0.6907
0.6792 0.0000 0.6603
0.8477 0.0000 0.6493
0.0330 0.3200 0.6641
0.2288 0.2704 0.6992
0.4884 0.2265 0.6807
0.6734 0.2204 0.6552
0.8530 0.2232 0.6475
0.0330 0.4917 0.6405
0.2182 0.4848 0.6511
0.4576 0.4601 0.6560
0.6697 0.4490 0.6516
0.8638 0.4507 0.6352
0.0685 0.6688 0.6387
0.2699 0.6690 0.6423
0.4799 0.6697 0.6491
0.6823 0.6710 0.6596
0.8770 0.6770 0.6227
0.2087 0.8766 0.6103
0.3787 0.8778 0.6037
0.5814 0.8788 0.5947
0.7683 0.8753 0.6032
0.8793 0.8864 0.6950
0.0330 0.2126 0.8304
0.1480 0.0712 0.8704
0.4354 0.0090 0.8657
0.6663 0.0000 0.8572
0.8552 0.0000 0.8632
0.0330 0.3467 0.8254
0.1342 0.2785 0.8621
0.4256 0.2466 0.8624
0.6711 0.2057 0.8648
0.8604 0.2150 0.8682
0.0330 0.5193 0.8253
0.1174 0.4991 0.8568
0.4182 0.4806 0.8627
0.6713 0.4547 0.8687
0.8651 0.4605 0.8726
0.0330 0.6983 0.8444
0.1696 0.7017 0.8569
0.4217 0.7025 0.8625
0.6723 0.6911 0.8732
0.8721 0.6910 0.8790
0.0901 0.8849 0.8705
0.2970 0.8857 0.8724
0.5157 0.8871 0.8757
0.7140 0.8891 0.8807
0.8852 0.8919 0.8894
