public/luts/guarana.cube
#Created by: Pixelmator Pro
#Color profile: "kCGColorSpaceDisplayP3"
TITLE "Custom"
#Data domain
DOMAIN_MIN 0.0000 0.0000 0.0000
DOMAIN_MAX 1.0000 1.0000 1.0000
#LUT size
LUT_3D_SIZE 35
0.1035 0.0633 0.0346
0.1649 0.0560 0.0162
0.2104 0.0496 0.0012
0.2412 0.0529 0.0000
0.2711 0.0585 0.0000
0.3009 0.0649 0.0000
0.3302 0.0716 0.0000
0.3586 0.0784 0.0000
0.3862 0.0851 0.0000
0.4128 0.0917 0.0000
0.4385 0.0982 0.0000
0.4632 0.1046 0.0000
0.4871 0.1109 0.0000
0.5101 0.1170 0.0000
0.5323 0.1231 0.0000
0.5539 0.1292 0.0000
0.5748 0.1351 0.0000
0.5952 0.1411 0.0000
0.6151 0.1470 0.0000
0.6346 0.1529 0.0000
0.6537 0.1589 0.0000
0.6727 0.1650 0.0000
0.6914 0.1712 0.0000
0.7101 0.1776 0.0000
0.7289 0.1843 0.0000
0.7480 0.1914 0.0000
0.7681 0.1994 0.0000
0.7895 0.2086 0.0000
0.8125 0.2199 0.0000
0.8375 0.2347 0.0000
0.8652 0.2563 0.0000
0.8953 0.2884 0.0000
0.9261 0.3314 0.0000
0.9570 0.3924 0.0000
0.9774 0.4992 0.1375
0.1142 0.1147 0.0058
0.1513 0.1125 0.0130
0.1995 0.1037 0.0048
0.2505 0.0889 0.0026
0.2902 0.0831 0.0000
0.3211 0.0846 0.0000
0.3495 0.0888 0.0000
0.3766 0.0938 0.0000
0.4028 0.0991 0.0000
0.4281 0.1046 0.0000
0.4526 0.1099 0.0000
0.4763 0.1153 0.0000
0.4991 0.1207 0.0000
0.5211 0.1261 0.0000
0.5425 0.1315 0.0000
0.5632 0.1369 0.0000
0.5833 0.1423 0.0000
0.6030 0.1477 0.0000
0.6222 0.1532 0.0000
0.6410 0.1587 0.0000
0.6596 0.1643 0.0000
0.6780 0.1700 0.0000
0.6962 0.1758 0.0000
0.7145 0.1819 0.0000
0.7328 0.1883 0.0000
0.7517 0.1952 0.0000
0.7715 0.2030 0.0000
0.7926 0.2121 0.0000
0.8153 0.2233 0.0000
0.8400 0.2382 0.0000
0.8675 0.2602 0.0000
0.8971 0.2921 0.0000
0.9274 0.3350 0.0000
0.9578 0.3958 0.0000
0.9774 0.5030 0.1430
0.1241 0.1466 0.0000
0.1612 0.1453 0.0000
0.1863 0.1475 0.0000
0.2302 0.1395 0.0000
0.2770 0.1287 0.0000
0.3242 0.1153 0.0000
0.3608 0.1095 0.0000
0.3902 0.1098 0.0000
0.4169 0.1123 0.0000
0.4415 0.1163 0.0000
0.4651 0.1207 0.0000
0.4877 0.1254 0.0000
0.5095 0.1302 0.0000
0.5306 0.1352 0.0000
0.5511 0.1401 0.0000
0.5712 0.1448 0.0000
0.5907 0.1496 0.0000
0.6098 0.1545 0.0000
0.6284 0.1595 0.0000
0.6468 0.1645 0.0000
0.6649 0.1697 0.0000
0.6828 0.1750 0.0000
0.7006 0.1805 0.0000
0.7184 0.1862 0.0000
0.7364 0.1923 0.0000
0.7550 0.1989 0.0000
0.7747 0.2066 0.0000
0.7955 0.2155 0.0000
0.8180 0.2267 0.0000
0.8425 0.2417 0.0000
0.8697 0.2640 0.0000
0.8988 0.2958 0.0000
0.9286 0.3385 0.0000
0.9586 0.3990 0.0000
0.9774 0.5066 0.1482
0.1378 0.1771 0.0000
0.1730 0.1751 0.0000
0.1940 0.1780 0.0000
0.2188 0.1810 0.0000
0.2604 0.1748 0.0000
0.3041 0.1662 0.0000
0.3476 0.1557 0.0000
0.3905 0.1432 0.0000
0.4259 0.1352 0.0000
0.4525 0.1351 0.0000
0.4775 0.1357 0.0000
0.5003 0.1381 0.0000
0.5215 0.1417 0.0000
0.5419 0.1455 0.0000
0.5617 0.1496 0.0000
0.5808 0.1539 0.0000
0.5994 0.1583 0.0000
0.6177 0.1629 0.0000
0.6355 0.1676 0.0000
0.6533 0.1721 0.0000
0.6709 0.1767 0.0000
0.6883 0.1815 0.0000
0.7057 0.1865 0.0000
0.7231 0.1918 0.0000
0.7407 0.1975 0.0000
0.7591 0.2038 0.0000
0.7784 0.2112 0.0000
0.7990 0.2200 0.0000
0.8212 0.2311 0.0000
0.8454 0.2461 0.0000
0.8723 0.2688 0.0000
0.9008 0.3004 0.0000
0.9301 0.3429 0.0000
0.9596 0.4031 0.0000
0.9774 0.5112 0.1546
0.1529 0.2079 0.0000
0.1878 0.2045 0.0000
0.2054 0.2078 0.0000
0.2273 0.2110 0.0000
0.2515 0.2144 0.0000
0.2906 0.2092 0.0000
0.3314 0.2018 0.0000
0.3718 0.1930 0.0000
0.4115 0.1826 0.0000
0.4501 0.1704 0.0000
0.4846 0.1597 0.0000
0.5085 0.1590 0.0000
0.5312 0.1589 0.0000
0.5528 0.1593 0.0000
0.5724 0.1616 0.0000
0.5910 0.1648 0.0000
0.6091 0.1682 0.0000
0.6267 0.1719 0.0000
0.6440 0.1759 0.0000
0.6610 0.1800 0.0000
0.6778 0.1844 0.0000
0.6945 0.1891 0.0000
0.7112 0.1939 0.0000
0.7282 0.1986 0.0000
0.7455 0.2039 0.0000
0.7636 0.2099 0.0000
0.7827 0.2169 0.0000
0.8030 0.2255 0.0000
0.8249 0.2365 0.0000
0.8488 0.2516 0.0000
0.8753 0.2746 0.0000
0.9032 0.3060 0.0000
0.9318 0.3482 0.0000
0.9607 0.4079 0.0000
0.9774 0.5165 0.1620
0.1682 0.2383 0.0000
0.2013 0.2345 0.0000
0.2189 0.2367 0.0000
0.2379 0.2401 0.0000
0.2599 0.2433 0.0000
0.2832 0.2467 0.0000
0.3197 0.2422 0.0000
0.3581 0.2354 0.0000
0.3959 0.2275 0.0000
0.4329 0.2184 0.0000
0.4690 0.2078 0.0000
0.5039 0.1956 0.0000
0.5372 0.1822 0.0000
0.5589 0.1810 0.0000
0.5796 0.1803 0.0000
0.5994 0.1801 0.0000
0.6185 0.1803 0.0000
0.6357 0.1829 0.0000
0.6525 0.1858 0.0000
0.6690 0.1891 0.0000
0.6853 0.1927 0.0000
0.7015 0.1966 0.0000
0.7177 0.2009 0.0000
0.7340 0.2056 0.0000
0.7509 0.2109 0.0000
0.7685 0.2170 0.0000
0.7873 0.2237 0.0000
0.8074 0.2320 0.0000
0.8290 0.2429 0.0000
0.8525 0.2581 0.0000
0.8785 0.2814 0.0000
0.9057 0.3125 0.0000
0.9336 0.3543 0.0000
0.9619 0.4135 0.0000
0.9774 0.5226 0.1703
0.1834 0.2677 0.0000
0.2127 0.2646 0.0000
0.2333 0.2643 0.0000
0.2499 0.2678 0.0000
0.2696 0.2711 0.0000
0.2911 0.2743 0.0000
0.3133 0.2775 0.0000
0.3475 0.2734 0.0000
0.3837 0.2671 0.0000
0.4193 0.2598 0.0000
0.4541 0.2514 0.0000
0.4880 0.2417 0.0000
0.5211 0.2307 0.0000
0.5531 0.2180 0.0000
0.5842 0.2034 0.0000
0.6046 0.2011 0.0000
0.6237 0.1999 0.0000
0.6422 0.1991 0.0000
0.6600 0.1986 0.0000
0.6767 0.1998 0.0000
0.6927 0.2024 0.0000
0.7085 0.2055 0.0000
0.7243 0.2090 0.0000
0.7403 0.2130 0.0000
0.7569 0.2178 0.0000
0.7742 0.2235 0.0000
0.7925 0.2306 0.0000
0.8120 0.2394 0.0000
0.8332 0.2503 0.0000
0.8564 0.2657 0.0000
0.8819 0.2890 0.0000
0.9084 0.3197 0.0000
0.9356 0.3611 0.0000
0.9632 0.4196 0.0000
0.9774 0.5293 0.1793
0.1981 0.2959 0.0000
0.2245 0.2933 0.0000
0.2480 0.2909 0.0000
0.2627 0.2943 0.0000
0.2803 0.2976 0.0000
0.2999 0.3007 0.0000
0.3205 0.3037 0.0000
0.3417 0.3067 0.0000
0.3738 0.3029 0.0000
0.4082 0.2968 0.0000
0.4419 0.2899 0.0000
0.4748 0.2820 0.0000
0.5071 0.2730 0.0000
0.5385 0.2627 0.0000
0.5691 0.2510 0.0000
0.5988 0.2375 0.0000
0.6276 0.2219 0.0000
0.6466 0.2192 0.0000
0.6645 0.2176 0.0000
0.6819 0.2163 0.0000
0.6989 0.2154 0.0000
0.7152 0.2158 0.0000
0.7307 0.2183 0.0000
0.7466 0.2216 0.0000
0.7630 0.2258 0.0000
0.7801 0.2310 0.0000
0.7981 0.2375 0.0000
0.8172 0.2461 0.0000
0.8379 0.2577 0.0000
0.8606 0.2744 0.0000
0.8855 0.2976 0.0000
0.9112 0.3278 0.0000
0.9377 0.3685 0.0000
0.9645 0.4264 0.0000
0.9774 0.5366 0.1889
0.2123 0.3231 0.0000
0.2364 0.3208 0.0000
0.2589 0.3182 0.0000
0.2759 0.3196 0.0000
0.2916 0.3229 0.0000
0.3093 0.3259 0.0000
0.3285 0.3288 0.0000
0.3483 0.3315 0.0000
0.3684 0.3344 0.0000
0.3987 0.3309 0.0000
0.4315 0.3249 0.0000
0.4636 0.3182 0.0000
0.4951 0.3107 0.0000
0.5259 0.3021 0.0000
0.5560 0.2923 0.0000
0.5854 0.2812 0.0000
0.6141 0.2684 0.0000
0.6420 0.2537 0.0000
0.6683 0.2380 0.0000
0.6858 0.2356 0.0000
0.7029 0.2336 0.0000
0.7196 0.2320 0.0000
0.7363 0.2309 0.0000
0.7528 0.2316 0.0000
0.7691 0.2350 0.0000
0.7860 0.2395 0.0000
0.8037 0.2456 0.0000
0.8226 0.2538 0.0000
0.8430 0.2653 0.0000
0.8653 0.2826 0.0000
0.8891 0.3067 0.0000
0.9141 0.3366 0.0000
0.9398 0.3767 0.0000
0.9659 0.4337 0.0000
0.9774 0.5444 0.1991
0.2260 0.3491 0.0000
0.2482 0.3470 0.0000
0.2688 0.3448 0.0000
0.2891 0.3439 0.0000
0.3033 0.3471 0.0000
0.3194 0.3501 0.0000
0.3369 0.3529 0.0000
0.3555 0.3554 0.0000
0.3746 0.3580 0.0000
0.3937 0.3606 0.0000
0.4224 0.3574 0.0000
0.4538 0.3515 0.0000
0.4847 0.3450 0.0000
0.5148 0.3377 0.0000
0.5445 0.3294 0.0000
0.5735 0.3200 0.0000
0.6020 0.3092 0.0000
0.6298 0.2969 0.0000
0.6570 0.2827 0.0000
0.6836 0.2662 0.0000
0.7063 0.2532 0.0000
0.7233 0.2506 0.0000
0.7402 0.2486 0.0000
0.7574 0.2472 0.0000
0.7748 0.2466 0.0000
0.7919 0.2494 0.0000
0.8095 0.2549 0.0000
0.8281 0.2627 0.0000
0.8481 0.2741 0.0000
0.8700 0.2917 0.0000
0.8931 0.3152 0.0000
0.9170 0.3458 0.0000
0.9419 0.3857 0.0000
0.9674 0.4416 0.0000
0.9774 0.5528 0.2099
0.2392 0.3740 0.0000
0.2597 0.3722 0.0000
0.2789 0.3702 0.0000
0.3022 0.3673 0.0000
0.3152 0.3703 0.0000
0.3298 0.3732 0.0000
0.3458 0.3760 0.0000
0.3631 0.3785 0.0000
0.3810 0.3809 0.0000
0.3993 0.3833 0.0000
0.4177 0.3857 0.0000
0.4449 0.3826 0.0000
0.4753 0.3768 0.0000
0.5050 0.3705 0.0000
0.5342 0.3633 0.0000
0.5629 0.3552 0.0000
0.5911 0.3461 0.0000
0.6187 0.3356 0.0000
0.6460 0.3235 0.0000
0.6726 0.3096 0.0000
0.6989 0.2934 0.0000
0.7249 0.2744 0.0000
0.7440 0.2677 0.0000
0.7613 0.2655 0.0000
0.7789 0.2641 0.0000
0.7969 0.2636 0.0000
0.8152 0.2656 0.0000
0.8336 0.2729 0.0000
0.8533 0.2843 0.0000
0.8747 0.3018 0.0000
0.8970 0.3245 0.0000
0.9202 0.3545 0.0000
0.9441 0.3951 0.0000
0.9688 0.4502 0.0000
0.9774 0.5617 0.2213
0.2520 0.3981 0.0000
0.2711 0.3963 0.0000
0.2890 0.3945 0.0000
0.3107 0.3920 0.0000
0.3272 0.3926 0.0000
0.3405 0.3955 0.0000
0.3552 0.3982 0.0000
0.3711 0.4007 0.0000
0.3879 0.4030 0.0000
0.4053 0.4052 0.0000
0.4228 0.4074 0.0000
0.4405 0.4097 0.0000
0.4666 0.4068 0.0000
0.4960 0.4011 0.0000
0.5248 0.3948 0.0000
0.5532 0.3878 0.0000
0.5812 0.3799 0.0000
0.6087 0.3709 0.0000
0.6358 0.3606 0.0000
0.6626 0.3488 0.0000
0.6893 0.3352 0.0000
0.7157 0.3194 0.0000
0.7420 0.3006 0.0000
0.7652 0.2853 0.0000
0.7829 0.2831 0.0000
0.8010 0.2819 0.0000
0.8197 0.2823 0.0000
0.8391 0.2849 0.0000
0.8587 0.2961 0.0000
0.8795 0.3130 0.0000
0.9010 0.3349 0.0000
0.9234 0.3640 0.0000
0.9465 0.4037 0.0000
0.9703 0.4594 0.0000
0.9774 0.5712 0.2333
0.2644 0.4212 0.0000
0.2823 0.4197 0.0000
0.2990 0.4180 0.0000
0.3193 0.4157 0.0000
0.3392 0.4143 0.0000
0.3514 0.4171 0.0000
0.3649 0.4197 0.0000
0.3796 0.4221 0.0000
0.3952 0.4244 0.0000
0.4114 0.4266 0.0000
0.4283 0.4286 0.0000
0.4452 0.4307 0.0000
0.4624 0.4329 0.0000
0.4874 0.4302 0.0000
0.5161 0.4246 0.0000
0.5443 0.4184 0.0000
0.5721 0.4114 0.0000
0.5994 0.4037 0.0000
0.6266 0.3949 0.0000
0.6537 0.3850 0.0000
0.6806 0.3736 0.0000
0.7074 0.3603 0.0000
0.7341 0.3446 0.0000
0.7607 0.3259 0.0000
0.7856 0.3055 0.0065
0.8052 0.3019 0.0000
0.8239 0.3017 0.0000
0.8434 0.3039 0.0000
0.8639 0.3103 0.0000
0.8842 0.3254 0.0000
0.9050 0.3464 0.0000
0.9266 0.3745 0.0000
0.9489 0.4131 0.0000
0.9719 0.4684 0.0000
0.9774 0.5813 0.2459
0.2765 0.4437 0.0000
0.2933 0.4422 0.0000
0.3090 0.4407 0.0000
0.3280 0.4387 0.0000
0.3499 0.4359 0.0000
0.3625 0.4380 0.0000
0.3749 0.4406 0.0000
0.3884 0.4430 0.0000
0.4029 0.4453 0.0000
0.4181 0.4474 0.0000
0.4341 0.4494 0.0000
0.4504 0.4513 0.0000
0.4668 0.4533 0.0000
0.4836 0.4554 0.0000
0.5078 0.4529 0.0000
0.5359 0.4473 0.0000
0.5636 0.4413 0.0000
0.5911 0.4346 0.0000
0.6184 0.4272 0.0000
0.6456 0.4188 0.0000
0.6727 0.4093 0.0000
0.6998 0.3982 0.0000
0.7269 0.3852 0.0000
0.7540 0.3697 0.0000
0.7810 0.3509 0.0000
0.8049 0.3324 0.0197
0.8266 0.3259 0.0104
0.8477 0.3249 0.0000
0.8681 0.3309 0.0000
0.8888 0.3398 0.0000
0.9090 0.3591 0.0000
0.9298 0.3859 0.0000
0.9514 0.4233 0.0000
0.9736 0.4772 0.0000
0.9774 0.5921 0.2591
0.2884 0.4656 0.0000
0.3041 0.4642 0.0000
0.3189 0.4628 0.0000
0.3368 0.4609 0.0000
0.3575 0.4585 0.0000
0.3737 0.4584 0.0000
0.3851 0.4609 0.0000
0.3977 0.4633 0.0000
0.4111 0.4656 0.0000
0.4254 0.4677 0.0000
0.4403 0.4697 0.0000
0.4559 0.4716 0.0000
0.4717 0.4735 0.0000
0.4878 0.4754 0.0000
0.5042 0.4775 0.0000
0.5278 0.4753 0.0000
0.5558 0.4700 0.0000
0.5834 0.4643 0.0000
0.6109 0.4581 0.0000
0.6383 0.4511 0.0000
0.6657 0.4431 0.0000
0.6931 0.4339 0.0000
0.7205 0.4232 0.0000
0.7480 0.4105 0.0000
0.7755 0.3952 0.0000
0.8020 0.3776 0.0062
0.8264 0.3600 0.0316
0.8500 0.3530 0.0181
0.8722 0.3532 0.0000
0.8924 0.3609 0.0000
0.9130 0.3731 0.0000
0.9331 0.3986 0.0000
0.9539 0.4345 0.0000
0.9753 0.4867 0.0000
0.9774 0.6032 0.2733
0.3001 0.4869 0.0000
0.3149 0.4857 0.0000
0.3289 0.4844 0.0000
0.3458 0.4827 0.0000
0.3653 0.4805 0.0000
0.3850 0.4785 0.0000
0.3957 0.4809 0.0000
0.4073 0.4833 0.0000
0.4198 0.4856 0.0000
0.4331 0.4877 0.0000
0.4471 0.4897 0.0000
0.4618 0.4916 0.0000
0.4770 0.4935 0.0000
0.4926 0.4955 0.0000
0.5086 0.4976 0.0000
0.5250 0.4998 0.0000
0.5485 0.4981 0.0000
0.5764 0.4933 0.0000
0.6042 0.4880 0.0000
0.6318 0.4821 0.0000
0.6594 0.4756 0.0000
0.6871 0.4680 0.0000
0.7149 0.4593 0.0000
0.7427 0.4491 0.0000
0.7706 0.4368 0.0000
0.7986 0.4218 0.0000
0.8249 0.4059 0.0139
0.8507 0.3882 0.0379
0.8745 0.3814 0.0175
0.8961 0.3836 0.0000
0.9162 0.3937 0.0000
0.9363 0.4126 0.0000
0.9563 0.4468 0.0000
0.9770 0.4971 0.0000
0.9774 0.6140 0.2886
0.3116 0.5079 0.0000
0.3257 0.5068 0.0000
0.3389 0.5056 0.0000
0.3549 0.5041 0.0000
0.3733 0.5021 0.0000
0.3936 0.4997 0.0000
0.4065 0.5007 0.0000
0.4173 0.5030 0.0000
0.4289 0.5052 0.0000
0.4413 0.5074 0.0000
0.4545 0.5095 0.0000
0.4685 0.5116 0.0000
0.4831 0.5136 0.0000
0.4982 0.5157 0.0000
0.5138 0.5180 0.0000
0.5300 0.5203 0.0000
0.5464 0.5229 0.0000
0.5699 0.5216 0.0000
0.5979 0.5173 0.0000
0.6259 0.5124 0.0000
0.6539 0.5071 0.0000
0.6819 0.5010 0.0000
0.7099 0.4941 0.0000
0.7381 0.4860 0.0000
0.7665 0.4764 0.0000
0.7950 0.4648 0.0000
0.8236 0.4510 0.0000
0.8501 0.4353 0.0162
0.8756 0.4157 0.0448
0.8988 0.4107 0.0114
0.9193 0.4167 0.0000
0.9392 0.4305 0.0000
0.9588 0.4602 0.0000
0.9774 0.5095 0.0255
0.9774 0.6256 0.3048
0.3232 0.5287 0.0000
0.3365 0.5276 0.0000
0.3490 0.5266 0.0000
0.3642 0.5252 0.0000
0.3817 0.5234 0.0000
0.4009 0.5213 0.0000
0.4177 0.5204 0.0000
0.4278 0.5227 0.0000
0.4387 0.5250 0.0000
0.4505 0.5273 0.0000
0.4629 0.5296 0.0000
0.4761 0.5319 0.0000
0.4901 0.5341 0.0000
0.5048 0.5364 0.0000
0.5200 0.5388 0.0000
0.5357 0.5413 0.0000
0.5520 0.5440 0.0000
0.5687 0.5470 0.0000
0.5924 0.5461 0.0000
0.6206 0.5423 0.0000
0.6490 0.5380 0.0000
0.6773 0.5333 0.0000
0.7058 0.5279 0.0000
0.7344 0.5218 0.0000
0.7631 0.5146 0.0000
0.7921 0.5063 0.0000
0.8210 0.4956 0.0000
0.8493 0.4812 0.0000
0.8753 0.4640 0.0209
0.9000 0.4437 0.0486
0.9224 0.4413 0.0000
0.9418 0.4534 0.0000
0.9613 0.4751 0.0000
0.9774 0.5236 0.0589
0.9774 0.6380 0.3221
0.3349 0.5493 0.0000
0.3475 0.5484 0.0000
0.3594 0.5475 0.0000
0.3739 0.5463 0.0000
0.3905 0.5448 0.0000
0.4089 0.5430 0.0000
0.4286 0.5409 0.0000
0.4392 0.5428 0.0000
0.4495 0.5453 0.0000
0.4606 0.5477 0.0000
0.4724 0.5502 0.0000
0.4851 0.5526 0.0000
0.4984 0.5551 0.0000
0.5124 0.5576 0.0000
0.5271 0.5601 0.0000
0.5426 0.5628 0.0000
0.5584 0.5657 0.0000
0.5750 0.5688 0.0000
0.5920 0.5722 0.0000
0.6162 0.5719 0.0000
0.6447 0.5688 0.0000
0.6735 0.5652 0.0000
0.7024 0.5612 0.0000
0.7314 0.5568 0.0000
0.7607 0.5520 0.0000
0.7899 0.5459 0.0000
0.8188 0.5378 0.0000
0.8472 0.5266 0.0000
0.8749 0.5107 0.0000
0.9001 0.4917 0.0298
0.9237 0.4747 0.0379
0.9444 0.4780 0.0000
0.9635 0.4954 0.0000
0.9774 0.5391 0.0864
0.9774 0.6513 0.3405
0.3471 0.5704 0.0000
0.3592 0.5697 0.0000
0.3705 0.5689 0.0000
0.3844 0.5680 0.0000
0.4003 0.5668 0.0000
0.4178 0.5654 0.0000
0.4367 0.5637 0.0000
0.4517 0.5637 0.0000
0.4615 0.5662 0.0000
0.4719 0.5688 0.0000
0.4832 0.5714 0.0000
0.4951 0.5741 0.0000
0.5080 0.5767 0.0000
0.5215 0.5794 0.0000
0.5356 0.5822 0.0000
0.5506 0.5850 0.0000
0.5663 0.5880 0.0000
0.5824 0.5914 0.0000
0.5992 0.5948 0.0018
0.6166 0.5988 0.0032
0.6415 0.5994 0.0000
0.6705 0.5971 0.0000
0.7000 0.5944 0.0000
0.7296 0.5917 0.0000
0.7590 0.5884 0.0000
0.7882 0.5839 0.0000
0.8170 0.5779 0.0000
0.8454 0.5695 0.0000
0.8732 0.5573 0.0000
0.9000 0.5397 0.0041
0.9243 0.5173 0.0453
0.9466 0.5063 0.0112
0.9656 0.5193 0.0000
0.9774 0.5562 0.1119
0.9774 0.6656 0.3602
0.3602 0.5924 0.0000
0.3717 0.5918 0.0000
0.3826 0.5912 0.0000
0.3959 0.5905 0.0000
0.4111 0.5896 0.0000
0.4280 0.5885 0.0000
0.4460 0.5872 0.0000
0.4652 0.5856 0.0000
0.4747 0.5881 0.0000
0.4847 0.5908 0.0000
0.4954 0.5935 0.0000
0.5069 0.5963 0.0000
0.5190 0.5992 0.0000
0.5320 0.6021 0.0000
0.5457 0.6051 0.0000
0.5602 0.6082 0.0000
0.5754 0.6114 0.0000
0.5914 0.6149 0.0000
0.6076 0.6184 0.0054
0.6247 0.6221 0.0117
0.6427 0.6270 0.0117
0.6689 0.6290 0.0000
0.6986 0.6278 0.0000
0.7284 0.6260 0.0000
0.7578 0.6237 0.0000
0.7869 0.6206 0.0000
0.8156 0.6163 0.0000
0.8439 0.6101 0.0000
0.8717 0.6011 0.0000
0.8988 0.5874 0.0000
0.9244 0.5673 0.0143
0.9476 0.5416 0.0589
0.9677 0.5450 0.0000
0.9774 0.5772 0.1357
0.9774 0.6810 0.3813
0.3744 0.6154 0.0000
0.3855 0.6150 0.0000
0.3959 0.6146 0.0000
0.4087 0.6140 0.0000
0.4234 0.6134 0.0000
0.4395 0.6126 0.0000
0.4569 0.6116 0.0000
0.4753 0.6105 0.0000
0.4896 0.6111 0.0000
0.4992 0.6139 0.0000
0.5094 0.6168 0.0000
0.5204 0.6197 0.0000
0.5320 0.6227 0.0000
0.5445 0.6258 0.0000
0.5576 0.6291 0.0000
0.5717 0.6324 0.0000
0.5865 0.6359 0.0000
0.6021 0.6397 0.0000
0.6185 0.6436 0.0016
0.6351 0.6475 0.0119
0.6530 0.6523 0.0162
0.6718 0.6580 0.0138
0.6981 0.6606 0.0000
0.7276 0.6596 0.0000
0.7570 0.6581 0.0000
0.7860 0.6560 0.0000
0.8147 0.6531 0.0000
0.8429 0.6488 0.0000
0.8706 0.6424 0.0000
0.8976 0.6324 0.0000
0.9238 0.6161 0.0000
0.9479 0.5919 0.0362
0.9694 0.5747 0.0150
0.9774 0.6030 0.1586
0.9774 0.6977 0.4042
0.3902 0.6398 0.0000
0.4009 0.6395 0.0000
0.4109 0.6392 0.0000
0.4232 0.6389 0.0000
0.4374 0.6385 0.0000
0.4529 0.6380 0.0000
0.4697 0.6374 0.0000
0.4874 0.6367 0.0000
0.5059 0.6358 0.0000
0.5158 0.6384 0.0000
0.5256 0.6414 0.0000
0.5360 0.6445 0.0000
0.5473 0.6477 0.0000
0.5593 0.6510 0.0000
0.5721 0.6545 0.0000
0.5855 0.6581 0.0000
0.6000 0.6619 0.0000
0.6155 0.6660 0.0000
0.6316 0.6703 0.0000
0.6482 0.6746 0.0024
0.6649 0.6789 0.0128
0.6827 0.6839 0.0175
0.7013 0.6897 0.0147
0.7274 0.6925 0.0000
0.7565 0.6918 0.0000
0.7856 0.6905 0.0000
0.8141 0.6886 0.0000
0.8422 0.6858 0.0000
0.8697 0.6814 0.0000
0.8967 0.6744 0.0000
0.9228 0.6626 0.0000
0.9480 0.6419 0.0000
0.9703 0.6111 0.0715
0.9774 0.6305 0.1831
0.9774 0.7157 0.4291
0.4083 0.6657 0.0000
0.4185 0.6657 0.0000
0.4282 0.6656 0.0000
0.4401 0.6654 0.0000
0.4538 0.6653 0.0000
0.4688 0.6651 0.0000
0.4850 0.6648 0.0000
0.5021 0.6644 0.0000
0.5199 0.6640 0.0000
0.5350 0.6648 0.0000
0.5446 0.6678 0.0000
0.5547 0.6711 0.0000
0.5655 0.6745 0.0000
0.5773 0.6780 0.0000
0.5896 0.6818 0.0000
0.6027 0.6855 0.0000
0.6164 0.6895 0.0000
0.6310 0.6934 0.0000
0.6462 0.6976 0.0000
0.6620 0.7019 0.0000
0.6785 0.7063 0.0019
0.6950 0.7107 0.0133
0.7125 0.7157 0.0186
0.7310 0.7217 0.0153
0.7567 0.7246 0.0000
0.7854 0.7241 0.0000
0.8139 0.7230 0.0000
0.8419 0.7213 0.0000
0.8692 0.7185 0.0000
0.8960 0.7138 0.0000
0.9220 0.7057 0.0000
0.9472 0.6909 0.0000
0.9705 0.6644 0.0322
0.9774 0.6596 0.2097
0.9774 0.7371 0.4555
0.4295 0.6938 0.0000
0.4394 0.6938 0.0000
0.4488 0.6939 0.0000
0.4603 0.6940 0.0000
0.4735 0.6941 0.0000
0.4881 0.6941 0.0000
0.5037 0.6942 0.0000
0.5203 0.6943 0.0000
0.5377 0.6944 0.0000
0.5557 0.6943 0.0000
0.5673 0.6966 0.0000
0.5771 0.6999 0.0000
0.5874 0.7033 0.0000
0.5983 0.7067 0.0000
0.6098 0.7102 0.0000
0.6218 0.7139 0.0000
0.6347 0.7176 0.0000
0.6481 0.7215 0.0000
0.6623 0.7254 0.0000
0.6772 0.7295 0.0000
0.6927 0.7338 0.0000
0.7089 0.7383 0.0005
0.7251 0.7427 0.0133
0.7424 0.7478 0.0194
0.7606 0.7538 0.0156
0.7858 0.7568 0.0000
0.8141 0.7564 0.0000
0.8419 0.7555 0.0000
0.8691 0.7539 0.0000
0.8956 0.7510 0.0000
0.9215 0.7457 0.0000
0.9465 0.7355 0.0000
0.9703 0.7150 0.0000
0.9774 0.6957 0.2460
0.9774 0.7618 0.4839
0.4557 0.7245 0.0000
0.4653 0.7247 0.0000
0.4743 0.7249 0.0000
0.4854 0.7252 0.0000
0.4981 0.7255 0.0000
0.5121 0.7257 0.0000
0.5270 0.7260 0.0000
0.5427 0.7262 0.0000
0.5591 0.7264 0.0000
0.5760 0.7266 0.0000
0.5928 0.7268 0.0000
0.6018 0.7298 0.0000
0.6114 0.7329 0.0000
0.6213 0.7362 0.0000
0.6319 0.7395 0.0000
0.6431 0.7428 0.0000
0.6548 0.7464 0.0000
0.6673 0.7499 0.0000
0.6802 0.7537 0.0000
0.6940 0.7575 0.0000
0.7085 0.7615 0.0000
0.7235 0.7658 0.0000
0.7393 0.7703 0.0000
0.7552 0.7747 0.0126
0.7721 0.7798 0.0198
