public/luts/maracuja.cube
#Created by: Pixelmator Pro
#Color profile: "Display P3"
TITLE "maracujá"
#Data domain
DOMAIN_MIN 0.0000 0.0000 0.0000
DOMAIN_MAX 1.0000 1.0000 1.0000
#LUT size
LUT_3D_SIZE 35
0.0000 0.0000 0.0000
0.0000 0.0000 0.0000
0.0000 0.0000 0.0000
0.0000 0.0000 0.0000
0.0000 0.0000 0.0000
0.0232 0.0000 0.0016
0.0526 0.0000 0.0035
0.0796 0.0000 0.0058
0.1058 0.0000 0.0083
0.1323 0.0000 0.0113
0.1599 0.0000 0.0146
0.1892 0.0000 0.0182
0.2205 0.0000 0.0221
0.2542 0.0000 0.0262
0.2902 0.0001 0.0303
0.3285 0.0001 0.0342
0.3690 0.0001 0.0377
0.4112 0.0001 0.0405
0.4549 0.0001 0.0424
0.4997 0.0001 0.0432
0.5448 0.0001 0.0425
0.5897 0.0001 0.0404
0.6339 0.0001 0.0368
0.6765 0.0000 0.0319
0.7172 0.0000 0.0258
0.7553 0.0000 0.0191
0.7904 0.0000 0.0124
0.8227 0.0000 0.0064
0.8522 0.0000 0.0019
0.8789 0.0000 0.0000
0.9035 0.0052 0.0000
0.9271 0.0236 0.0000
0.9498 0.0536 0.0000
0.9719 0.0842 0.0000
0.9935 0.1139 0.0000
0.0000 0.0000 0.0000
0.0000 0.0000 0.0000
0.0000 0.0000 0.0000
0.0000 0.0000 0.0000
0.0114 0.0013 0.0000
0.0364 0.0021 0.0000
0.0641 0.0020 0.0000
0.0904 0.0011 0.0000
0.1163 0.0000 0.0004
0.1419 0.0000 0.0024
0.1689 0.0000 0.0048
0.1977 0.0000 0.0074
0.2288 0.0000 0.0103
0.2622 0.0001 0.0131
0.2981 0.0001 0.0159
0.3361 0.0001 0.0185
0.3763 0.0001 0.0205
0.4184 0.0001 0.0217
0.4618 0.0001 0.0220
0.5062 0.0001 0.0211
0.5509 0.0001 0.0189
0.5955 0.0001 0.0151
0.6392 0.0001 0.0100
0.6814 0.0000 0.0037
0.7211 0.0035 0.0000
0.7579 0.0106 0.0000
0.7921 0.0175 0.0000
0.8235 0.0235 0.0000
0.8525 0.0277 0.0000
0.8789 0.0294 0.0000
0.9035 0.0353 0.0000
0.9270 0.0529 0.0000
0.9498 0.0759 0.0000
0.9718 0.1011 0.0000
0.9934 0.1272 0.0000
0.0000 0.0000 0.0000
0.0000 0.0000 0.0000
0.0000 0.0000 0.0000
0.0051 0.0028 0.0000
0.0203 0.0066 0.0000
0.0437 0.0089 0.0000
0.0687 0.0101 0.0000
0.0937 0.0105 0.0000
0.1193 0.0102 0.0000
0.1459 0.0094 0.0000
0.1739 0.0082 0.0000
0.2038 0.0067 0.0000
0.2357 0.0051 0.0000
0.2698 0.0036 0.0001
0.3060 0.0022 0.0001
0.3443 0.0012 0.0001
0.3844 0.0007 0.0001
0.4260 0.0010 0.0001
0.4688 0.0023 0.0001
0.5123 0.0048 0.0001
0.5560 0.0084 0.0001
0.5994 0.0133 0.0001
0.6418 0.0194 0.0001
0.6829 0.0265 0.0000
0.7219 0.0342 0.0000
0.7585 0.0421 0.0000
0.7925 0.0489 0.0000
0.8238 0.0542 0.0000
0.8526 0.0576 0.0000
0.8789 0.0588 0.0000
0.9034 0.0638 0.0000
0.9269 0.0770 0.0000
0.9497 0.0954 0.0000
0.9717 0.1171 0.0000
0.9933 0.1405 0.0000
0.0000 0.0000 0.0000
0.0007 0.0036 0.0000
0.0044 0.0087 0.0000
0.0130 0.0137 0.0000
0.0284 0.0179 0.0000
0.0504 0.0212 0.0000
0.0736 0.0236 0.0000
0.0976 0.0253 0.0000
0.1226 0.0263 0.0000
0.1489 0.0269 0.0000
0.1768 0.0272 0.0000
0.2066 0.0273 0.0000
0.2385 0.0274 0.0000
0.2725 0.0275 0.0001
0.3087 0.0280 0.0001
0.3470 0.0288 0.0001
0.3870 0.0303 0.0001
0.4285 0.0326 0.0001
0.4712 0.0359 0.0001
0.5145 0.0403 0.0001
0.5581 0.0456 0.0001
0.6012 0.0514 0.0001
0.6434 0.0577 0.0001
0.6842 0.0641 0.0000
0.7230 0.0703 0.0000
0.7594 0.0761 0.0000
0.7931 0.0811 0.0000
0.8242 0.0850 0.0000
0.8528 0.0875 0.0000
0.8789 0.0883 0.0000
0.9034 0.0925 0.0000
0.9269 0.1030 0.0000
0.9496 0.1181 0.0000
0.9716 0.1366 0.0000
0.9931 0.1572 0.0000
0.0000 0.0182 0.0014
0.0025 0.0245 0.0000
0.0083 0.0285 0.0000
0.0187 0.0328 0.0000
0.0352 0.0371 0.0000
0.0563 0.0410 0.0000
0.0785 0.0443 0.0000
0.1019 0.0470 0.0000
0.1265 0.0492 0.0000
0.1526 0.0512 0.0000
0.1803 0.0529 0.0000
0.2101 0.0546 0.0000
0.2420 0.0563 0.0000
0.2761 0.0582 0.0001
0.3123 0.0603 0.0001
0.3505 0.0628 0.0001
0.3904 0.0657 0.0001
0.4318 0.0690 0.0001
0.4743 0.0729 0.0001
0.5174 0.0773 0.0001
0.5607 0.0822 0.0001
0.6036 0.0874 0.0001
0.6455 0.0927 0.0001
0.6859 0.0981 0.0000
0.7244 0.1033 0.0000
0.7604 0.1080 0.0000
0.7938 0.1121 0.0000
0.8247 0.1153 0.0000
0.8530 0.1172 0.0000
0.8789 0.1178 0.0000
0.9033 0.1217 0.0000
0.9267 0.1304 0.0000
0.9494 0.1430 0.0000
0.9714 0.1589 0.0000
0.9929 0.1770 0.0000
0.0000 0.0463 0.0033
0.0028 0.0528 0.0000
0.0105 0.0555 0.0000
0.0226 0.0586 0.0000
0.0406 0.0618 0.0000
0.0614 0.0651 0.0000
0.0832 0.0681 0.0000
0.1063 0.0710 0.0000
0.1308 0.0738 0.0000
0.1568 0.0764 0.0000
0.1846 0.0791 0.0000
0.2144 0.0817 0.0000
0.2464 0.0844 0.0001
0.2805 0.0873 0.0001
0.3167 0.0905 0.0001
0.3548 0.0938 0.0001
0.3946 0.0975 0.0001
0.4359 0.1015 0.0001
0.4782 0.1059 0.0001
0.5210 0.1105 0.0001
0.5640 0.1153 0.0001
0.6065 0.1204 0.0001
0.6480 0.1254 0.0000
0.6880 0.1303 0.0000
0.7260 0.1350 0.0000
0.7617 0.1392 0.0000
0.7947 0.1427 0.0000
0.8252 0.1453 0.0000
0.8532 0.1468 0.0000
0.8788 0.1474 0.0000
0.9032 0.1511 0.0000
0.9265 0.1586 0.0000
0.9492 0.1694 0.0000
0.9711 0.1832 0.0000
0.9926 0.1992 0.0000
0.0000 0.0748 0.0055
0.0023 0.0808 0.0000
0.0114 0.0826 0.0000
0.0252 0.0848 0.0000
0.0446 0.0874 0.0000
0.0657 0.0902 0.0000
0.0877 0.0931 0.0000
0.1109 0.0961 0.0000
0.1354 0.0991 0.0000
0.1615 0.1022 0.0000
0.1894 0.1054 0.0000
0.2194 0.1088 0.0001
0.2514 0.1122 0.0001
0.2856 0.1159 0.0001
0.3218 0.1197 0.0001
0.3599 0.1238 0.0001
0.3996 0.1281 0.0001
0.4407 0.1326 0.0001
0.4827 0.1373 0.0001
0.5253 0.1422 0.0001
0.5678 0.1472 0.0001
0.6099 0.1522 0.0001
0.6509 0.1571 0.0000
0.6904 0.1618 0.0000
0.7280 0.1661 0.0000
0.7631 0.1699 0.0000
0.7957 0.1730 0.0000
0.8258 0.1752 0.0000
0.8534 0.1764 0.0000
0.8788 0.1771 0.0000
0.9030 0.1807 0.0000
0.9263 0.1874 0.0000
0.9489 0.1969 0.0000
0.9708 0.2090 0.0000
0.9923 0.2232 0.0000
0.0000 0.1024 0.0081
0.0012 0.1085 0.0000
0.0116 0.1099 0.0000
0.0270 0.1117 0.0000
0.0479 0.1139 0.0000
0.0696 0.1165 0.0000
0.0920 0.1193 0.0000
0.1155 0.1223 0.0000
0.1403 0.1256 0.0000
0.1667 0.1290 0.0000
0.1948 0.1326 0.0000
0.2250 0.1364 0.0001
0.2572 0.1404 0.0001
0.2915 0.1447 0.0001
0.3277 0.1491 0.0001
0.3658 0.1536 0.0001
0.4054 0.1584 0.0001
0.4462 0.1633 0.0001
0.4879 0.1684 0.0001
0.5301 0.1735 0.0001
0.5722 0.1786 0.0001
0.6137 0.1836 0.0001
0.6542 0.1884 0.0000
0.6932 0.1929 0.0000
0.7301 0.1970 0.0000
0.7647 0.2005 0.0000
0.7968 0.2033 0.0000
0.8264 0.2051 0.0000
0.8535 0.2059 0.0000
0.8787 0.2069 0.0000
0.9028 0.2104 0.0000
0.9260 0.2165 0.0000
0.9486 0.2250 0.0000
0.9705 0.2358 0.0000
0.9919 0.2484 0.0000
0.0000 0.1305 0.0111
0.0000 0.1366 0.0005
0.0113 0.1380 0.0000
0.0284 0.1396 0.0000
0.0506 0.1416 0.0000
0.0732 0.1440 0.0000
0.0963 0.1468 0.0000
0.1203 0.1499 0.0000
0.1455 0.1533 0.0000
0.1722 0.1570 0.0001
0.2007 0.1609 0.0001
0.2311 0.1651 0.0001
0.2636 0.1695 0.0001
0.2980 0.1741 0.0001
0.3343 0.1789 0.0001
0.3723 0.1839 0.0001
0.4117 0.1890 0.0001
0.4523 0.1942 0.0001
0.4937 0.1995 0.0001
0.5354 0.2047 0.0001
0.5770 0.2099 0.0001
0.6179 0.2149 0.0001
0.6578 0.2196 0.0000
0.6961 0.2240 0.0000
0.7324 0.2278 0.0000
0.7664 0.2310 0.0000
0.7979 0.2334 0.0000
0.8269 0.2349 0.0000
0.8535 0.2353 0.0000
0.8785 0.2367 0.0000
0.9025 0.2403 0.0000
0.9257 0.2459 0.0000
0.9482 0.2536 0.0000
0.9700 0.2633 0.0000
0.9914 0.2747 0.0000
0.0000 0.1596 0.0144
0.0000 0.1652 0.0027
0.0106 0.1672 0.0000
0.0294 0.1687 0.0000
0.0532 0.1706 0.0000
0.0767 0.1730 0.0000
0.1006 0.1758 0.0000
0.1252 0.1789 0.0000
0.1509 0.1824 0.0001
0.1781 0.1862 0.0001
0.2070 0.1904 0.0001
0.2378 0.1948 0.0001
0.2705 0.1995 0.0001
0.3051 0.2044 0.0001
0.3415 0.2095 0.0001
0.3794 0.2147 0.0001
0.4187 0.2201 0.0001
0.4590 0.2255 0.0001
0.4999 0.2309 0.0001
0.5411 0.2362 0.0001
0.5821 0.2414 0.0001
0.6224 0.2463 0.0000
0.6616 0.2509 0.0000
0.6992 0.2550 0.0000
0.7348 0.2586 0.0000
0.7681 0.2614 0.0000
0.7989 0.2635 0.0000
0.8273 0.2646 0.0000
0.8534 0.2649 0.0000
0.8783 0.2667 0.0000
0.9022 0.2702 0.0000
0.9253 0.2754 0.0000
0.9477 0.2826 0.0000
0.9695 0.2914 0.0000
0.9909 0.3017 0.0000
0.0000 0.1901 0.0181
0.0000 0.1953 0.0051
0.0098 0.1978 0.0000
0.0304 0.1993 0.0000
0.0557 0.2012 0.0000
0.0803 0.2035 0.0001
0.1049 0.2062 0.0001
0.1302 0.2094 0.0001
0.1566 0.2130 0.0001
0.1843 0.2169 0.0001
0.2137 0.2212 0.0001
0.2449 0.2257 0.0001
0.2779 0.2306 0.0001
0.3127 0.2357 0.0001
0.3491 0.2409 0.0001
0.3870 0.2463 0.0001
0.4260 0.2518 0.0001
0.4660 0.2573 0.0001
0.5065 0.2627 0.0001
0.5472 0.2680 0.0001
0.5875 0.2731 0.0001
0.6271 0.2779 0.0000
0.6655 0.2823 0.0000
0.7023 0.2861 0.0000
0.7371 0.2893 0.0000
0.7696 0.2918 0.0000
0.7997 0.2935 0.0000
0.8275 0.2941 0.0000
0.8533 0.2947 0.0000
0.8780 0.2967 0.0000
0.9018 0.3002 0.0000
0.9249 0.3052 0.0000
0.9472 0.3118 0.0000
0.9690 0.3198 0.0000
0.9903 0.3292 0.0000
0.0001 0.2223 0.0219
0.0001 0.2271 0.0075
0.0090 0.2300 0.0001
0.0315 0.2314 0.0001
0.0583 0.2332 0.0001
0.0840 0.2355 0.0001
0.1095 0.2383 0.0001
0.1355 0.2414 0.0001
0.1625 0.2450 0.0001
0.1909 0.2490 0.0001
0.2208 0.2533 0.0001
0.2524 0.2579 0.0001
0.2857 0.2629 0.0001
0.3206 0.2680 0.0001
0.3571 0.2733 0.0001
0.3948 0.2787 0.0001
0.4337 0.2842 0.0001
0.4733 0.2897 0.0001
0.5133 0.2950 0.0001
0.5533 0.3002 0.0001
0.5930 0.3051 0.0000
0.6318 0.3097 0.0000
0.6694 0.3137 0.0000
0.7054 0.3173 0.0000
0.7394 0.3201 0.0000
0.7711 0.3221 0.0000
0.8004 0.3233 0.0000
0.8274 0.3236 0.0000
0.8531 0.3246 0.0000
0.8777 0.3268 0.0000
0.9014 0.3302 0.0000
0.9243 0.3350 0.0000
0.9466 0.3411 0.0000
0.9683 0.3486 0.0000
0.9897 0.3572 0.0000
0.0001 0.2560 0.0256
0.0001 0.2606 0.0097
0.0085 0.2636 0.0001
0.0329 0.2650 0.0001
0.0612 0.2668 0.0001
0.0878 0.2691 0.0001
0.1142 0.2718 0.0001
0.1410 0.2749 0.0001
0.1687 0.2785 0.0001
0.1976 0.2824 0.0001
0.2281 0.2867 0.0001
0.2601 0.2913 0.0001
0.2937 0.2962 0.0001
0.3288 0.3013 0.0001
0.3653 0.3066 0.0001
0.4029 0.3119 0.0001
0.4415 0.3173 0.0001
0.4807 0.3226 0.0001
0.5201 0.3278 0.0001
0.5595 0.3327 0.0000
0.5984 0.3374 0.0000
0.6364 0.3416 0.0000
0.6732 0.3453 0.0000
0.7082 0.3484 0.0000
0.7413 0.3507 0.0000
0.7722 0.3523 0.0000
0.8007 0.3529 0.0000
0.8273 0.3533 0.0000
0.8528 0.3546 0.0000
0.8773 0.3569 0.0000
0.9009 0.3603 0.0000
0.9237 0.3649 0.0000
0.9459 0.3707 0.0000
0.9677 0.3775 0.0000
0.9890 0.3855 0.0000
0.0001 0.2914 0.0290
0.0001 0.2957 0.0115
0.0084 0.2988 0.0001
0.0348 0.3002 0.0001
0.0644 0.3019 0.0001
0.0919 0.3041 0.0001
0.1191 0.3068 0.0001
0.1466 0.3098 0.0001
0.1750 0.3133 0.0001
0.2046 0.3171 0.0001
0.2355 0.3213 0.0001
0.2680 0.3259 0.0001
0.3019 0.3306 0.0001
0.3371 0.3356 0.0001
0.3735 0.3407 0.0001
0.4110 0.3458 0.0001
0.4492 0.3510 0.0001
0.4880 0.3560 0.0001
0.5269 0.3609 0.0000
0.5655 0.3655 0.0000
0.6036 0.3698 0.0000
0.6408 0.3736 0.0000
0.6766 0.3768 0.0000
0.7107 0.3794 0.0000
0.7429 0.3812 0.0000
0.7729 0.3822 0.0000
0.8007 0.3824 0.0000
0.8271 0.3831 0.0000
0.8524 0.3847 0.0000
0.8767 0.3871 0.0000
0.9002 0.3904 0.0000
0.9230 0.3948 0.0000
0.9452 0.4002 0.0000
0.9669 0.4067 0.0000
0.9882 0.4140 0.0000
0.0001 0.3283 0.0318
0.0001 0.3324 0.0126
0.0091 0.3353 0.0001
0.0375 0.3366 0.0001
0.0680 0.3383 0.0001
0.0964 0.3404 0.0001
0.1242 0.3430 0.0001
0.1525 0.3459 0.0001
0.1815 0.3493 0.0001
0.2116 0.3530 0.0001
0.2431 0.3570 0.0001
0.2759 0.3613 0.0001
0.3100 0.3659 0.0001
0.3453 0.3706 0.0001
0.3817 0.3754 0.0001
0.4189 0.3803 0.0001
0.4568 0.3851 0.0001
0.4950 0.3898 0.0001
0.5333 0.3943 0.0000
0.5712 0.3984 0.0000
0.6085 0.4022 0.0000
0.6447 0.4055 0.0000
0.6796 0.4082 0.0000
0.7128 0.4102 0.0000
0.7440 0.4114 0.0000
0.7731 0.4118 0.0000
0.8005 0.4121 0.0000
0.8267 0.4131 0.0000
0.8519 0.4148 0.0000
0.8761 0.4172 0.0000
0.8996 0.4206 0.0000
0.9223 0.4248 0.0000
0.9444 0.4299 0.0000
0.9661 0.4359 0.0000
0.9875 0.4427 0.0000
0.0001 0.3665 0.0336
0.0001 0.3704 0.0125
0.0106 0.3730 0.0001
0.0410 0.3742 0.0001
0.0721 0.3758 0.0001
0.1011 0.3778 0.0001
0.1296 0.3802 0.0001
0.1584 0.3830 0.0001
0.1880 0.3862 0.0001
0.2186 0.3896 0.0001
0.2505 0.3934 0.0001
0.2837 0.3975 0.0001
0.3180 0.4017 0.0001
0.3533 0.4061 0.0001
0.3896 0.4106 0.0001
0.4266 0.4151 0.0001
0.4640 0.4195 0.0000
0.5017 0.4237 0.0000
0.5392 0.4277 0.0000
0.5764 0.4314 0.0000
0.6128 0.4346 0.0000
0.6481 0.4372 0.0000
0.6820 0.4393 0.0000
0.7142 0.4406 0.0000
0.7445 0.4412 0.0000
0.7729 0.4413 0.0000
0.8002 0.4420 0.0000
0.8262 0.4431 0.0000
0.8513 0.4449 0.0000
0.8755 0.4474 0.0000
0.8988 0.4507 0.0000
0.9215 0.4547 0.0000
0.9436 0.4595 0.0000
0.9653 0.4652 0.0000
0.9866 0.4715 0.0000
0.0001 0.4057 0.0340
0.0001 0.4093 0.0112
0.0133 0.4115 0.0001
0.0453 0.4127 0.0001
0.0766 0.4142 0.0001
0.1060 0.4160 0.0001
0.1350 0.4182 0.0001
0.1644 0.4208 0.0001
0.1944 0.4237 0.0001
0.2255 0.4270 0.0001
0.2578 0.4304 0.0001
0.2912 0.4342 0.0001
0.3256 0.4380 0.0001
0.3609 0.4420 0.0001
0.3970 0.4461 0.0001
0.4337 0.4501 0.0000
0.4707 0.4539 0.0000
0.5077 0.4576 0.0000
0.5446 0.4610 0.0000
0.5809 0.4641 0.0000
0.6164 0.4666 0.0000
0.6507 0.4686 0.0000
0.6836 0.4700 0.0000
0.7149 0.4706 0.0000
0.7444 0.4707 0.0000
0.7727 0.4711 0.0000
0.7997 0.4719 0.0000
0.8257 0.4732 0.0000
0.8506 0.4751 0.0000
0.8747 0.4776 0.0000
0.8980 0.4807 0.0000
0.9207 0.4846 0.0000
0.9428 0.4892 0.0000
0.9645 0.4945 0.0000
0.9858 0.5004 0.0000
0.0001 0.4455 0.0330
0.0001 0.4489 0.0084
0.0172 0.4506 0.0001
0.0502 0.4516 0.0001
0.0815 0.4530 0.0001
0.1112 0.4547 0.0001
0.1405 0.4567 0.0001
0.1703 0.4590 0.0001
0.2007 0.4617 0.0001
0.2322 0.4646 0.0001
0.2648 0.4677 0.0001
0.2983 0.4710 0.0001
0.3327 0.4744 0.0001
0.3680 0.4780 0.0000
0.4038 0.4815 0.0000
0.4401 0.4849 0.0000
0.4765 0.4882 0.0000
0.5130 0.4913 0.0000
0.5490 0.4940 0.0000
0.5845 0.4963 0.0000
0.6191 0.4982 0.0000
0.6525 0.4994 0.0000
0.6844 0.5000 0.0000
0.7148 0.5001 0.0000
0.7442 0.5003 0.0000
0.7723 0.5009 0.0000
0.7992 0.5019 0.0000
0.8250 0.5033 0.0000
0.8499 0.5052 0.0000
0.8739 0.5077 0.0000
0.8972 0.5107 0.0000
0.9198 0.5144 0.0000
0.9419 0.5188 0.0000
0.9636 0.5237 0.0000
0.9850 0.5293 0.0000
0.0001 0.4855 0.0304
0.0001 0.4888 0.0041
0.0223 0.4898 0.0001
0.0557 0.4908 0.0001
0.0866 0.4920 0.0001
0.1164 0.4935 0.0001
0.1460 0.4952 0.0001
0.1760 0.4973 0.0001
0.2068 0.4996 0.0001
0.2385 0.5021 0.0001
0.2712 0.5048 0.0001
0.3048 0.5077 0.0000
0.3392 0.5106 0.0000
0.3742 0.5136 0.0000
0.4098 0.5166 0.0000
0.4456 0.5194 0.0000
0.4815 0.5220 0.0000
0.5172 0.5244 0.0000
0.5525 0.5264 0.0000
0.5871 0.5279 0.0000
0.6208 0.5290 0.0000
0.6532 0.5294 0.0000
0.6844 0.5295 0.0000
0.7146 0.5297 0.0000
0.7438 0.5301 0.0000
0.7718 0.5308 0.0000
0.7986 0.5319 0.0000
0.8244 0.5333 0.0000
0.8492 0.5353 0.0000
0.8731 0.5377 0.0000
0.8964 0.5407 0.0000
0.9190 0.5442 0.0000
0.9411 0.5483 0.0000
0.9628 0.5530 0.0000
0.9842 0.5582 0.0000
0.0001 0.5254 0.0262
0.0015 0.5283 0.0001
0.0284 0.5288 0.0001
0.0614 0.5296 0.0001
0.0919 0.5307 0.0001
0.1215 0.5319 0.0001
0.1512 0.5335 0.0001
0.1814 0.5352 0.0001
0.2123 0.5372 0.0000
0.2442 0.5393 0.0000
0.2770 0.5415 0.0000
0.3105 0.5439 0.0000
0.3448 0.5463 0.0000
0.3796 0.5487 0.0000
0.4147 0.5510 0.0000
0.4501 0.5531 0.0000
0.4853 0.5550 0.0000
0.5204 0.5566 0.0000
0.5548 0.5579 0.0000
0.5886 0.5586 0.0000
0.6213 0.5588 0.0000
0.6531 0.5589 0.0000
0.6842 0.5590 0.0000
0.7143 0.5593 0.0000
0.7433 0.5599 0.0000
0.7712 0.5607 0.0000
0.7979 0.5618 0.0000
0.8236 0.5633 0.0000
0.8484 0.5652 0.0000
0.8723 0.5676 0.0000
0.8956 0.5705 0.0000
0.9182 0.5739 0.0000
0.9403 0.5777 0.0000
0.9620 0.5822 0.0000
0.9834 0.5871 0.0000
0.0000 0.5646 0.0207
0.0074 0.5667 0.0000
0.0353 0.5672 0.0000
0.0670 0.5678 0.0000
0.0969 0.5687 0.0000
0.1264 0.5697 0.0000
0.1560 0.5710 0.0000
0.1862 0.5724 0.0000
0.2173 0.5739 0.0000
0.2492 0.5756 0.0000
0.2819 0.5774 0.0000
0.3154 0.5792 0.0000
0.3494 0.5811 0.0000
0.3838 0.5828 0.0000
0.4185 0.5844 0.0000
0.4533 0.5858 0.0000
0.4879 0.5870 0.0000
0.5222 0.5878 0.0000
0.5558 0.5882 0.0000
0.5888 0.5882 0.0000
0.6212 0.5883 0.0000
0.6529 0.5884 0.0000
0.6839 0.5886 0.0000
0.7139 0.5890 0.0000
0.7428 0.5896 0.0000
0.7706 0.5905 0.0000
0.7973 0.5917 0.0000
0.8229 0.5932 0.0000
0.8477 0.5951 0.0000
0.8716 0.5974 0.0000
0.8948 0.6002 0.0000
0.9174 0.6034 0.0000
0.9395 0.6071 0.0000
0.9612 0.6113 0.0000
0.9827 0.6159 0.0000
0.0000 0.6027 0.0145
0.0136 0.6041 0.0000
0.0421 0.6045 0.0000
0.0722 0.6050 0.0000
0.1015 0.6056 0.0000
0.1307 0.6064 0.0000
0.1602 0.6074 0.0000
0.1904 0.6084 0.0000
0.2214 0.6096 0.0000
0.2532 0.6108 0.0000
0.2858 0.6121 0.0000
0.3190 0.6134 0.0000
0.3527 0.6146 0.0000
0.3868 0.6156 0.0000
0.4210 0.6166 0.0000
0.4551 0.6172 0.0000
0.4891 0.6176 0.0000
0.5226 0.6176 0.0000
0.5559 0.6176 0.0000
0.5887 0.6177 0.0000
0.6211 0.6177 0.0000
0.6527 0.6179 0.0000
0.6836 0.6182 0.0000
0.7135 0.6187 0.0000
0.7424 0.6193 0.0000
0.7701 0.6202 0.0000
0.7967 0.6214 0.0000
0.8223 0.6230 0.0000
0.8470 0.6248 0.0000
0.8709 0.6271 0.0000
0.8941 0.6297 0.0000
0.9167 0.6328 0.0000
0.9388 0.6363 0.0000
0.9606 0.6403 0.0000
0.9820 0.6446 0.0000
0.0000 0.6391 0.0084
0.0194 0.6400 0.0000
0.0477 0.6402 0.0000
0.0767 0.6406 0.0000
0.1053 0.6410 0.0000
0.1342 0.6416 0.0000
0.1635 0.6422 0.0000
0.1935 0.6429 0.0000
0.2244 0.6437 0.0000
0.2561 0.6444 0.0000
0.2885 0.6452 0.0000
0.3214 0.6459 0.0000
0.3547 0.6465 0.0000
0.3883 0.6469 0.0000
0.4219 0.6471 0.0000
0.4555 0.6470 0.0000
0.4892 0.6470 0.0000
0.5227 0.6470 0.0000
0.5559 0.6470 0.0000
0.5888 0.6471 0.0000
0.6211 0.6472 0.0000
0.6526 0.6474 0.0000
0.6834 0.6477 0.0000
0.7132 0.6482 0.0000
0.7420 0.6489 0.0000
0.7697 0.6499 0.0000
0.7962 0.6511 0.0000
0.8218 0.6526 0.0000
0.8464 0.6544 0.0000
0.8703 0.6566 0.0000
0.8935 0.6592 0.0000
0.9161 0.6621 0.0000
0.9382 0.6654 0.0000
0.9600 0.6692 0.0000
0.9815 0.6733 0.0000
0.0000 0.6736 0.0033
0.0242 0.6740 0.0000
0.0519 0.6741 0.0000
0.0799 0.6743 0.0000
0.1080 0.6746 0.0000
0.1366 0.6749 0.0000
0.1657 0.6752 0.0000
0.1956 0.6755 0.0000
0.2262 0.6759 0.0000
0.2576 0.6762 0.0000
0.2897 0.6764 0.0000
0.3223 0.6765 0.0000
0.3552 0.6765 0.0000
0.3886 0.6764 0.0000
0.4222 0.6764 0.0000
0.4559 0.6763 0.0000
0.4896 0.6763 0.0000
0.5231 0.6763 0.0000
0.5563 0.6763 0.0000
0.5890 0.6763 0.0000
0.6212 0.6765 0.0000
0.6527 0.6767 0.0000
0.6834 0.6771 0.0000
0.7131 0.6776 0.0000
0.7418 0.6784 0.0000
0.7694 0.6793 0.0000
0.7959 0.6806 0.0000
0.8214 0.6820 0.0000
0.8460 0.6838 0.0000
0.8698 0.6860 0.0000
0.8930 0.6884 0.0000
0.9156 0.6912 0.0000
0.9378 0.6944 0.0000
0.9595 0.6979 0.0000
0.9810 0.7018 0.0000
0.0000 0.7056 0.0003
0.0268 0.7057 0.0000
0.0540 0.7057 0.0000
0.0815 0.7058 0.0000
0.1093 0.7058 0.0000
0.1376 0.7059 0.0000
0.1665 0.7059 0.0000
0.1962 0.7059 0.0000
0.2267 0.7059 0.0000
0.2581 0.7058 0.0000
0.2902 0.7058 0.0000
0.3228 0.7058 0.0000
0.3559 0.7057 0.0000
0.3894 0.7056 0.0000
0.4230 0.7055 0.0000
0.4568 0.7055 0.0000
0.4904 0.7054 0.0000
0.5239 0.7054 0.0000
0.5570 0.7054 0.0000
0.5896 0.7055 0.0000
0.6217 0.7057 0.0000
0.6531 0.7059 0.0000
0.6836 0.7064 0.0000
0.7132 0.7069 0.0000
0.7418 0.7077 0.0000
0.7693 0.7087 0.0000
0.7957 0.7099 0.0000
0.8211 0.7113 0.0000
0.8457 0.7131 0.0000
0.8695 0.7152 0.0000
0.8927 0.7175 0.0000
0.9153 0.7202 0.0000
0.9374 0.7232 0.0000
0.9592 0.7266 0.0000
0.9808 0.7303 0.0000
0.0021 0.7352 0.0000
0.0293 0.7352 0.0000
0.0561 0.7352 0.0000
0.0832 0.7352 0.0000
0.1109 0.7352 0.0000
0.1391 0.7351 0.0000
0.1681 0.7351 0.0000
0.1979 0.7351 0.0000
0.2285 0.7350 0.0000
0.2599 0.7349 0.0000
0.2920 0.7348 0.0000
0.3247 0.7348 0.0000
0.3578 0.7347 0.0000
0.3912 0.7346 0.0000
0.4247 0.7345 0.0000
0.4584 0.7344 0.0000
0.4919 0.7344 0.0000
0.5252 0.7343 0.0000
0.5582 0.7344 0.0000
0.5907 0.7345 0.0000
0.6226 0.7347 0.0000
0.6538 0.7350 0.0000
0.6841 0.7354 0.0000
0.7136 0.7360 0.0000
0.7421 0.7368 0.0000
