public/luts/maracuja.cube
#Created by: Pixelmator Pro
#Color profile: "Display P3"
TITLE "maracujá"
#Data domain
#LUT size
LUT_3D_SIZE 7
DOMAIN_MIN 0.000000 0.000000 0.000000
DOMAIN_MAX 0.882353 0.882353 0.882353
0.0000 0.0000 0.0000
0.0232 0.0000 0.0016
0.1599 0.0000 0.0146
0.3285 0.0001 0.0342
0.5448 0.0001 0.0425
0.7553 0.0000 0.0191
0.9035 0.0052 0.0000
0.0000 0.0463 0.0033
0.0614 0.0651 0.0000
0.1846 0.0791 0.0000
0.3548 0.0938 0.0001
0.5640 0.1153 0.0001
0.7617 0.1392 0.0000
0.9032 0.1511 0.0000
0.0000 0.1901 0.0181
0.0803 0.2035 0.0001
0.2137 0.2212 0.0001
0.3870 0.2463 0.0001
0.5875 0.2731 0.0001
0.7696 0.2918 0.0000
0.9018 0.3002 0.0000
0.0001 0.3665 0.0336
0.1011 0.3778 0.0001
0.2505 0.3934 0.0001
0.4266 0.4151 0.0001
0.6128 0.4346 0.0000
0.7729 0.4413 0.0000
0.8988 0.4507 0.0000
0.0000 0.5646 0.0207
0.1264 0.5697 0.0000
0.2819 0.5774 0.0000
0.4533 0.5858 0.0000
0.6212 0.5883 0.0000
0.7706 0.5905 0.0000
0.8948 0.6002 0.0000
0.0021 0.7352 0.0000
0.1391 0.7351 0.0000
0.2920 0.7348 0.0000
0.4584 0.7344 0.0000
0.6226 0.7347 0.0000
0.7695 0.7378 0.0000
0.8926 0.7465 0.0000
0.1257 0.8766 0.0000
0.1983 0.8765 0.0000
0.3273 0.8762 0.0000
0.4803 0.8761 0.0000
0.6349 0.8773 0.0000
0.7754 0.8810 0.0000
0.8955 0.8889 0.0000
0.0001 0.0000 0.0133
0.0499 0.0000 0.0613
0.1697 0.0000 0.0959
0.3377 0.0001 0.1271
0.5518 0.0001 0.1503
0.7581 0.0000 0.1571
0.9038 0.0029 0.1535
0.0000 0.0614 0.0714
0.0670 0.0701 0.0864
0.1984 0.0735 0.0966
0.3711 0.0800 0.1098
0.5774 0.0979 0.1239
0.7661 0.1330 0.1457
0.9038 0.1491 0.1513
0.0001 0.1974 0.1083
0.0737 0.2138 0.1008
0.2205 0.2275 0.1078
0.3982 0.2480 0.1175
0.5963 0.2717 0.1322
0.7713 0.2917 0.1525
0.9039 0.2971 0.1414
0.0001 0.3724 0.1403
0.0858 0.3881 0.1169
0.2508 0.4012 0.1219
0.4313 0.4193 0.1318
0.6156 0.4358 0.1477
0.7731 0.4414 0.1541
0.9041 0.4468 0.1052
0.0000 0.5677 0.1555
0.1165 0.5749 0.1394
0.2808 0.5807 0.1451
0.4539 0.5869 0.1533
0.6213 0.5885 0.1532
0.7734 0.5912 0.1198
0.9026 0.5988 0.0000
0.0003 0.7354 0.1542
0.1378 0.7355 0.1530
0.2901 0.7358 0.1480
0.4561 0.7368 0.1321
0.6223 0.7392 0.0826
0.7731 0.7421 0.0000
0.8972 0.7487 0.0000
0.0176 0.8866 0.0304
0.1444 0.8869 0.0115
0.2996 0.8862 0.0000
0.4680 0.8847 0.0000
0.6312 0.8841 0.0000
0.7760 0.8861 0.0000
0.8979 0.8924 0.0000
0.0022 0.0000 0.1717
0.0729 0.0000 0.1869
0.1915 0.0001 0.2164
0.3601 0.0001 0.2526
0.5685 0.0001 0.2844
0.7644 0.0000 0.3015
0.9038 0.0078 0.3013
0.0000 0.0795 0.1949
0.0708 0.0729 0.2204
0.2111 0.0762 0.2371
0.3870 0.0840 0.2603
0.5887 0.1054 0.2830
0.7694 0.1389 0.3004
0.9038 0.1512 0.2999
0.0001 0.2146 0.2322
0.0770 0.2251 0.2441
0.2309 0.2373 0.2567
0.4102 0.2558 0.2739
0.6039 0.2774 0.2914
0.7726 0.2935 0.3034
0.9039 0.2986 0.2946
0.0001 0.3869 0.2727
0.0908 0.3989 0.2729
0.2581 0.4101 0.2803
0.4381 0.4254 0.2910
0.6185 0.4385 0.3014
0.7731 0.4418 0.3018
0.9042 0.4483 0.2792
0.0000 0.5748 0.2989
0.1229 0.5798 0.2967
0.2846 0.5842 0.3001
0.4552 0.5880 0.3036
0.6214 0.5888 0.3012
0.7736 0.5921 0.2848
0.9048 0.5998 0.2407
0.0010 0.7356 0.3019
0.1381 0.7357 0.3010
0.2903 0.7362 0.2981
0.4564 0.7374 0.2901
0.6225 0.7401 0.2717
0.7747 0.7450 0.2319
0.9059 0.7528 0.1377
0.0208 0.8874 0.2595
0.1456 0.8878 0.2558
0.2948 0.8888 0.2449
0.4598 0.8909 0.2215
0.6253 0.8943 0.1729
0.7769 0.8996 0.0268
0.9041 0.9019 0.0000
0.0055 0.0001 0.3241
0.0944 0.0001 0.3353
0.2218 0.0001 0.3612
0.3928 0.0001 0.3962
0.5918 0.0000 0.4278
0.7712 0.0000 0.4441
0.9039 0.0216 0.4410
0.0001 0.0984 0.3425
0.0770 0.0779 0.3687
0.2308 0.0822 0.3866
0.4102 0.0942 0.4108
0.6039 0.1197 0.4328
0.7726 0.1459 0.4447
0.9039 0.1565 0.4397
0.0001 0.2393 0.3769
0.0837 0.2426 0.3940
0.2470 0.2527 0.4071
0.4275 0.2683 0.4244
0.6137 0.2859 0.4395
0.7731 0.2943 0.4449
0.9041 0.3021 0.4353
0.0001 0.4077 0.4168
0.1019 0.4148 0.4234
0.2698 0.4231 0.4305
0.4475 0.4339 0.4393
0.6211 0.4410 0.4450
0.7732 0.4431 0.4414
0.9044 0.4513 0.4246
0.0000 0.5836 0.4422
0.1323 0.5857 0.4430
0.2890 0.5877 0.4446
0.4555 0.5883 0.4448
0.6216 0.5898 0.4408
0.7738 0.5941 0.4283
0.9051 0.6026 0.4017
0.0031 0.7363 0.4414
0.1390 0.7365 0.4407
0.2909 0.7372 0.4381
0.4569 0.7387 0.4320
0.6230 0.7418 0.4198
0.7751 0.7472 0.3970
0.9062 0.7554 0.3577
0.0273 0.8889 0.4123
0.1478 0.8893 0.4102
0.2961 0.8905 0.4040
0.4607 0.8927 0.3917
0.6260 0.8963 0.3701
0.7773 0.9017 0.3345
0.9078 0.9088 0.2768
0.0082 0.0001 0.4976
0.1153 0.0001 0.5064
0.2542 0.0001 0.5271
0.4269 0.0001 0.5548
0.6129 0.0000 0.5778
0.7731 0.0015 0.5844
0.9041 0.0532 0.5773
0.0001 0.1186 0.5122
0.0880 0.0898 0.5347
0.2543 0.0978 0.5489
0.4346 0.1148 0.5671
0.6171 0.1385 0.5813
0.7731 0.1483 0.5841
0.9042 0.1678 0.5760
0.0001 0.2659 0.5397
0.0984 0.2638 0.5546
0.2666 0.2716 0.5644
0.4451 0.2833 0.5764
0.6207 0.2934 0.5841
0.7732 0.2965 0.5826
0.9043 0.3089 0.5718
0.0000 0.4285 0.5704
0.1203 0.4310 0.5758
0.2831 0.4357 0.5801
0.4548 0.4405 0.5841
0.6213 0.4418 0.5838
0.7735 0.4461 0.5778
0.9047 0.4567 0.5627
0.0000 0.5882 0.5846
0.1376 0.5882 0.5845
0.2899 0.5885 0.5841
0.4559 0.5894 0.5823
0.6220 0.5920 0.5771
0.7743 0.5976 0.5658
0.9055 0.6073 0.5452
0.0084 0.7379 0.5778
0.1410 0.7382 0.5770
0.2922 0.7392 0.5744
0.4579 0.7412 0.5689
0.6238 0.7449 0.5588
0.7758 0.7508 0.5418
0.9067 0.7595 0.5155
0.0381 0.8915 0.5531
0.1516 0.8920 0.5515
0.2983 0.8933 0.5469
0.4622 0.8957 0.5381
0.6270 0.8995 0.5235
0.7781 0.9050 0.5016
0.9083 0.9119 0.4714
0.0063 0.0001 0.6873
0.1308 0.0001 0.6930
0.2795 0.0000 0.7058
0.4505 0.0000 0.7208
0.6213 0.0001 0.7276
0.7733 0.0268 0.7248
0.9045 0.0952 0.7151
0.0001 0.1365 0.6964
0.1116 0.1176 0.7093
0.2774 0.1270 0.7169
0.4523 0.1407 0.7250
0.6213 0.1474 0.7275
0.7734 0.1584 0.7241
0.9046 0.1873 0.7137
0.0000 0.2867 0.7128
0.1233 0.2848 0.7197
0.2848 0.2893 0.7240
0.4553 0.2939 0.7274
0.6214 0.2955 0.7267
0.7736 0.3033 0.7216
0.9048 0.3204 0.7095
0.0000 0.4405 0.7266
0.1370 0.4409 0.7274
0.2898 0.4412 0.7276
0.4557 0.4420 0.7268
0.6218 0.4450 0.7235
0.7741 0.4523 0.7156
0.9053 0.4652 0.7009
0.0027 0.5893 0.7259
0.1388 0.5896 0.7255
0.2908 0.5904 0.7242
0.4568 0.5925 0.7211
0.6229 0.5965 0.7149
0.7750 0.6034 0.7037
0.9061 0.6142 0.6858
0.0189 0.7411 0.7157
0.1449 0.7415 0.7147
0.2944 0.7428 0.7120
0.4595 0.7454 0.7067
0.6251 0.7497 0.6974
0.7767 0.7562 0.6831
0.9074 0.7651 0.6626
0.0528 0.8955 0.6925
0.1571 0.8960 0.6911
0.3015 0.8974 0.6872
0.4644 0.9000 0.6800
0.6285 0.9040 0.6686
0.7790 0.9094 0.6525
0.9089 0.9159 0.6326
0.0008 0.0000 0.8737
0.1373 0.0000 0.8751
0.2897 0.0000 0.8773
0.4556 0.0039 0.8771
0.6217 0.0298 0.8749
0.7739 0.0835 0.8690
0.9052 0.1426 0.8575
0.0000 0.1466 0.8758
0.1366 0.1460 0.8770
0.2898 0.1471 0.8774
0.4557 0.1495 0.8768
0.6218 0.1594 0.8742
0.7740 0.1813 0.8679
0.9053 0.2157 0.8560
0.0000 0.2941 0.8774
0.1377 0.2943 0.8773
0.2899 0.2949 0.8770
0.4559 0.2974 0.8756
0.6221 0.3039 0.8721
0.7744 0.3169 0.8647
0.9056 0.3378 0.8518
0.0026 0.4427 0.8761
0.1388 0.4431 0.8757
0.2908 0.4443 0.8747
0.4567 0.4471 0.8722
0.6229 0.4528 0.8671
0.7750 0.4626 0.8581
0.9061 0.4775 0.8437
0.0130 0.5936 0.8707
0.1427 0.5941 0.8700
0.2932 0.5956 0.8681
0.4586 0.5986 0.8642
0.6244 0.6039 0.8573
0.7762 0.6121 0.8463
0.9070 0.6236 0.8303
0.0373 0.7466 0.8581
0.1513 0.7472 0.8571
0.2981 0.7488 0.8544
0.4621 0.7518 0.8491
0.6269 0.7566 0.8405
0.7780 0.7634 0.8280
0.9083 0.7721 0.8115
0.0697 0.9012 0.8361
0.1648 0.9017 0.8349
0.3060 0.9032 0.8315
0.4673 0.9058 0.8254
0.6305 0.9097 0.8162
0.7803 0.9148 0.8040
0.9096 0.9202 0.7908
