public/luts/maracuja.cube
#Created by: Pixelmator Pro
#Color profile: "Display P3"
TITLE "maracujá"
#Data domain
#LUT size
LUT_3D_SIZE 5
DOMAIN_MIN 0.000000 0.000000 0.000000
DOMAIN_MAX 0.823529 0.823529 0.823529
0.0000 0.0000 0.0000
0.0796 0.0000 0.0058
0.2902 0.0001 0.0303
0.5897 0.0001 0.0404
0.8522 0.0000 0.0019
0.0000 0.1024 0.0081
0.1155 0.1223 0.0000
0.3277 0.1491 0.0001
0.6137 0.1836 0.0001
0.8535 0.2059 0.0000
0.0001 0.3283 0.0318
0.1525 0.3459 0.0001
0.3817 0.3754 0.0001
0.6447 0.4055 0.0000
0.8519 0.4148 0.0000
0.0000 0.6027 0.0145
0.1904 0.6084 0.0000
0.4210 0.6166 0.0000
0.6527 0.6179 0.0000
0.8470 0.6248 0.0000
0.0698 0.8210 0.0000
0.2190 0.8206 0.0000
0.4360 0.8200 0.0000
0.6586 0.8211 0.0000
0.8470 0.8285 0.0000
0.0008 0.0000 0.0833
0.1020 0.0000 0.1212
0.3069 0.0001 0.1681
0.6009 0.0001 0.2063
0.8532 0.0000 0.2161
0.0000 0.1178 0.1322
0.1240 0.1304 0.1498
0.3468 0.1478 0.1714
0.6271 0.1783 0.1965
0.8535 0.2060 0.2159
0.0001 0.3397 0.1850
0.1491 0.3592 0.1790
0.3901 0.3828 0.1921
0.6487 0.4073 0.2111
0.8536 0.4140 0.2055
0.0000 0.6069 0.2145
0.1886 0.6126 0.2103
0.4216 0.6174 0.2157
0.6534 0.6188 0.2067
0.8544 0.6257 0.1358
0.0080 0.8257 0.1901
0.1988 0.8262 0.1830
0.4242 0.8281 0.1545
0.6557 0.8325 0.0356
0.8521 0.8355 0.0000
0.0048 0.0001 0.2921
0.1356 0.0001 0.3127
0.3482 0.0001 0.3588
0.6269 0.0000 0.4035
0.8535 0.0022 0.4167
0.0001 0.1467 0.3234
0.1386 0.1448 0.3518
0.3736 0.1611 0.3805
0.6416 0.1908 0.4088
0.8536 0.2078 0.4155
0.0001 0.3676 0.3795
0.1616 0.3792 0.3904
0.4050 0.3963 0.4049
0.6528 0.4113 0.4168
0.8538 0.4164 0.4079
0.0000 0.6152 0.4158
0.1950 0.6170 0.4166
0.4220 0.6178 0.4167
0.6537 0.6202 0.4086
0.8547 0.6285 0.3793
0.0133 0.8270 0.4001
0.2003 0.8277 0.3969
0.4251 0.8299 0.3856
0.6563 0.8348 0.3583
0.8567 0.8436 0.2994
0.0083 0.0001 0.5346
0.1714 0.0001 0.5493
0.3964 0.0001 0.5827
0.6504 0.0000 0.6105
0.8537 0.0302 0.6089
0.0001 0.1801 0.5572
0.1622 0.1697 0.5797
0.4056 0.1858 0.5990
0.6529 0.2053 0.6125
0.8538 0.2165 0.6071
0.0000 0.3991 0.5969
0.1837 0.4027 0.6048
0.4202 0.4102 0.6115
0.6533 0.4128 0.6115
0.8542 0.4229 0.5993
0.0007 0.6179 0.6122
0.1965 0.6182 0.6117
0.4226 0.6196 0.6089
0.6544 0.6241 0.5999
0.8553 0.6344 0.5782
0.0258 0.8303 0.5929
0.2037 0.8311 0.5905
0.4270 0.8338 0.5824
0.6576 0.8393 0.5651
0.8575 0.8486 0.5340
0.0029 0.0000 0.8018
0.1938 0.0000 0.8075
0.4216 0.0000 0.8163
0.6534 0.0173 0.8152
0.8544 0.0975 0.8053
0.0000 0.2034 0.8099
0.1926 0.2022 0.8147
0.4219 0.2059 0.8168
0.6535 0.2128 0.8141
0.8545 0.2391 0.8029
0.0001 0.4118 0.8167
0.1963 0.4121 0.8165
0.4223 0.4138 0.8150
0.6542 0.4204 0.8093
0.8552 0.4364 0.7946
0.0107 0.6217 0.8109
0.1996 0.6226 0.8096
0.4246 0.6255 0.8053
0.6560 0.6323 0.7952
0.8565 0.6447 0.7759
0.0490 0.8367 0.7885
0.2102 0.8377 0.7863
0.4306 0.8408 0.7794
0.6598 0.8469 0.7656
0.8587 0.8560 0.7439
