public/luts/mirtilo.cube
#Created by: Pixelmator Pro
#Color profile: "Display P3"
TITLE "analogico RECEBA"
#Data domain
#LUT size
LUT_3D_SIZE 5
DOMAIN_MIN 0.000000 0.000000 0.000000
DOMAIN_MAX 0.823529 0.823529 0.823529
0.0107 0.0251 0.0251
0.0723 0.0275 0.0263
0.2768 0.0346 0.0290
0.6208 0.0470 0.0319
0.8576 0.0608 0.0293
0.0109 0.1443 0.0389
0.0699 0.1499 0.0306
0.2735 0.1525 0.0330
0.6190 0.1571 0.0350
0.8571 0.1633 0.0310
0.0109 0.3651 0.0702
0.0627 0.3794 0.0428
0.2641 0.3812 0.0438
0.6137 0.3844 0.0429
0.8558 0.3886 0.0344
0.0109 0.6417 0.1027
0.0508 0.6596 0.0576
0.2490 0.6605 0.0562
0.6053 0.6620 0.0510
0.8534 0.6643 0.0408
0.0109 0.8508 0.1317
0.0361 0.8621 0.0662
0.2304 0.8624 0.0638
0.5934 0.8629 0.0579
0.8503 0.8637 0.0429
0.0108 0.0273 0.1457
0.0713 0.0252 0.1513
0.2754 0.0321 0.1523
0.6201 0.0444 0.1533
0.8574 0.0587 0.1520
0.0109 0.1457 0.1499
0.0689 0.1490 0.1530
0.2722 0.1515 0.1538
0.6183 0.1561 0.1544
0.8570 0.1622 0.1525
0.0109 0.3663 0.1643
0.0617 0.3786 0.1574
0.2630 0.3804 0.1577
0.6131 0.3836 0.1572
0.8557 0.3878 0.1537
0.0109 0.6424 0.1873
0.0501 0.6591 0.1634
0.2482 0.6600 0.1626
0.6049 0.6615 0.1601
0.8533 0.6638 0.1561
0.0109 0.8511 0.2123
0.0355 0.8619 0.1678
0.2297 0.8622 0.1664
0.5931 0.8627 0.1632
0.8502 0.8635 0.1566
0.0109 0.0324 0.3698
0.0688 0.0254 0.3802
0.2712 0.0254 0.3852
0.6179 0.0361 0.3857
0.8570 0.0516 0.3841
0.0109 0.1484 0.3719
0.0659 0.1460 0.3860
0.2684 0.1486 0.3864
0.6162 0.1529 0.3864
0.8565 0.1588 0.3844
0.0109 0.3691 0.3813
0.0590 0.3764 0.3890
0.2596 0.3781 0.3890
0.6114 0.3811 0.3881
0.8553 0.3852 0.3853
0.0109 0.6443 0.3980
0.0482 0.6577 0.3928
0.2459 0.6586 0.3920
0.6035 0.6601 0.3900
0.8529 0.6624 0.3868
0.0109 0.8517 0.4174
0.0337 0.8613 0.3957
0.2278 0.8616 0.3945
0.5920 0.8622 0.3919
0.8500 0.8629 0.3865
0.0109 0.0404 0.6478
0.0665 0.0253 0.6581
0.2645 0.0253 0.6631
0.6136 0.0253 0.6664
0.8562 0.0349 0.6656
0.0109 0.1516 0.6489
0.0607 0.1403 0.6679
0.2619 0.1427 0.6679
0.6129 0.1467 0.6674
0.8557 0.1523 0.6658
0.0109 0.3724 0.6534
0.0546 0.3719 0.6692
0.2542 0.3735 0.6690
0.6086 0.3763 0.6680
0.8545 0.3805 0.6664
0.0109 0.6468 0.6621
0.0450 0.6550 0.6707
0.2420 0.6558 0.6700
0.6008 0.6573 0.6690
0.8523 0.6595 0.6668
0.0109 0.8527 0.6732
0.0306 0.8603 0.6720
0.2246 0.8606 0.6712
0.5904 0.8611 0.6695
0.8498 0.8617 0.6660
0.0109 0.0462 0.8549
0.0651 0.0253 0.8599
0.2610 0.0253 0.8622
0.6086 0.0253 0.8644
0.8541 0.0253 0.8657
0.0109 0.1538 0.8553
0.0542 0.1307 0.8678
0.2540 0.1329 0.8676
0.6089 0.1366 0.8672
0.8545 0.1423 0.8666
0.0109 0.3746 0.8568
0.0492 0.3646 0.8681
0.2478 0.3661 0.8678
0.6045 0.3688 0.8675
0.8534 0.3728 0.8667
0.0109 0.6487 0.8597
0.0403 0.6507 0.8684
0.2358 0.6516 0.8682
0.5973 0.6530 0.8677
0.8516 0.6550 0.8666
0.0109 0.8537 0.8637
0.0265 0.8586 0.8687
0.2209 0.8589 0.8683
0.5887 0.8593 0.8675
0.8497 0.8599 0.8659
