public/luts/mirtilo.cube
#Created by: Pixelmator Pro
#Color profile: "Display P3"
TITLE "analogico RECEBA"
#Data domain
#LUT size
LUT_3D_SIZE 7
DOMAIN_MIN 0.000000 0.000000 0.000000
DOMAIN_MAX 0.882353 0.882353 0.882353
0.0107 0.0251 0.0251
0.0481 0.0264 0.0259
0.1333 0.0299 0.0272
0.3224 0.0361 0.0295
0.5728 0.0450 0.0317
0.7798 0.0550 0.0316
0.8962 0.0646 0.0264
0.0108 0.1033 0.0329
0.0468 0.1069 0.0282
0.1317 0.1084 0.0296
0.3207 0.1111 0.0317
0.5716 0.1148 0.0335
0.7793 0.1195 0.0329
0.8960 0.1248 0.0270
0.0109 0.2244 0.0517
0.0433 0.2333 0.0345
0.1273 0.2344 0.0356
0.3161 0.2365 0.0372
0.5686 0.2394 0.0380
0.7780 0.2431 0.0360
0.8956 0.2473 0.0283
0.0109 0.4041 0.0749
0.0366 0.4191 0.0449
0.1198 0.4200 0.0455
0.3083 0.4214 0.0458
0.5634 0.4235 0.0448
0.7759 0.4262 0.0403
0.8947 0.4293 0.0315
0.0109 0.6035 0.0982
0.0259 0.6213 0.0559
0.1098 0.6219 0.0555
0.2978 0.6227 0.0544
0.5565 0.6240 0.0512
0.7730 0.6256 0.0447
0.8935 0.6277 0.0356
0.0109 0.7765 0.1198
0.0109 0.7904 0.0668
0.0989 0.7912 0.0623
0.2859 0.7916 0.0596
0.5478 0.7923 0.0564
0.7689 0.7931 0.0500
0.8920 0.7941 0.0373
0.0109 0.8897 0.1405
0.0109 0.8965 0.0951
0.0867 0.8995 0.0674
0.2710 0.8997 0.0648
0.5375 0.9000 0.0598
0.7645 0.9004 0.0505
0.8905 0.9008 0.0321
0.0107 0.0266 0.1039
0.0476 0.0252 0.1079
0.1326 0.0286 0.1085
0.3217 0.0347 0.1094
0.5723 0.0435 0.1103
0.7796 0.0538 0.1101
0.8961 0.0635 0.1077
0.0108 0.1043 0.1069
0.0463 0.1063 0.1089
0.1310 0.1078 0.1095
0.3200 0.1105 0.1103
0.5711 0.1142 0.1110
0.7791 0.1189 0.1107
0.8960 0.1242 0.1079
0.0109 0.2252 0.1152
0.0427 0.2328 0.1116
0.1266 0.2340 0.1121
0.3154 0.2360 0.1127
0.5681 0.2389 0.1129
0.7779 0.2425 0.1120
0.8955 0.2467 0.1085
0.0109 0.4047 0.1291
0.0360 0.4188 0.1160
0.1192 0.4196 0.1162
0.3077 0.4210 0.1162
0.5630 0.4231 0.1157
0.7758 0.4257 0.1137
0.8947 0.4289 0.1099
0.0109 0.6039 0.1468
0.0253 0.6211 0.1211
0.1093 0.6216 0.1208
0.2973 0.6225 0.1202
0.5562 0.6237 0.1185
0.7728 0.6253 0.1156
0.8934 0.6274 0.1116
0.0109 0.7767 0.1654
0.0109 0.7901 0.1275
0.0986 0.7910 0.1244
0.2855 0.7915 0.1229
0.5475 0.7921 0.1211
0.7688 0.7929 0.1179
0.8920 0.7939 0.1123
0.0109 0.8898 0.1845
0.0109 0.8965 0.1469
0.0864 0.8995 0.1275
0.2707 0.8997 0.1259
0.5373 0.8999 0.1229
0.7644 0.9003 0.1180
0.8905 0.9007 0.1099
0.0109 0.0290 0.2273
0.0464 0.0253 0.2340
0.1307 0.0253 0.2370
0.3198 0.0310 0.2378
0.5711 0.0396 0.2382
0.7791 0.0503 0.2379
0.8960 0.0604 0.2356
0.0109 0.1058 0.2288
0.0449 0.1047 0.2375
0.1292 0.1062 0.2379
0.3181 0.1088 0.2384
0.5699 0.1125 0.2388
0.7786 0.1171 0.2383
0.8958 0.1223 0.2358
0.0109 0.2269 0.2345
0.0412 0.2315 0.2395
0.1249 0.2326 0.2398
0.3137 0.2346 0.2402
0.5670 0.2375 0.2402
0.7774 0.2411 0.2392
0.8954 0.2452 0.2362
0.0109 0.4062 0.2456
0.0345 0.4177 0.2428
0.1176 0.4185 0.2429
0.3061 0.4200 0.2429
0.5621 0.4220 0.2423
0.7754 0.4246 0.2404
0.8945 0.4278 0.2374
0.0109 0.6050 0.2606
0.0237 0.6204 0.2467
0.1081 0.6208 0.2465
0.2961 0.6217 0.2458
0.5555 0.6229 0.2443
0.7725 0.6246 0.2420
0.8933 0.6266 0.2386
0.0109 0.7773 0.2769
0.0109 0.7894 0.2519
0.0978 0.7906 0.2491
0.2843 0.7910 0.2480
0.5468 0.7917 0.2464
0.7685 0.7925 0.2436
0.8919 0.7935 0.2389
0.0109 0.8900 0.2943
0.0109 0.8963 0.2665
0.0857 0.8993 0.2517
0.2699 0.8994 0.2502
0.5368 0.8997 0.2476
0.7642 0.9001 0.2434
0.8905 0.9005 0.2366
0.0109 0.0334 0.4091
0.0451 0.0254 0.4183
0.1274 0.0254 0.4225
0.3162 0.0253 0.4257
0.5689 0.0324 0.4261
0.7783 0.0430 0.4255
0.8957 0.0542 0.4233
0.0109 0.1080 0.4101
0.0421 0.1017 0.4260
0.1260 0.1032 0.4262
0.3148 0.1057 0.4265
0.5679 0.1094 0.4265
0.7779 0.1139 0.4257
0.8956 0.1190 0.4235
0.0109 0.2291 0.4138
0.0385 0.2292 0.4274
0.1219 0.2302 0.4276
0.3106 0.2322 0.4277
0.5651 0.2349 0.4275
0.7767 0.2384 0.4263
0.8951 0.2425 0.4240
0.0109 0.4084 0.4216
0.0318 0.4158 0.4297
0.1150 0.4166 0.4297
0.3035 0.4180 0.4295
0.5604 0.4200 0.4288
0.7748 0.4224 0.4270
0.8943 0.4257 0.4248
0.0109 0.6067 0.4327
0.0206 0.6190 0.4323
0.1061 0.6195 0.4320
0.2940 0.6203 0.4313
0.5542 0.6215 0.4299
0.7718 0.6232 0.4283
0.8931 0.6252 0.4255
0.0109 0.7783 0.4451
0.0109 0.7884 0.4354
0.0962 0.7898 0.4337
0.2824 0.7903 0.4330
0.5455 0.7909 0.4316
0.7680 0.7917 0.4292
0.8917 0.7927 0.4253
0.0109 0.8905 0.4590
0.0109 0.8960 0.4442
0.0845 0.8989 0.4355
0.2686 0.8991 0.4342
0.5360 0.8993 0.4321
0.7640 0.8997 0.4286
0.8905 0.9001 0.4231
0.0109 0.0392 0.6096
0.0436 0.0253 0.6190
0.1246 0.0253 0.6225
0.3109 0.0253 0.6262
0.5653 0.0253 0.6286
0.7772 0.0311 0.6284
0.8953 0.0432 0.6269
0.0109 0.1106 0.6102
0.0380 0.0969 0.6296
0.1215 0.0983 0.6297
0.3103 0.1008 0.6297
0.5650 0.1043 0.6294
0.7768 0.1087 0.6285
0.8951 0.1139 0.6270
0.0109 0.2315 0.6124
0.0344 0.2254 0.6304
0.1177 0.2265 0.6304
0.3064 0.2283 0.6303
0.5625 0.2309 0.6299
0.7758 0.2342 0.6288
0.8947 0.2384 0.6273
0.0109 0.4107 0.6170
0.0278 0.4129 0.6317
0.1115 0.4136 0.6316
0.2999 0.4149 0.6313
0.5582 0.4168 0.6305
0.7738 0.4192 0.6293
0.8939 0.4224 0.6277
0.0109 0.6086 0.6241
0.0161 0.6169 0.6330
0.1035 0.6173 0.6327
0.2913 0.6181 0.6321
0.5520 0.6193 0.6313
0.7708 0.6210 0.6301
0.8928 0.6229 0.6279
0.0109 0.7793 0.6325
0.0109 0.7870 0.6339
0.0938 0.7887 0.6338
0.2796 0.7891 0.6332
0.5437 0.7897 0.6322
0.7673 0.7905 0.6304
0.8916 0.7915 0.6275
0.0109 0.8910 0.6417
0.0109 0.8956 0.6376
0.0830 0.8983 0.6345
0.2668 0.8984 0.6336
0.5349 0.8987 0.6320
0.7637 0.8990 0.6295
0.8905 0.8994 0.6255
0.0109 0.0445 0.7816
0.0422 0.0253 0.7882
0.1227 0.0253 0.7903
0.3072 0.0253 0.7928
0.5608 0.0253 0.7949
0.7749 0.0253 0.7959
0.8947 0.0264 0.7960
0.0109 0.1128 0.7819
0.0327 0.0896 0.7980
0.1161 0.0910 0.7980
0.3049 0.0935 0.7978
0.5617 0.0969 0.7975
0.7755 0.1011 0.7969
0.8946 0.1066 0.7961
0.0109 0.2335 0.7830
0.0292 0.2201 0.7983
0.1128 0.2210 0.7983
0.3014 0.2227 0.7981
0.5594 0.2251 0.7977
0.7744 0.2284 0.7971
0.8941 0.2325 0.7962
0.0109 0.4127 0.7853
0.0223 0.4086 0.7988
0.1074 0.4093 0.7987
0.2957 0.4105 0.7984
0.5554 0.4123 0.7979
0.7724 0.4148 0.7973
0.8934 0.4178 0.7962
0.0109 0.6103 0.7888
0.0110 0.6139 0.7992
0.1003 0.6143 0.7991
0.2873 0.6151 0.7988
0.5491 0.6163 0.7983
0.7697 0.6179 0.7975
0.8924 0.6197 0.7962
0.0109 0.7804 0.7931
0.0109 0.7854 0.7983
0.0908 0.7871 0.7996
0.2763 0.7875 0.7992
0.5415 0.7880 0.7986
0.7665 0.7888 0.7975
0.8914 0.7897 0.7957
0.0109 0.8916 0.7978
0.0109 0.8952 0.7992
0.0812 0.8974 0.7997
0.2649 0.8976 0.7991
0.5339 0.8978 0.7982
0.7635 0.8981 0.7966
0.8906 0.8985 0.7942
0.0109 0.0463 0.8934
0.0418 0.0253 0.8969
0.1222 0.0253 0.8979
0.3059 0.0253 0.8993
0.5585 0.0253 0.9007
0.7724 0.0253 0.9019
0.8933 0.0253 0.9024
0.0109 0.1136 0.8936
0.0263 0.0788 0.9046
0.1105 0.0803 0.9045
0.2992 0.0827 0.9044
0.5580 0.0862 0.9041
0.7737 0.0909 0.9038
0.8939 0.0963 0.9033
0.0109 0.2342 0.8941
0.0227 0.2127 0.9047
0.1077 0.2136 0.9046
0.2964 0.2151 0.9044
0.5556 0.2175 0.9042
0.7726 0.2207 0.9039
0.8936 0.2245 0.9033
0.0109 0.4135 0.8951
0.0155 0.4027 0.9048
0.1031 0.4034 0.9047
0.2906 0.4046 0.9046
0.5516 0.4064 0.9043
0.7709 0.4088 0.9039
0.8930 0.4116 0.9033
0.0109 0.6114 0.8966
0.0109 0.6102 0.9040
0.0960 0.6104 0.9049
0.2825 0.6112 0.9047
0.5460 0.6123 0.9044
0.7685 0.6138 0.9039
0.8922 0.6154 0.9031
0.0109 0.7812 0.8985
0.0109 0.7838 0.9033
0.0877 0.7849 0.9050
0.2728 0.7853 0.9048
0.5395 0.7858 0.9044
0.7659 0.7865 0.9037
0.8914 0.7872 0.9027
0.0109 0.8921 0.9008
0.0109 0.8946 0.9033
0.0796 0.8963 0.9049
0.2634 0.8964 0.9046
0.5333 0.8967 0.9040
0.7637 0.8969 0.9031
0.8910 0.8972 0.9017
