public/luts/mirtilo.cube
#Created by: Pixelmator Pro
#Color profile: "Display P3"
TITLE "analogico RECEBA"
#Data domain
DOMAIN_MIN 0.0000 0.0000 0.0000
DOMAIN_MAX 1.0000 1.0000 1.0000
#LUT size
LUT_3D_SIZE 35
0.0107 0.0251 0.0251
0.0165 0.0253 0.0256
0.0233 0.0254 0.0256
0.0306 0.0257 0.0257
0.0387 0.0260 0.0258
0.0481 0.0264 0.0259
0.0590 0.0269 0.0261
0.0723 0.0275 0.0263
0.0886 0.0282 0.0266
0.1087 0.0290 0.0269
0.1333 0.0299 0.0272
0.1625 0.0309 0.0276
0.1964 0.0321 0.0281
0.2346 0.0333 0.0286
0.2768 0.0346 0.0290
0.3224 0.0361 0.0295
0.3707 0.0376 0.0300
0.4208 0.0393 0.0305
0.4718 0.0411 0.0309
0.5228 0.0430 0.0313
0.5728 0.0450 0.0317
0.6208 0.0470 0.0319
0.6662 0.0491 0.0321
0.7081 0.0511 0.0321
0.7461 0.0531 0.0319
0.7798 0.0550 0.0316
0.8091 0.0570 0.0311
0.8349 0.0589 0.0304
0.8576 0.0608 0.0293
0.8779 0.0627 0.0280
0.8962 0.0646 0.0264
0.9129 0.0670 0.0253
0.9283 0.0702 0.0253
0.9429 0.0733 0.0253
0.9571 0.0763 0.0253
0.0107 0.0383 0.0269
0.0163 0.0402 0.0259
0.0231 0.0403 0.0259
0.0304 0.0406 0.0260
0.0386 0.0409 0.0261
0.0479 0.0413 0.0262
0.0589 0.0418 0.0264
0.0721 0.0424 0.0266
0.0884 0.0431 0.0269
0.1086 0.0439 0.0272
0.1331 0.0449 0.0275
0.1623 0.0459 0.0279
0.1962 0.0470 0.0284
0.2344 0.0481 0.0288
0.2766 0.0494 0.0293
0.3222 0.0507 0.0298
0.3705 0.0520 0.0303
0.4206 0.0534 0.0307
0.4717 0.0548 0.0312
0.5226 0.0563 0.0316
0.5726 0.0578 0.0319
0.6207 0.0594 0.0321
0.6661 0.0609 0.0323
0.7081 0.0625 0.0323
0.7461 0.0641 0.0321
0.7797 0.0657 0.0318
0.8091 0.0673 0.0313
0.8348 0.0690 0.0305
0.8576 0.0706 0.0295
0.8778 0.0722 0.0281
0.8962 0.0738 0.0264
0.9129 0.0759 0.0253
0.9283 0.0788 0.0253
0.9429 0.0816 0.0253
0.9571 0.0843 0.0253
0.0107 0.0532 0.0278
0.0160 0.0553 0.0262
0.0228 0.0554 0.0262
0.0302 0.0556 0.0263
0.0384 0.0559 0.0264
0.0478 0.0562 0.0265
0.0588 0.0566 0.0267
0.0720 0.0570 0.0269
0.0883 0.0576 0.0272
0.1084 0.0582 0.0275
0.1329 0.0588 0.0278
0.1621 0.0596 0.0282
0.1959 0.0604 0.0287
0.2342 0.0613 0.0291
0.2764 0.0622 0.0296
0.3220 0.0632 0.0301
0.3703 0.0643 0.0306
0.4204 0.0654 0.0310
0.4715 0.0665 0.0314
0.5225 0.0677 0.0318
0.5725 0.0690 0.0321
0.6206 0.0703 0.0324
0.6660 0.0716 0.0325
0.7080 0.0729 0.0325
0.7460 0.0743 0.0323
0.7796 0.0757 0.0320
0.8090 0.0771 0.0314
0.8348 0.0786 0.0306
0.8575 0.0800 0.0296
0.8778 0.0815 0.0282
0.8961 0.0829 0.0265
0.9129 0.0848 0.0253
0.9283 0.0874 0.0253
0.9429 0.0899 0.0253
0.9571 0.0925 0.0253
0.0107 0.0689 0.0291
0.0157 0.0711 0.0266
0.0225 0.0712 0.0266
0.0300 0.0714 0.0267
0.0382 0.0716 0.0268
0.0475 0.0718 0.0269
0.0585 0.0721 0.0271
0.0717 0.0724 0.0273
0.0880 0.0728 0.0276
0.1081 0.0733 0.0279
0.1326 0.0739 0.0283
0.1618 0.0745 0.0287
0.1956 0.0751 0.0291
0.2338 0.0758 0.0295
0.2760 0.0766 0.0300
0.3216 0.0774 0.0305
0.3700 0.0783 0.0309
0.4201 0.0792 0.0314
0.4712 0.0802 0.0318
0.5222 0.0812 0.0322
0.5723 0.0822 0.0325
0.6204 0.0833 0.0327
0.6658 0.0844 0.0328
0.7078 0.0856 0.0327
0.7459 0.0868 0.0326
0.7796 0.0880 0.0322
0.8090 0.0893 0.0316
0.8347 0.0906 0.0308
0.8575 0.0918 0.0297
0.8778 0.0931 0.0284
0.8961 0.0945 0.0266
0.9128 0.0961 0.0253
0.9282 0.0985 0.0253
0.9429 0.1008 0.0253
0.9571 0.1031 0.0253
0.0108 0.0854 0.0307
0.0151 0.0880 0.0271
0.0220 0.0881 0.0272
0.0296 0.0882 0.0273
0.0379 0.0884 0.0274
0.0472 0.0886 0.0275
0.0582 0.0888 0.0277
0.0714 0.0891 0.0279
0.0877 0.0895 0.0282
0.1077 0.0899 0.0285
0.1322 0.0903 0.0288
0.1614 0.0908 0.0292
0.1952 0.0914 0.0296
0.2334 0.0920 0.0301
0.2756 0.0926 0.0305
0.3212 0.0933 0.0310
0.3696 0.0941 0.0315
0.4197 0.0949 0.0319
0.4708 0.0957 0.0323
0.5219 0.0966 0.0326
0.5720 0.0975 0.0329
0.6201 0.0985 0.0331
0.6656 0.0995 0.0332
0.7076 0.1005 0.0331
0.7457 0.1016 0.0329
0.7794 0.1027 0.0325
0.8089 0.1038 0.0319
0.8346 0.1049 0.0311
0.8574 0.1061 0.0300
0.8777 0.1073 0.0286
0.8961 0.1084 0.0268
0.9128 0.1099 0.0253
0.9282 0.1121 0.0253
0.9429 0.1142 0.0253
0.9571 0.1163 0.0253
0.0108 0.1033 0.0329
0.0144 0.1064 0.0278
0.0214 0.1065 0.0279
0.0291 0.1066 0.0280
0.0375 0.1067 0.0281
0.0468 0.1069 0.0282
0.0578 0.1071 0.0284
0.0710 0.1074 0.0286
0.0872 0.1077 0.0289
0.1072 0.1080 0.0292
0.1317 0.1084 0.0296
0.1608 0.1089 0.0299
0.1946 0.1093 0.0304
0.2328 0.1099 0.0308
0.2750 0.1105 0.0312
0.3207 0.1111 0.0317
0.3690 0.1117 0.0321
0.4193 0.1125 0.0325
0.4704 0.1132 0.0329
0.5215 0.1140 0.0332
0.5716 0.1148 0.0335
0.6198 0.1157 0.0336
0.6653 0.1166 0.0337
0.7074 0.1175 0.0336
0.7455 0.1185 0.0333
0.7793 0.1195 0.0329
0.8088 0.1205 0.0323
0.8346 0.1216 0.0314
0.8573 0.1227 0.0302
0.8777 0.1237 0.0288
0.8960 0.1248 0.0270
0.9128 0.1261 0.0253
0.9282 0.1282 0.0253
0.9429 0.1301 0.0253
0.9571 0.1321 0.0253
0.0108 0.1228 0.0356
0.0135 0.1266 0.0287
0.0205 0.1267 0.0288
0.0285 0.1268 0.0289
0.0369 0.1269 0.0290
0.0464 0.1271 0.0291
0.0574 0.1273 0.0293
0.0705 0.1275 0.0295
0.0867 0.1278 0.0298
0.1066 0.1281 0.0301
0.1310 0.1285 0.0304
0.1602 0.1289 0.0308
0.1939 0.1293 0.0312
0.2321 0.1298 0.0316
0.2743 0.1303 0.0321
0.3200 0.1309 0.0325
0.3684 0.1315 0.0329
0.4187 0.1322 0.0333
0.4699 0.1329 0.0336
0.5210 0.1336 0.0339
0.5712 0.1344 0.0341
0.6194 0.1352 0.0343
0.6650 0.1360 0.0343
0.7071 0.1369 0.0341
0.7453 0.1378 0.0339
0.7791 0.1387 0.0334
0.8086 0.1397 0.0327
0.8344 0.1407 0.0318
0.8572 0.1417 0.0306
0.8776 0.1427 0.0291
0.8960 0.1437 0.0272
0.9127 0.1448 0.0253
0.9282 0.1467 0.0253
0.9428 0.1486 0.0253
0.9570 0.1505 0.0253
0.0109 0.1443 0.0389
0.0125 0.1491 0.0298
0.0194 0.1491 0.0298
0.0277 0.1492 0.0299
0.0363 0.1493 0.0301
0.0458 0.1495 0.0302
0.0568 0.1497 0.0304
0.0699 0.1499 0.0306
0.0860 0.1501 0.0309
0.1059 0.1504 0.0312
0.1303 0.1508 0.0315
0.1594 0.1511 0.0318
0.1931 0.1516 0.0322
0.2313 0.1520 0.0326
0.2735 0.1525 0.0330
0.3192 0.1531 0.0334
0.3677 0.1537 0.0338
0.4180 0.1543 0.0342
0.4692 0.1549 0.0345
0.5204 0.1556 0.0347
0.5706 0.1563 0.0349
0.6190 0.1571 0.0350
0.6646 0.1579 0.0350
0.7068 0.1587 0.0348
0.7450 0.1596 0.0345
0.7789 0.1605 0.0339
0.8084 0.1614 0.0332
0.8343 0.1623 0.0322
0.8571 0.1633 0.0310
0.8775 0.1642 0.0294
0.8959 0.1652 0.0275
0.9127 0.1662 0.0253
0.9281 0.1680 0.0253
0.9428 0.1697 0.0253
0.9570 0.1716 0.0253
0.0109 0.1683 0.0427
0.0112 0.1741 0.0310
0.0181 0.1741 0.0311
0.0268 0.1742 0.0312
0.0355 0.1743 0.0313
0.0451 0.1745 0.0315
0.0561 0.1747 0.0316
0.0692 0.1749 0.0319
0.0852 0.1751 0.0321
0.1051 0.1754 0.0324
0.1294 0.1757 0.0327
0.1585 0.1761 0.0330
0.1922 0.1765 0.0334
0.2303 0.1769 0.0338
0.2726 0.1774 0.0342
0.3183 0.1779 0.0345
0.3668 0.1784 0.0349
0.4171 0.1790 0.0352
0.4684 0.1797 0.0355
0.5197 0.1803 0.0357
0.5700 0.1810 0.0358
0.6184 0.1818 0.0359
0.6641 0.1825 0.0358
0.7064 0.1833 0.0356
0.7447 0.1841 0.0352
0.7786 0.1850 0.0346
0.8082 0.1859 0.0338
0.8341 0.1868 0.0327
0.8570 0.1877 0.0314
0.8774 0.1887 0.0297
0.8958 0.1896 0.0277
0.9126 0.1906 0.0254
0.9281 0.1922 0.0253
0.9428 0.1938 0.0253
0.9570 0.1957 0.0253
0.0109 0.1949 0.0472
0.0109 0.2008 0.0350
0.0166 0.2021 0.0325
0.0256 0.2021 0.0326
0.0346 0.2023 0.0327
0.0442 0.2024 0.0329
0.0552 0.2026 0.0331
0.0684 0.2028 0.0333
0.0844 0.2030 0.0335
0.1042 0.2033 0.0338
0.1284 0.2036 0.0341
0.1574 0.2039 0.0344
0.1911 0.2043 0.0347
0.2293 0.2048 0.0351
0.2715 0.2052 0.0354
0.3173 0.2057 0.0358
0.3658 0.2062 0.0361
0.4162 0.2068 0.0364
0.4676 0.2074 0.0366
0.5189 0.2080 0.0368
0.5693 0.2087 0.0368
0.6178 0.2094 0.0368
0.6636 0.2102 0.0367
0.7060 0.2110 0.0364
0.7443 0.2118 0.0359
0.7784 0.2126 0.0353
0.8080 0.2134 0.0344
0.8339 0.2143 0.0333
0.8568 0.2152 0.0318
0.8773 0.2161 0.0301
0.8957 0.2170 0.0280
0.9126 0.2179 0.0256
0.9281 0.2194 0.0253
0.9427 0.2210 0.0253
0.9569 0.2228 0.0253
0.0109 0.2244 0.0517
0.0109 0.2302 0.0402
0.0149 0.2329 0.0341
0.0242 0.2330 0.0342
0.0335 0.2331 0.0343
0.0433 0.2333 0.0345
0.0543 0.2334 0.0347
0.0674 0.2336 0.0349
0.0834 0.2339 0.0351
0.1031 0.2341 0.0353
0.1273 0.2344 0.0356
0.1562 0.2348 0.0359
0.1899 0.2351 0.0362
0.2280 0.2355 0.0365
0.2703 0.2360 0.0369
0.3161 0.2365 0.0372
0.3647 0.2370 0.0374
0.4151 0.2375 0.0377
0.4666 0.2381 0.0378
0.5181 0.2387 0.0379
0.5686 0.2394 0.0380
0.6172 0.2401 0.0379
0.6630 0.2408 0.0377
0.7055 0.2415 0.0373
0.7439 0.2423 0.0368
0.7780 0.2431 0.0360
0.8078 0.2439 0.0351
0.8337 0.2447 0.0338
0.8567 0.2456 0.0323
0.8771 0.2464 0.0305
0.8956 0.2473 0.0283
0.9124 0.2482 0.0261
0.9280 0.2495 0.0253
0.9427 0.2510 0.0253
0.9569 0.2527 0.0253
0.0109 0.2566 0.0563
0.0109 0.2621 0.0461
0.0130 0.2665 0.0359
0.0226 0.2666 0.0360
0.0323 0.2667 0.0361
0.0422 0.2668 0.0363
0.0533 0.2669 0.0364
0.0664 0.2671 0.0366
0.0823 0.2673 0.0368
0.1019 0.2676 0.0371
0.1260 0.2679 0.0373
0.1549 0.2682 0.0376
0.1885 0.2685 0.0379
0.2267 0.2689 0.0381
0.2690 0.2694 0.0384
0.3148 0.2698 0.0387
0.3634 0.2703 0.0389
0.4140 0.2708 0.0391
0.4655 0.2714 0.0392
0.5171 0.2720 0.0392
0.5677 0.2726 0.0392
0.6164 0.2732 0.0390
0.6624 0.2739 0.0387
0.7049 0.2746 0.0383
0.7435 0.2753 0.0377
0.7777 0.2761 0.0368
0.8075 0.2768 0.0358
0.8335 0.2776 0.0345
0.8565 0.2784 0.0328
0.8770 0.2793 0.0309
0.8955 0.2801 0.0286
0.9123 0.2810 0.0267
0.9279 0.2821 0.0253
0.9426 0.2835 0.0253
0.9569 0.2851 0.0253
0.0109 0.2910 0.0609
0.0109 0.2962 0.0518
0.0109 0.3022 0.0380
0.0206 0.3023 0.0380
0.0309 0.3024 0.0381
0.0410 0.3025 0.0382
0.0522 0.3027 0.0384
0.0652 0.3028 0.0385
0.0811 0.3031 0.0387
0.1006 0.3033 0.0389
0.1246 0.3036 0.0392
0.1534 0.3039 0.0394
0.1870 0.3042 0.0396
0.2252 0.3045 0.0399
0.2675 0.3049 0.0401
0.3133 0.3054 0.0403
0.3620 0.3058 0.0405
0.4127 0.3063 0.0406
0.4644 0.3068 0.0406
0.5160 0.3074 0.0406
0.5667 0.3080 0.0405
0.6156 0.3086 0.0403
0.6617 0.3092 0.0399
0.7043 0.3099 0.0394
0.7430 0.3106 0.0386
0.7773 0.3113 0.0377
0.8072 0.3120 0.0365
0.8333 0.3127 0.0351
0.8563 0.3135 0.0334
0.8768 0.3143 0.0313
0.8953 0.3151 0.0290
0.9122 0.3160 0.0274
0.9278 0.3169 0.0255
0.9426 0.3182 0.0253
0.9568 0.3197 0.0253
0.0109 0.3273 0.0656
0.0109 0.3322 0.0573
0.0109 0.3378 0.0452
0.0183 0.3399 0.0401
0.0293 0.3400 0.0402
0.0396 0.3401 0.0403
0.0509 0.3402 0.0404
0.0640 0.3404 0.0406
0.0797 0.3406 0.0408
0.0992 0.3408 0.0409
0.1231 0.3411 0.0411
0.1519 0.3413 0.0413
0.1854 0.3416 0.0415
0.2235 0.3420 0.0417
0.2659 0.3424 0.0419
0.3118 0.3428 0.0421
0.3606 0.3432 0.0422
0.4113 0.3436 0.0422
0.4631 0.3441 0.0422
0.5149 0.3446 0.0421
0.5657 0.3452 0.0419
0.6147 0.3458 0.0416
0.6609 0.3464 0.0411
0.7037 0.3470 0.0404
0.7425 0.3476 0.0396
0.7769 0.3483 0.0386
0.8068 0.3490 0.0373
0.8330 0.3496 0.0357
0.8561 0.3504 0.0339
0.8766 0.3511 0.0317
0.8952 0.3519 0.0298
0.9120 0.3527 0.0281
0.9277 0.3536 0.0261
0.9425 0.3547 0.0253
0.9567 0.3561 0.0253
0.0109 0.3651 0.0702
0.0109 0.3698 0.0627
0.0109 0.3750 0.0522
0.0157 0.3789 0.0424
0.0274 0.3790 0.0424
0.0382 0.3791 0.0425
0.0496 0.3792 0.0427
0.0627 0.3794 0.0428
0.0784 0.3796 0.0429
0.0977 0.3798 0.0431
0.1215 0.3800 0.0432
0.1502 0.3803 0.0434
0.1836 0.3805 0.0436
0.2218 0.3809 0.0437
0.2641 0.3812 0.0438
0.3101 0.3816 0.0439
0.3589 0.3820 0.0439
0.4098 0.3824 0.0439
0.4617 0.3829 0.0438
0.5136 0.3833 0.0436
0.5646 0.3838 0.0433
0.6137 0.3844 0.0429
0.6601 0.3849 0.0423
0.7030 0.3855 0.0416
0.7419 0.3861 0.0406
0.7764 0.3867 0.0395
0.8065 0.3873 0.0380
0.8327 0.3880 0.0364
0.8558 0.3886 0.0344
0.8764 0.3893 0.0322
0.8950 0.3901 0.0306
0.9119 0.3909 0.0288
0.9276 0.3917 0.0268
0.9424 0.3926 0.0253
0.9566 0.3939 0.0253
0.0109 0.4041 0.0749
0.0109 0.4085 0.0679
0.0109 0.4134 0.0585
0.0130 0.4190 0.0448
0.0254 0.4190 0.0448
0.0366 0.4191 0.0449
0.0481 0.4193 0.0450
0.0612 0.4194 0.0451
0.0768 0.4196 0.0452
0.0961 0.4198 0.0453
0.1198 0.4200 0.0455
0.1483 0.4202 0.0456
0.1818 0.4205 0.0457
0.2199 0.4208 0.0458
0.2623 0.4211 0.0458
0.3083 0.4214 0.0458
0.3572 0.4218 0.0458
0.4082 0.4222 0.0457
0.4602 0.4226 0.0455
0.5123 0.4231 0.0452
0.5634 0.4235 0.0448
0.6127 0.4240 0.0443
0.6592 0.4245 0.0436
0.7023 0.4251 0.0427
0.7413 0.4256 0.0416
0.7759 0.4262 0.0403
0.8061 0.4267 0.0388
0.8324 0.4273 0.0369
0.8556 0.4279 0.0348
0.8762 0.4286 0.0332
0.8947 0.4293 0.0315
0.9117 0.4301 0.0296
0.9274 0.4308 0.0274
0.9423 0.4316 0.0253
0.9565 0.4328 0.0253
0.0109 0.4438 0.0796
0.0109 0.4479 0.0730
0.0109 0.4525 0.0645
0.0109 0.4591 0.0488
0.0230 0.4597 0.0472
0.0348 0.4598 0.0473
0.0465 0.4599 0.0473
0.0596 0.4601 0.0474
0.0752 0.4602 0.0475
0.0944 0.4604 0.0476
0.1179 0.4606 0.0476
0.1464 0.4608 0.0477
0.1798 0.4611 0.0477
0.2179 0.4613 0.0478
0.2603 0.4616 0.0478
0.3064 0.4620 0.0477
0.3554 0.4623 0.0476
0.4065 0.4627 0.0474
0.4586 0.4630 0.0471
0.5108 0.4634 0.0468
0.5621 0.4639 0.0463
0.6115 0.4643 0.0456
0.6582 0.4648 0.0448
0.7015 0.4653 0.0438
0.7407 0.4658 0.0426
0.7754 0.4663 0.0412
0.8057 0.4668 0.0394
0.8321 0.4674 0.0375
0.8553 0.4679 0.0357
0.8759 0.4686 0.0341
0.8945 0.4692 0.0323
0.9115 0.4699 0.0303
0.9272 0.4706 0.0281
0.9422 0.4713 0.0255
0.9564 0.4723 0.0253
0.0109 0.4840 0.0843
0.0109 0.4879 0.0780
0.0109 0.4921 0.0701
0.0109 0.4982 0.0564
0.0201 0.5007 0.0496
0.0329 0.5008 0.0496
0.0448 0.5009 0.0496
0.0580 0.5010 0.0497
0.0736 0.5012 0.0497
0.0926 0.5013 0.0497
0.1160 0.5015 0.0498
0.1444 0.5017 0.0498
0.1777 0.5019 0.0498
0.2158 0.5022 0.0497
0.2582 0.5024 0.0496
0.3044 0.5027 0.0495
0.3535 0.5030 0.0493
0.4047 0.5034 0.0491
0.4570 0.5037 0.0487
0.5093 0.5041 0.0483
0.5608 0.5045 0.0477
0.6104 0.5049 0.0469
0.6572 0.5053 0.0460
0.7007 0.5057 0.0449
0.7400 0.5062 0.0435
0.7749 0.5067 0.0419
0.8052 0.5071 0.0401
0.8317 0.5077 0.0382
0.8550 0.5082 0.0367
0.8757 0.5088 0.0351
0.8943 0.5094 0.0332
0.9113 0.5100 0.0311
0.9271 0.5107 0.0287
0.9420 0.5113 0.0260
0.9563 0.5122 0.0253
0.0109 0.5243 0.0889
0.0109 0.5278 0.0829
0.0109 0.5318 0.0756
0.0109 0.5374 0.0632
0.0169 0.5416 0.0518
0.0308 0.5416 0.0518
0.0431 0.5417 0.0518
0.0563 0.5418 0.0518
0.0718 0.5420 0.0518
0.0907 0.5421 0.0518
0.1140 0.5423 0.0518
0.1423 0.5425 0.0518
0.1755 0.5427 0.0517
0.2136 0.5429 0.0516
0.2560 0.5431 0.0514
0.3022 0.5434 0.0512
0.3515 0.5437 0.0510
0.4028 0.5440 0.0506
0.4552 0.5443 0.0502
0.5078 0.5446 0.0497
0.5594 0.5450 0.0490
0.6092 0.5453 0.0481
0.6562 0.5457 0.0471
0.6998 0.5461 0.0459
0.7393 0.5465 0.0444
0.7743 0.5469 0.0426
0.8048 0.5474 0.0407
0.8313 0.5479 0.0393
0.8546 0.5484 0.0378
0.8754 0.5489 0.0360
0.8940 0.5495 0.0340
0.9111 0.5501 0.0318
0.9269 0.5506 0.0292
0.9418 0.5512 0.0264
0.9562 0.5520 0.0253
0.0109 0.5642 0.0936
0.0109 0.5675 0.0878
0.0109 0.5711 0.0808
0.0109 0.5763 0.0694
0.0135 0.5819 0.0539
0.0284 0.5819 0.0539
0.0412 0.5820 0.0539
0.0546 0.5821 0.0539
0.0700 0.5822 0.0538
0.0888 0.5824 0.0538
0.1119 0.5825 0.0537
0.1401 0.5827 0.0536
0.1733 0.5829 0.0535
0.2113 0.5831 0.0533
0.2538 0.5833 0.0531
0.3000 0.5835 0.0529
0.3494 0.5838 0.0525
0.4008 0.5840 0.0521
0.4534 0.5843 0.0516
0.5061 0.5846 0.0510
0.5580 0.5849 0.0502
0.6079 0.5853 0.0492
0.6552 0.5856 0.0481
0.6989 0.5859 0.0467
0.7386 0.5863 0.0451
0.7737 0.5867 0.0433
0.8042 0.5871 0.0420
0.8308 0.5876 0.0405
0.8542 0.5881 0.0388
0.8751 0.5886 0.0369
0.8938 0.5891 0.0348
0.9108 0.5896 0.0324
0.9267 0.5901 0.0298
0.9417 0.5906 0.0268
0.9561 0.5913 0.0253
0.0109 0.6035 0.0982
0.0109 0.6065 0.0926
0.0109 0.6098 0.0859
0.0109 0.6145 0.0753
0.0109 0.6209 0.0572
0.0259 0.6213 0.0559
0.0392 0.6214 0.0559
0.0527 0.6215 0.0558
0.0681 0.6216 0.0557
0.0868 0.6217 0.0557
0.1098 0.6219 0.0555
0.1378 0.6220 0.0554
0.1709 0.6222 0.0552
0.2090 0.6223 0.0550
0.2514 0.6225 0.0547
0.2978 0.6227 0.0544
0.3472 0.6230 0.0540
0.3988 0.6232 0.0535
0.4516 0.6234 0.0529
0.5045 0.6237 0.0521
0.5565 0.6240 0.0512
0.6066 0.6243 0.0502
0.6541 0.6246 0.0489
0.6980 0.6249 0.0475
0.7378 0.6252 0.0459
0.7730 0.6256 0.0447
0.8036 0.6260 0.0432
0.8303 0.6264 0.0416
0.8538 0.6268 0.0398
0.8747 0.6273 0.0378
0.8935 0.6277 0.0356
0.9106 0.6282 0.0330
0.9265 0.6286 0.0302
0.9415 0.6291 0.0270
0.9559 0.6297 0.0253
0.0109 0.6417 0.1027
0.0109 0.6444 0.0973
0.0109 0.6475 0.0909
0.0109 0.6517 0.0808
0.0109 0.6575 0.0644
0.0230 0.6594 0.0578
0.0371 0.6595 0.0577
0.0508 0.6596 0.0576
0.0663 0.6597 0.0575
0.0848 0.6598 0.0574
0.1076 0.6599 0.0572
0.1355 0.6600 0.0570
0.1686 0.6602 0.0568
0.2065 0.6603 0.0565
0.2490 0.6605 0.0562
0.2955 0.6607 0.0558
0.3450 0.6609 0.0553
0.3967 0.6611 0.0547
0.4497 0.6613 0.0540
0.5028 0.6615 0.0531
0.5550 0.6618 0.0522
0.6053 0.6620 0.0510
0.6530 0.6623 0.0496
0.6970 0.6626 0.0484
0.7369 0.6629 0.0473
0.7722 0.6632 0.0460
0.8030 0.6636 0.0445
0.8298 0.6640 0.0427
0.8534 0.6643 0.0408
0.8744 0.6647 0.0386
0.8932 0.6651 0.0362
0.9104 0.6655 0.0335
0.9263 0.6659 0.0305
0.9413 0.6663 0.0271
0.9557 0.6668 0.0253
0.0109 0.6785 0.1072
0.0109 0.6810 0.1019
0.0109 0.6837 0.0956
0.0109 0.6875 0.0860
0.0109 0.6927 0.0709
0.0196 0.6958 0.0595
0.0349 0.6959 0.0594
0.0489 0.6959 0.0593
0.0643 0.6960 0.0591
0.0828 0.6961 0.0590
0.1054 0.6962 0.0588
0.1332 0.6963 0.0585
0.1662 0.6964 0.0582
0.2041 0.6966 0.0579
0.2466 0.6967 0.0575
0.2931 0.6969 0.0570
0.3427 0.6971 0.0564
0.3946 0.6972 0.0557
0.4477 0.6974 0.0549
0.5010 0.6976 0.0540
0.5534 0.6978 0.0529
0.6040 0.6981 0.0516
0.6517 0.6983 0.0507
0.6958 0.6986 0.0497
0.7359 0.6989 0.0486
0.7714 0.6992 0.0472
0.8024 0.6995 0.0456
0.8293 0.6998 0.0437
0.8530 0.7002 0.0416
0.8740 0.7005 0.0393
0.8929 0.7008 0.0367
0.9101 0.7012 0.0338
0.9261 0.7015 0.0307
0.9411 0.7019 0.0271
0.9556 0.7023 0.0253
0.0109 0.7134 0.1115
0.0109 0.7157 0.1063
0.0109 0.7181 0.1003
0.0109 0.7215 0.0910
0.0109 0.7261 0.0768
0.0159 0.7301 0.0610
0.0326 0.7302 0.0609
0.0469 0.7302 0.0608
0.0624 0.7303 0.0606
0.0807 0.7304 0.0604
0.1032 0.7305 0.0601
0.1308 0.7306 0.0598
0.1637 0.7307 0.0595
0.2016 0.7308 0.0591
0.2442 0.7309 0.0586
0.2907 0.7310 0.0580
0.3405 0.7312 0.0574
0.3925 0.7313 0.0566
0.4458 0.7315 0.0557
0.4993 0.7317 0.0547
0.5518 0.7319 0.0538
0.6024 0.7321 0.0530
0.6502 0.7323 0.0521
0.6946 0.7326 0.0510
0.7349 0.7328 0.0497
0.7706 0.7331 0.0483
0.8017 0.7333 0.0466
0.8288 0.7336 0.0446
0.8526 0.7339 0.0424
0.8737 0.7342 0.0399
0.8926 0.7345 0.0371
0.9099 0.7348 0.0340
0.9259 0.7351 0.0306
0.9409 0.7354 0.0269
0.9554 0.7358 0.0253
0.0109 0.7462 0.1157
0.0109 0.7482 0.1106
0.0109 0.7503 0.1047
0.0109 0.7533 0.0957
0.0109 0.7573 0.0822
0.0122 0.7620 0.0624
0.0302 0.7620 0.0622
0.0449 0.7621 0.0621
0.0604 0.7621 0.0619
0.0787 0.7622 0.0616
0.1010 0.7622 0.0613
0.1285 0.7623 0.0610
0.1613 0.7624 0.0606
0.1991 0.7625 0.0601
0.2417 0.7626 0.0595
0.2883 0.7627 0.0589
0.3382 0.7629 0.0581
0.3904 0.7630 0.0572
0.4437 0.7631 0.0566
0.4972 0.7633 0.0559
0.5498 0.7635 0.0551
0.6006 0.7637 0.0543
0.6487 0.7638 0.0533
0.6933 0.7640 0.0521
0.7338 0.7643 0.0508
0.7698 0.7645 0.0492
0.8010 0.7647 0.0475
0.8282 0.7649 0.0454
0.8521 0.7652 0.0430
0.8733 0.7654 0.0403
0.8923 0.7657 0.0373
0.9096 0.7659 0.0340
0.9256 0.7662 0.0304
0.9407 0.7665 0.0264
0.9552 0.7668 0.0253
0.0109 0.7765 0.1198
0.0109 0.7781 0.1147
0.0109 0.7800 0.1089
0.0109 0.7826 0.1002
0.0109 0.7860 0.0871
0.0109 0.7904 0.0668
0.0276 0.7910 0.0634
0.0429 0.7910 0.0632
0.0585 0.7911 0.0629
0.0767 0.7911 0.0626
0.0989 0.7912 0.0623
0.1262 0.7913 0.0619
0.1589 0.7913 0.0614
0.1967 0.7914 0.0608
0.2393 0.7915 0.0602
0.2859 0.7916 0.0596
0.3357 0.7917 0.0591
0.3878 0.7918 0.0585
0.4413 0.7920 0.0579
0.4950 0.7921 0.0572
0.5478 0.7923 0.0564
0.5989 0.7924 0.0554
0.6472 0.7926 0.0543
0.6920 0.7927 0.0531
0.7327 0.7929 0.0517
