public/luts/pitaia.cube
#Created by: Pixelmator Pro
#Color profile: "Display P3"
TITLE "analogico claro"
#Data domain
DOMAIN_MIN 0.0000 0.0000 0.0000
DOMAIN_MAX 1.0000 1.0000 1.0000
#LUT size
LUT_3D_SIZE 35
0.0000 0.0000 0.0000
0.0000 0.0000 0.0000
0.0000 0.0000 0.0000
0.0101 0.0004 0.0003
0.0315 0.0009 0.0007
0.0548 0.0015 0.0011
0.0807 0.0022 0.0016
0.1098 0.0029 0.0022
0.1431 0.0036 0.0028
0.1812 0.0044 0.0034
0.2244 0.0053 0.0041
0.2724 0.0064 0.0049
0.3246 0.0083 0.0060
0.3801 0.0113 0.0076
0.4382 0.0162 0.0100
0.4978 0.0237 0.0135
0.5578 0.0342 0.0179
0.6169 0.0463 0.0232
0.6737 0.0599 0.0294
0.7269 0.0751 0.0368
0.7750 0.0918 0.0455
0.8174 0.1099 0.0558
0.8549 0.1295 0.0681
0.8881 0.1505 0.0826
0.9178 0.1722 0.0995
0.9486 0.1849 0.1102
0.9771 0.1972 0.1213
1.0000 0.2128 0.1365
1.0000 0.2466 0.1728
1.0000 0.2727 0.2036
1.0000 0.2912 0.2264
1.0000 0.3051 0.2439
1.0000 0.3153 0.2567
1.0000 0.3270 0.2716
1.0000 0.3399 0.2882
0.0000 0.0167 0.0008
0.0000 0.0186 0.0005
0.0000 0.0190 0.0006
0.0104 0.0198 0.0006
0.0321 0.0207 0.0009
0.0556 0.0217 0.0014
0.0818 0.0230 0.0019
0.1112 0.0245 0.0024
0.1447 0.0262 0.0029
0.1830 0.0279 0.0036
0.2264 0.0297 0.0042
0.2745 0.0319 0.0051
0.3267 0.0346 0.0063
0.3822 0.0381 0.0080
0.4401 0.0428 0.0105
0.4995 0.0489 0.0141
0.5593 0.0567 0.0185
0.6181 0.0663 0.0239
0.6747 0.0778 0.0302
0.7275 0.0912 0.0377
0.7753 0.1063 0.0465
0.8176 0.1232 0.0569
0.8549 0.1418 0.0692
0.8879 0.1619 0.0839
0.9179 0.1822 0.1003
0.9486 0.1945 0.1110
0.9770 0.2064 0.1221
1.0000 0.2215 0.1370
1.0000 0.2550 0.1731
1.0000 0.2810 0.2039
1.0000 0.2993 0.2266
1.0000 0.3132 0.2442
1.0000 0.3235 0.2572
1.0000 0.3355 0.2727
1.0000 0.3482 0.2895
0.0000 0.0360 0.0013
0.0000 0.0381 0.0007
0.0000 0.0385 0.0009
0.0107 0.0395 0.0009
0.0327 0.0404 0.0012
0.0566 0.0417 0.0016
0.0830 0.0431 0.0021
0.1126 0.0448 0.0026
0.1464 0.0466 0.0031
0.1850 0.0485 0.0037
0.2285 0.0506 0.0044
0.2767 0.0530 0.0053
0.3289 0.0557 0.0066
0.3843 0.0591 0.0084
0.4421 0.0634 0.0111
0.5013 0.0689 0.0148
0.5608 0.0758 0.0193
0.6193 0.0843 0.0247
0.6756 0.0947 0.0311
0.7282 0.1069 0.0387
0.7757 0.1210 0.0476
0.8178 0.1370 0.0581
0.8549 0.1547 0.0706
0.8878 0.1741 0.0854
0.9180 0.1929 0.1012
0.9486 0.2049 0.1119
0.9768 0.2164 0.1230
1.0000 0.2308 0.1375
1.0000 0.2641 0.1734
1.0000 0.2898 0.2041
1.0000 0.3081 0.2268
1.0000 0.3220 0.2445
1.0000 0.3322 0.2576
1.0000 0.3446 0.2739
1.0000 0.3572 0.2908
0.0000 0.0565 0.0019
0.0000 0.0587 0.0010
0.0000 0.0592 0.0012
0.0113 0.0602 0.0013
0.0337 0.0613 0.0016
0.0579 0.0626 0.0020
0.0846 0.0643 0.0024
0.1147 0.0661 0.0029
0.1488 0.0682 0.0034
0.1877 0.0704 0.0040
0.2315 0.0729 0.0047
0.2798 0.0756 0.0057
0.3319 0.0786 0.0070
0.3873 0.0822 0.0090
0.4449 0.0864 0.0119
0.5038 0.0917 0.0157
0.5629 0.0981 0.0203
0.6211 0.1060 0.0258
0.6769 0.1156 0.0324
0.7291 0.1269 0.0400
0.7763 0.1401 0.0491
0.8180 0.1551 0.0598
0.8548 0.1720 0.0725
0.8875 0.1905 0.0875
0.9181 0.2076 0.1025
0.9485 0.2191 0.1132
0.9766 0.2302 0.1242
1.0000 0.2437 0.1382
1.0000 0.2765 0.1738
1.0000 0.3019 0.2041
1.0000 0.3201 0.2269
1.0000 0.3340 0.2447
1.0000 0.3443 0.2580
1.0000 0.3571 0.2754
1.0000 0.3695 0.2926
0.0000 0.0785 0.0027
0.0000 0.0809 0.0015
0.0000 0.0816 0.0017
0.0122 0.0826 0.0018
0.0349 0.0839 0.0020
0.0596 0.0855 0.0024
0.0868 0.0874 0.0028
0.1173 0.0895 0.0032
0.1519 0.0919 0.0038
0.1912 0.0945 0.0044
0.2353 0.0974 0.0051
0.2837 0.1005 0.0062
0.3359 0.1039 0.0077
0.3910 0.1078 0.0099
0.4484 0.1122 0.0130
0.5070 0.1175 0.0170
0.5656 0.1238 0.0217
0.6233 0.1314 0.0274
0.6786 0.1405 0.0341
0.7302 0.1512 0.0419
0.7769 0.1636 0.0512
0.8182 0.1779 0.0621
0.8547 0.1939 0.0750
0.8871 0.2117 0.0904
0.9181 0.2266 0.1042
0.9483 0.2375 0.1149
0.9763 0.2480 0.1258
1.0000 0.2603 0.1392
1.0000 0.2926 0.1743
1.0000 0.3174 0.2040
1.0000 0.3356 0.2268
1.0000 0.3495 0.2448
1.0000 0.3600 0.2584
1.0000 0.3733 0.2773
1.0000 0.3855 0.2947
0.0000 0.1028 0.0037
0.0000 0.1056 0.0020
0.0000 0.1064 0.0022
0.0132 0.1076 0.0023
0.0366 0.1090 0.0026
0.0617 0.1109 0.0029
0.0895 0.1130 0.0033
0.1205 0.1155 0.0037
0.1556 0.1183 0.0042
0.1954 0.1213 0.0049
0.2398 0.1246 0.0057
0.2884 0.1282 0.0069
0.3406 0.1320 0.0086
0.3956 0.1363 0.0111
0.4526 0.1411 0.0145
0.5107 0.1466 0.0186
0.5689 0.1530 0.0236
0.6259 0.1605 0.0294
0.6805 0.1694 0.0363
0.7315 0.1797 0.0443
0.7776 0.1916 0.0538
0.8184 0.2052 0.0651
0.8545 0.2205 0.0784
0.8866 0.2374 0.0942
0.9182 0.2499 0.1064
0.9481 0.2601 0.1171
0.9759 0.2698 0.1279
1.0000 0.2807 0.1404
1.0000 0.3122 0.1747
1.0000 0.3364 0.2037
1.0000 0.3545 0.2264
1.0000 0.3685 0.2446
1.0000 0.3794 0.2589
1.0000 0.3931 0.2791
1.0000 0.4050 0.2970
0.0000 0.1303 0.0049
0.0000 0.1335 0.0026
0.0000 0.1344 0.0028
0.0145 0.1357 0.0029
0.0385 0.1374 0.0031
0.0643 0.1395 0.0034
0.0926 0.1420 0.0038
0.1243 0.1448 0.0042
0.1600 0.1480 0.0048
0.2003 0.1515 0.0055
0.2451 0.1552 0.0065
0.2939 0.1592 0.0080
0.3460 0.1636 0.0100
0.4008 0.1683 0.0129
0.4574 0.1736 0.0165
0.5150 0.1794 0.0208
0.5725 0.1860 0.0259
0.6288 0.1936 0.0320
0.6827 0.2024 0.0391
0.7329 0.2125 0.0474
0.7783 0.2240 0.0572
0.8185 0.2371 0.0688
0.8542 0.2516 0.0826
0.8859 0.2674 0.0989
0.9182 0.2772 0.1091
0.9478 0.2866 0.1197
0.9753 0.2954 0.1303
1.0000 0.3044 0.1417
1.0000 0.3351 0.1751
1.0000 0.3585 0.2029
1.0000 0.3765 0.2255
1.0000 0.3907 0.2438
1.0000 0.4026 0.2601
1.0000 0.4161 0.2808
1.0000 0.4278 0.2992
0.0000 0.1617 0.0063
0.0000 0.1655 0.0033
0.0000 0.1665 0.0034
0.0159 0.1680 0.0036
0.0406 0.1699 0.0038
0.0671 0.1722 0.0041
0.0962 0.1750 0.0045
0.1285 0.1782 0.0050
0.1649 0.1818 0.0056
0.2059 0.1857 0.0065
0.2510 0.1899 0.0077
0.3000 0.1945 0.0095
0.3520 0.1993 0.0120
0.4066 0.2045 0.0151
0.4628 0.2102 0.0189
0.5197 0.2164 0.0235
0.5765 0.2233 0.0288
0.6319 0.2311 0.0352
0.6849 0.2398 0.0425
0.7343 0.2497 0.0512
0.7790 0.2607 0.0614
0.8186 0.2730 0.0735
0.8537 0.2866 0.0878
0.8863 0.2993 0.1021
0.9181 0.3083 0.1123
0.9474 0.3167 0.1227
0.9746 0.3244 0.1332
1.0000 0.3313 0.1433
1.0000 0.3610 0.1752
1.0000 0.3834 0.2016
1.0000 0.4013 0.2238
1.0000 0.4156 0.2421
1.0000 0.4287 0.2606
1.0000 0.4420 0.2820
1.0000 0.4534 0.3010
0.0000 0.1982 0.0079
0.0000 0.2025 0.0040
0.0000 0.2037 0.0042
0.0175 0.2053 0.0043
0.0430 0.2074 0.0046
0.0703 0.2100 0.0049
0.1001 0.2131 0.0054
0.1332 0.2166 0.0060
0.1703 0.2206 0.0068
0.2119 0.2249 0.0079
0.2574 0.2296 0.0095
0.3065 0.2345 0.0117
0.3585 0.2398 0.0145
0.4128 0.2455 0.0179
0.4684 0.2515 0.0220
0.5247 0.2579 0.0268
0.5806 0.2650 0.0324
0.6352 0.2727 0.0390
0.6872 0.2812 0.0468
0.7357 0.2907 0.0559
0.7795 0.3011 0.0666
0.8184 0.3125 0.0792
0.8530 0.3249 0.0942
0.8865 0.3346 0.1058
0.9179 0.3425 0.1160
0.9468 0.3499 0.1263
0.9737 0.3565 0.1365
0.9989 0.3621 0.1462
1.0000 0.3890 0.1748
1.0000 0.4106 0.1996
1.0000 0.4285 0.2211
1.0000 0.4430 0.2391
1.0000 0.4570 0.2603
1.0000 0.4701 0.2821
1.0000 0.4815 0.3017
0.0001 0.2408 0.0096
0.0001 0.2454 0.0050
0.0002 0.2467 0.0051
0.0195 0.2484 0.0053
0.0458 0.2507 0.0057
0.0738 0.2535 0.0061
0.1044 0.2568 0.0067
0.1383 0.2605 0.0075
0.1762 0.2647 0.0086
0.2183 0.2693 0.0100
0.2643 0.2742 0.0121
0.3135 0.2794 0.0146
0.3654 0.2850 0.0177
0.4192 0.2908 0.0214
0.4743 0.2969 0.0257
0.5298 0.3034 0.0308
0.5848 0.3103 0.0368
0.6384 0.3178 0.0437
0.6895 0.3259 0.0519
0.7369 0.3347 0.0615
0.7799 0.3443 0.0728
0.8181 0.3547 0.0861
0.8527 0.3652 0.1005
0.8866 0.3726 0.1102
0.9175 0.3794 0.1202
0.9460 0.3856 0.1303
0.9725 0.3910 0.1401
0.9974 0.3953 0.1493
1.0000 0.4186 0.1737
1.0000 0.4397 0.1968
1.0000 0.4574 0.2172
1.0000 0.4721 0.2345
1.0000 0.4870 0.2584
1.0000 0.5000 0.2807
1.0000 0.5113 0.3009
0.0001 0.2894 0.0113
0.0001 0.2941 0.0063
0.0004 0.2954 0.0065
0.0221 0.2971 0.0068
0.0490 0.2994 0.0073
0.0778 0.3022 0.0079
0.1091 0.3056 0.0087
0.1438 0.3094 0.0098
0.1825 0.3137 0.0112
0.2252 0.3183 0.0131
0.2715 0.3232 0.0155
0.3207 0.3285 0.0183
0.3724 0.3340 0.0216
0.4258 0.3397 0.0256
0.4803 0.3457 0.0302
0.5350 0.3520 0.0357
0.5890 0.3586 0.0420
0.6415 0.3656 0.0494
0.6915 0.3731 0.0581
0.7380 0.3811 0.0683
0.7800 0.3897 0.0803
0.8174 0.3989 0.0944
0.8532 0.4064 0.1054
0.8865 0.4127 0.1150
0.9169 0.4183 0.1249
0.9450 0.4233 0.1347
0.9711 0.4274 0.1441
0.9956 0.4305 0.1527
1.0000 0.4498 0.1724
1.0000 0.4702 0.1932
1.0000 0.4876 0.2118
1.0000 0.5031 0.2308
1.0000 0.5179 0.2548
1.0000 0.5309 0.2773
1.0000 0.5423 0.2980
0.0001 0.3435 0.0128
0.0001 0.3475 0.0085
0.0009 0.3487 0.0088
0.0257 0.3504 0.0092
0.0531 0.3527 0.0098
0.0824 0.3554 0.0106
0.1145 0.3587 0.0118
0.1499 0.3624 0.0132
0.1892 0.3665 0.0150
0.2324 0.3709 0.0171
0.2789 0.3757 0.0197
0.3282 0.3807 0.0228
0.3796 0.3859 0.0264
0.4325 0.3913 0.0307
0.4862 0.3969 0.0357
0.5400 0.4028 0.0415
0.5930 0.4088 0.0483
0.6444 0.4152 0.0562
0.6933 0.4218 0.0655
0.7387 0.4289 0.0764
0.7798 0.4364 0.0893
0.8175 0.4435 0.1019
0.8535 0.4491 0.1110
0.8861 0.4542 0.1204
0.9160 0.4586 0.1300
0.9436 0.4623 0.1394
0.9693 0.4651 0.1483
0.9933 0.4665 0.1555
1.0000 0.4819 0.1708
1.0000 0.5014 0.1888
1.0000 0.5186 0.2048
1.0000 0.5346 0.2260
1.0000 0.5492 0.2492
1.0000 0.5622 0.2714
1.0000 0.5737 0.2922
0.0001 0.4019 0.0140
0.0001 0.4044 0.0119
0.0046 0.4055 0.0123
0.0308 0.4071 0.0129
0.0583 0.4092 0.0137
0.0881 0.4117 0.0147
0.1206 0.4147 0.0160
0.1566 0.4182 0.0177
0.1965 0.4219 0.0196
0.2401 0.4260 0.0220
0.2867 0.4304 0.0249
0.3358 0.4350 0.0282
0.3868 0.4397 0.0322
0.4391 0.4446 0.0368
0.4921 0.4496 0.0422
0.5449 0.4547 0.0485
0.5968 0.4600 0.0558
0.6470 0.4655 0.0644
0.6948 0.4712 0.0744
0.7391 0.4772 0.0862
0.7795 0.4834 0.0995
0.8183 0.4883 0.1081
0.8534 0.4927 0.1170
0.8855 0.4965 0.1262
0.9148 0.4997 0.1355
0.9419 0.5021 0.1444
0.9673 0.5036 0.1525
0.9907 0.5031 0.1581
1.0000 0.5145 0.1692
1.0000 0.5331 0.1837
1.0000 0.5499 0.1978
1.0000 0.5659 0.2198
1.0000 0.5803 0.2415
1.0000 0.5933 0.2626
1.0000 0.6049 0.2830
0.0001 0.4624 0.0163
0.0001 0.4633 0.0167
0.0126 0.4643 0.0172
0.0379 0.4657 0.0178
0.0652 0.4676 0.0187
0.0950 0.4698 0.0199
0.1279 0.4724 0.0214
0.1643 0.4754 0.0232
0.2046 0.4787 0.0254
0.2483 0.4823 0.0280
0.2949 0.4861 0.0312
0.3437 0.4900 0.0348
0.3942 0.4941 0.0391
0.4458 0.4983 0.0442
0.4978 0.5025 0.0500
0.5495 0.5069 0.0569
0.6003 0.5113 0.0648
0.6493 0.5158 0.0742
0.6959 0.5204 0.0851
0.7391 0.5252 0.0978
0.7807 0.5294 0.1063
0.8186 0.5332 0.1148
0.8530 0.5364 0.1236
0.8844 0.5390 0.1325
0.9132 0.5409 0.1412
0.9399 0.5420 0.1494
0.9646 0.5417 0.1560
0.9878 0.5400 0.1604
1.0000 0.5472 0.1676
1.0000 0.5647 0.1783
1.0000 0.5812 0.1937
1.0000 0.5965 0.2128
1.0000 0.6107 0.2319
1.0000 0.6236 0.2510
1.0000 0.6354 0.2699
0.0001 0.5218 0.0222
0.0023 0.5226 0.0227
0.0235 0.5235 0.0232
0.0473 0.5247 0.0240
0.0740 0.5262 0.0250
0.1036 0.5280 0.0263
0.1366 0.5302 0.0279
0.1732 0.5327 0.0299
0.2136 0.5354 0.0324
0.2573 0.5384 0.0353
0.3035 0.5415 0.0387
0.3518 0.5447 0.0427
0.4016 0.5480 0.0475
0.4523 0.5513 0.0530
0.5033 0.5547 0.0594
0.5539 0.5580 0.0669
0.6035 0.5615 0.0757
0.6513 0.5649 0.0859
0.6966 0.5684 0.0978
0.7408 0.5719 0.1058
0.7815 0.5749 0.1138
0.8185 0.5775 0.1221
0.8521 0.5795 0.1306
0.8829 0.5809 0.1390
0.9112 0.5816 0.1471
0.9374 0.5814 0.1542
0.9615 0.5794 0.1589
0.9846 0.5767 0.1622
1.0000 0.5798 0.1662
1.0000 0.5960 0.1747
1.0000 0.6116 0.1904
1.0000 0.6262 0.2057
1.0000 0.6399 0.2213
1.0000 0.6528 0.2370
1.0000 0.6647 0.2530
0.0006 0.5801 0.0295
0.0187 0.5807 0.0300
0.0373 0.5814 0.0306
0.0595 0.5823 0.0315
0.0851 0.5835 0.0326
0.1143 0.5849 0.0340
0.1470 0.5866 0.0359
0.1836 0.5885 0.0381
0.2238 0.5906 0.0408
0.2671 0.5929 0.0440
0.3128 0.5952 0.0478
0.3604 0.5976 0.0523
0.4093 0.6001 0.0575
0.4590 0.6025 0.0636
0.5088 0.6049 0.0707
0.5581 0.6074 0.0790
0.6064 0.6098 0.0887
0.6530 0.6122 0.0995
0.6988 0.6149 0.1065
0.7420 0.6173 0.1139
0.7817 0.6192 0.1217
0.8178 0.6206 0.1297
0.8507 0.6214 0.1378
0.8809 0.6217 0.1456
0.9087 0.6212 0.1528
0.9341 0.6192 0.1578
0.9582 0.6164 0.1614
0.9813 0.6129 0.1634
1.0000 0.6119 0.1646
1.0000 0.6266 0.1764
1.0000 0.6409 0.1885
1.0000 0.6547 0.1997
1.0000 0.6679 0.2106
1.0000 0.6805 0.2215
1.0000 0.6924 0.2329
0.0202 0.6356 0.0383
0.0374 0.6360 0.0389
0.0538 0.6365 0.0396
0.0744 0.6372 0.0405
0.0989 0.6380 0.0418
0.1272 0.6391 0.0434
0.1595 0.6402 0.0455
0.1956 0.6416 0.0480
0.2353 0.6430 0.0510
0.2779 0.6446 0.0545
0.3228 0.6462 0.0588
0.3694 0.6478 0.0638
0.4172 0.6494 0.0696
0.4657 0.6510 0.0764
0.5142 0.6525 0.0844
0.5622 0.6539 0.0936
0.6095 0.6558 0.1019
0.6559 0.6578 0.1084
0.7005 0.6594 0.1153
0.7425 0.6607 0.1226
0.7812 0.6615 0.1301
0.8165 0.6618 0.1376
0.8488 0.6616 0.1450
0.8784 0.6608 0.1519
0.9054 0.6586 0.1571
0.9306 0.6557 0.1607
0.9546 0.6522 0.1630
0.9776 0.6481 0.1638
0.9990 0.6441 0.1681
1.0000 0.6561 0.1799
1.0000 0.6690 0.1888
1.0000 0.6818 0.1956
1.0000 0.6943 0.2013
1.0000 0.7066 0.2062
1.0000 0.7184 0.2111
0.0438 0.6871 0.0491
0.0584 0.6874 0.0498
0.0731 0.6877 0.0505
0.0920 0.6881 0.0516
0.1152 0.6886 0.0530
0.1426 0.6893 0.0548
0.1741 0.6900 0.0571
0.2095 0.6908 0.0599
0.2483 0.6917 0.0633
0.2899 0.6926 0.0674
0.3336 0.6934 0.0721
0.3790 0.6943 0.0778
0.4255 0.6951 0.0843
0.4725 0.6959 0.0920
0.5196 0.6968 0.1000
0.5665 0.6983 0.1055
0.6128 0.6996 0.1115
0.6580 0.7006 0.1179
0.7014 0.7013 0.1246
0.7423 0.7015 0.1315
0.7801 0.7014 0.1385
0.8146 0.7007 0.1454
0.8462 0.6996 0.1519
0.8750 0.6972 0.1568
0.9017 0.6942 0.1604
0.9268 0.6906 0.1628
0.9508 0.6866 0.1637
0.9733 0.6823 0.1660
0.9937 0.6784 0.1747
1.0000 0.6845 0.1848
1.0000 0.6959 0.1916
1.0000 0.7075 0.1946
1.0000 0.7192 0.1948
1.0000 0.7309 0.1931
1.0000 0.7425 0.1898
0.0687 0.7337 0.0622
0.0815 0.7338 0.0630
0.0947 0.7340 0.0638
0.1122 0.7342 0.0650
0.1342 0.7345 0.0666
0.1605 0.7347 0.0687
0.1910 0.7351 0.0713
0.2252 0.7354 0.0745
0.2628 0.7357 0.0784
0.3030 0.7361 0.0830
0.3453 0.7363 0.0884
0.3892 0.7365 0.0948
0.4339 0.7371 0.1007
0.4790 0.7381 0.1053
0.5246 0.7390 0.1104
0.5702 0.7397 0.1158
0.6152 0.7401 0.1216
0.6591 0.7402 0.1277
0.7014 0.7400 0.1341
0.7412 0.7394 0.1405
0.7781 0.7384 0.1468
0.8119 0.7369 0.1528
0.8426 0.7344 0.1571
0.8711 0.7312 0.1605
0.8977 0.7277 0.1627
0.9228 0.7238 0.1637
0.9465 0.7194 0.1649
0.9678 0.7152 0.1733
0.9882 0.7108 0.1813
1.0000 0.7118 0.1906
1.0000 0.7214 0.1969
1.0000 0.7318 0.1972
1.0000 0.7426 0.1927
1.0000 0.7536 0.1841
1.0000 0.7648 0.1719
0.0951 0.7748 0.0783
0.1065 0.7749 0.0791
0.1185 0.7749 0.0801
0.1348 0.7749 0.0815
0.1555 0.7749 0.0833
0.1806 0.7750 0.0857
0.2098 0.7750 0.0887
0.2426 0.7749 0.0923
0.2786 0.7748 0.0968
0.3165 0.7751 0.1006
0.3561 0.7757 0.1039
0.3976 0.7763 0.1077
0.4405 0.7768 0.1118
0.4843 0.7771 0.1163
0.5286 0.7772 0.1212
0.5729 0.7771 0.1265
0.6166 0.7768 0.1320
0.6593 0.7762 0.1376
0.7004 0.7753 0.1434
0.7393 0.7740 0.1490
0.7753 0.7722 0.1542
0.8081 0.7694 0.1579
0.8385 0.7663 0.1609
0.8669 0.7629 0.1629
0.8935 0.7591 0.1637
0.9184 0.7549 0.1647
0.9408 0.7504 0.1727
0.9621 0.7459 0.1805
0.9825 0.7413 0.1879
1.0000 0.7381 0.1958
1.0000 0.7458 0.2041
1.0000 0.7547 0.2036
1.0000 0.7644 0.1956
1.0000 0.7747 0.1811
0.9984 0.7854 0.1690
0.1228 0.8104 0.0980
0.1331 0.8104 0.0990
0.1436 0.8105 0.0996
0.1581 0.8106 0.1005
0.1767 0.8108 0.1016
0.1995 0.8110 0.1031
0.2262 0.8112 0.1049
0.2564 0.8115 0.1071
0.2898 0.8117 0.1096
0.3260 0.8118 0.1125
0.3644 0.8119 0.1157
0.4046 0.8120 0.1194
0.4462 0.8118 0.1234
0.4887 0.8116 0.1277
0.5316 0.8111 0.1323
0.5746 0.8105 0.1371
0.6170 0.8096 0.1421
0.6585 0.8084 0.1471
0.6984 0.8069 0.1521
0.7361 0.8047 0.1560
0.7712 0.8020 0.1591
0.8038 0.7990 0.1616
0.8341 0.7957 0.1632
0.8624 0.7921 0.1638
0.8887 0.7880 0.1655
0.9125 0.7836 0.1731
0.9350 0.7791 0.1805
0.9564 0.7744 0.1876
0.9768 0.7698 0.1943
0.9966 0.7650 0.2008
1.0000 0.7691 0.2120
1.0000 0.7763 0.2131
1.0000 0.7847 0.2038
1.0000 0.7941 0.1850
0.9978 0.8041 0.1703
0.1394 0.8443 0.1111
0.1488 0.8443 0.1116
0.1589 0.8444 0.1122
0.1727 0.8444 0.1131
0.1907 0.8444 0.1142
0.2126 0.8444 0.1157
0.2383 0.8443 0.1175
0.2674 0.8443 0.1195
0.2997 0.8441 0.1220
0.3345 0.8439 0.1248
0.3716 0.8437 0.1279
0.4105 0.8432 0.1313
0.4507 0.8427 0.1350
0.4918 0.8420 0.1389
0.5334 0.8411 0.1430
0.5750 0.8400 0.1473
0.6161 0.8386 0.1515
0.6562 0.8367 0.1552
0.6949 0.8344 0.1581
0.7318 0.8318 0.1606
0.7666 0.8289 0.1624
0.7991 0.8258 0.1635
0.8293 0.8224 0.1637
0.8572 0.8185 0.1673
0.8827 0.8142 0.1743
0.9066 0.8098 0.1813
0.9292 0.8053 0.1880
0.9506 0.8007 0.1944
0.9711 0.7960 0.2006
0.9909 0.7913 0.2062
1.0000 0.7912 0.2187
1.0000 0.7967 0.2247
1.0000 0.8038 0.2169
1.0000 0.8121 0.1964
0.9986 0.8214 0.1721
0.1547 0.8741 0.1242
0.1637 0.8740 0.1247
0.1733 0.8739 0.1253
0.1866 0.8739 0.1261
0.2037 0.8737 0.1272
0.2247 0.8736 0.1285
0.2494 0.8733 0.1302
0.2773 0.8730 0.1322
0.3083 0.8726 0.1344
0.3419 0.8722 0.1369
0.3776 0.8716 0.1397
0.4151 0.8708 0.1428
0.4539 0.8700 0.1460
0.4936 0.8689 0.1494
0.5338 0.8677 0.1528
0.5738 0.8659 0.1556
0.6135 0.8639 0.1581
0.6526 0.8616 0.1603
0.6906 0.8592 0.1620
0.7271 0.8565 0.1632
0.7617 0.8535 0.1637
0.7941 0.8504 0.1635
0.8237 0.8464 0.1700
0.8511 0.8423 0.1765
0.8767 0.8381 0.1829
0.9007 0.8337 0.1892
0.9233 0.8293 0.1952
0.9448 0.8247 0.2010
0.9654 0.8201 0.2064
0.9853 0.8155 0.2114
1.0000 0.8125 0.2218
1.0000 0.8161 0.2369
1.0000 0.8216 0.2338
1.0000 0.8288 0.2147
1.0000 0.8374 0.1790
0.1687 0.9002 0.1371
0.1772 0.9001 0.1376
0.1864 0.9000 0.1381
0.1990 0.8998 0.1388
0.2154 0.8996 0.1398
0.2354 0.8993 0.1410
0.2589 0.8989 0.1425
0.2857 0.8984 0.1442
0.3154 0.8978 0.1461
0.3476 0.8971 0.1483
0.3819 0.8963 0.1506
0.4180 0.8953 0.1531
0.4552 0.8940 0.1552
0.4934 0.8924 0.1572
0.5321 0.8907 0.1591
0.5711 0.8888 0.1608
0.6100 0.8866 0.1622
0.6483 0.8843 0.1632
0.6858 0.8818 0.1637
0.7220 0.8791 0.1636
0.7563 0.8757 0.1677
0.7881 0.8719 0.1736
0.8176 0.8680 0.1795
0.8451 0.8640 0.1853
0.8707 0.8599 0.1911
0.8947 0.8556 0.1967
0.9174 0.8513 0.2021
0.9390 0.8469 0.2071
0.9596 0.8424 0.2118
0.9796 0.8379 0.2160
0.9991 0.8333 0.2198
1.0000 0.8348 0.2474
1.0000 0.8386 0.2528
1.0000 0.8444 0.2387
1.0000 0.8521 0.2048
0.1806 0.9234 0.1490
0.1886 0.9232 0.1494
0.1974 0.9231 0.1498
0.2094 0.9228 0.1504
0.2249 0.9225 0.1513
0.2440 0.9221 0.1522
0.2665 0.9216 0.1534
0.2920 0.9209 0.1545
0.3203 0.9200 0.1557
0.3511 0.9190 0.1569
0.3840 0.9179 0.1582
0.4187 0.9166 0.1595
0.4547 0.9151 0.1608
0.4918 0.9135 0.1619
0.5296 0.9117 0.1628
0.5677 0.9097 0.1635
0.6058 0.9075 0.1638
0.6436 0.9052 0.1636
0.6808 0.9022 0.1674
0.7166 0.8988 0.1726
0.7505 0.8953 0.1779
0.7822 0.8917 0.1832
0.8116 0.8879 0.1885
0.8391 0.8839 0.1937
0.8647 0.8799 0.1988
0.8888 0.8758 0.2037
0.9116 0.8716 0.2084
0.9332 0.8673 0.2127
0.9540 0.8630 0.2166
0.9740 0.8586 0.2201
0.9936 0.8543 0.2231
1.0000 0.8529 0.2537
1.0000 0.8549 0.2721
1.0000 0.8592 0.2665
1.0000 0.8658 0.2386
0.1895 0.9437 0.1577
0.1972 0.9435 0.1579
0.2054 0.9433 0.1581
0.2168 0.9429 0.1584
0.2317 0.9425 0.1589
0.2499 0.9420 0.1594
0.2713 0.9414 0.1599
0.2958 0.9406 0.1606
0.3231 0.9397 0.1612
0.3528 0.9386 0.1619
0.3846 0.9374 0.1626
0.4182 0.9361 0.1631
0.4532 0.9346 0.1635
0.4894 0.9329 0.1637
0.5263 0.9311 0.1637
0.5639 0.9290 0.1648
0.6020 0.9262 0.1691
0.6395 0.9232 0.1736
0.6761 0.9201 0.1782
0.7114 0.9169 0.1828
0.7449 0.9134 0.1876
0.7764 0.9099 0.1923
0.8057 0.9062 0.1969
0.8331 0.9024 0.2015
0.8588 0.8985 0.2059
