public/luts/pitaia.cube
#Created by: Pixelmator Pro
#Color profile: "Display P3"
TITLE "analogico claro"
#Data domain
#LUT size
LUT_3D_SIZE 7
DOMAIN_MIN 0.000000 0.000000 0.000000
DOMAIN_MAX 0.882353 0.882353 0.882353
0.0000 0.0000 0.0000
0.0548 0.0015 0.0011
0.2244 0.0053 0.0041
0.4978 0.0237 0.0135
0.7750 0.0918 0.0455
0.9486 0.1849 0.1102
1.0000 0.2912 0.2264
0.0000 0.1028 0.0037
0.0617 0.1109 0.0029
0.2398 0.1246 0.0057
0.5107 0.1466 0.0186
0.7776 0.1916 0.0538
0.9481 0.2601 0.1171
1.0000 0.3545 0.2264
0.0001 0.2894 0.0113
0.0778 0.3022 0.0079
0.2715 0.3232 0.0155
0.5350 0.3520 0.0357
0.7800 0.3897 0.0803
0.9450 0.4233 0.1347
1.0000 0.4876 0.2118
0.0006 0.5801 0.0295
0.1143 0.5849 0.0340
0.3128 0.5952 0.0478
0.5581 0.6074 0.0790
0.7817 0.6192 0.1217
0.9341 0.6192 0.1578
1.0000 0.6409 0.1885
0.1228 0.8104 0.0980
0.1995 0.8110 0.1031
0.3644 0.8119 0.1157
0.5746 0.8105 0.1371
0.7712 0.8020 0.1591
0.9125 0.7836 0.1731
1.0000 0.7691 0.2120
0.1895 0.9437 0.1577
0.2499 0.9420 0.1594
0.3846 0.9374 0.1626
0.5639 0.9290 0.1648
0.7449 0.9134 0.1876
0.8830 0.8946 0.2101
0.9882 0.8738 0.2257
0.4168 1.0000 0.4501
0.4369 1.0000 0.4344
0.4882 1.0000 0.3843
0.5715 1.0000 0.2593
0.7201 0.9895 0.2227
0.8561 0.9742 0.2282
0.9636 0.9579 0.2237
0.0000 0.0040 0.0470
0.0586 0.0028 0.0533
0.2332 0.0065 0.0629
0.5053 0.0303 0.0782
0.7765 0.0999 0.1129
0.9484 0.1892 0.1856
1.0000 0.2932 0.2861
0.0000 0.1087 0.0545
0.0653 0.1154 0.0588
0.2473 0.1282 0.0675
0.5168 0.1506 0.0835
0.7785 0.1976 0.1227
0.9477 0.2635 0.1929
1.0000 0.3426 0.2942
0.0001 0.2981 0.0695
0.0810 0.3092 0.0715
0.2767 0.3286 0.0802
0.5385 0.3562 0.1016
0.7799 0.3938 0.1545
0.9440 0.4248 0.2105
1.0000 0.4792 0.2819
0.0075 0.5841 0.0948
0.1197 0.5884 0.0998
0.3171 0.5977 0.1156
0.5599 0.6089 0.1531
0.7815 0.6199 0.1977
0.9326 0.6183 0.2299
1.0000 0.6364 0.2573
0.1283 0.8109 0.1724
0.2036 0.8114 0.1777
0.3667 0.8120 0.1915
0.5748 0.8099 0.2128
0.7698 0.8006 0.2307
0.9107 0.7821 0.2413
1.0000 0.7667 0.2705
0.1912 0.9423 0.2298
0.2510 0.9406 0.2308
0.3846 0.9361 0.2323
0.5635 0.9272 0.2346
0.7437 0.9118 0.2529
0.8816 0.8932 0.2699
0.9870 0.8727 0.2796
0.4097 1.0000 0.4815
0.4297 1.0000 0.4661
0.4807 1.0000 0.4168
0.5633 1.0000 0.2908
0.7193 0.9882 0.2781
0.8552 0.9731 0.2799
0.9628 0.9570 0.2717
0.0000 0.0123 0.1872
0.0683 0.0057 0.2101
0.2535 0.0128 0.2454
0.5216 0.0496 0.2912
0.7792 0.1221 0.3445
0.9472 0.2001 0.4009
1.0000 0.2978 0.4364
0.0000 0.1224 0.2112
0.0740 0.1260 0.2305
0.2647 0.1379 0.2612
0.5301 0.1627 0.3025
0.7799 0.2147 0.3548
0.9460 0.2721 0.4056
1.0000 0.3455 0.4418
0.0001 0.3182 0.2638
0.0905 0.3254 0.2735
0.2898 0.3418 0.2957
0.5467 0.3675 0.3309
0.7800 0.4040 0.3815
0.9412 0.4282 0.4153
1.0000 0.4566 0.4538
0.0334 0.5930 0.3216
0.1356 0.5962 0.3285
0.3288 0.6034 0.3473
0.5646 0.6129 0.3807
0.7807 0.6212 0.4085
0.9285 0.6156 0.4183
1.0000 0.6251 0.4312
0.1413 0.8118 0.3915
0.2141 0.8120 0.3954
0.3724 0.8114 0.4047
0.5749 0.8080 0.4164
0.7661 0.7969 0.4177
0.9059 0.7780 0.4169
1.0000 0.7606 0.4208
0.1952 0.9386 0.4183
0.2534 0.9369 0.4176
0.3841 0.9323 0.4145
0.5624 0.9225 0.4151
0.7403 0.9076 0.4194
0.8781 0.8895 0.4211
0.9837 0.8696 0.4166
0.3874 1.0000 0.5563
0.4069 1.0000 0.5424
0.4567 1.0000 0.4966
0.5570 0.9970 0.4209
0.7172 0.9847 0.4186
0.8528 0.9702 0.4118
0.9606 0.9547 0.3957
0.0001 0.0235 0.5531
0.0839 0.0197 0.5733
0.2812 0.0416 0.6018
0.5415 0.0878 0.6305
0.7797 0.1632 0.6506
0.9432 0.2172 0.6624
1.0000 0.3020 0.6316
0.0001 0.1398 0.5780
0.0905 0.1439 0.5904
0.2898 0.1576 0.6128
0.5467 0.1887 0.6359
0.7800 0.2454 0.6535
0.9412 0.2848 0.6625
1.0000 0.3493 0.6343
0.0002 0.3435 0.6148
0.1128 0.3489 0.6206
0.3115 0.3629 0.6328
0.5576 0.3877 0.6466
0.7817 0.4160 0.6596
0.9346 0.4312 0.6599
1.0000 0.4601 0.6410
0.0787 0.6041 0.6435
0.1680 0.6062 0.6458
0.3500 0.6112 0.6513
0.5714 0.6188 0.6595
0.7772 0.6215 0.6623
0.9212 0.6097 0.6486
1.0000 0.6070 0.6440
0.1618 0.8113 0.6615
0.2302 0.8108 0.6620
0.3800 0.8089 0.6625
0.5726 0.8026 0.6592
0.7592 0.7898 0.6471
0.8977 0.7708 0.6348
1.0000 0.7503 0.6192
0.2001 0.9318 0.6487
0.2558 0.9301 0.6468
0.3870 0.9244 0.6435
0.5608 0.9142 0.6377
0.7347 0.9002 0.6291
0.8721 0.8831 0.6172
0.9782 0.8642 0.6011
0.3308 1.0000 0.6600
0.3492 1.0000 0.6483
0.4100 0.9986 0.6205
0.5564 0.9902 0.6148
0.7137 0.9787 0.6059
0.8488 0.9652 0.5926
0.9570 0.9506 0.5725
0.0019 0.0633 0.8367
0.1166 0.0729 0.8397
0.3146 0.0994 0.8447
0.5589 0.1492 0.8467
0.7816 0.1993 0.8471
0.9335 0.2340 0.8390
1.0000 0.3123 0.7972
0.0195 0.1717 0.8409
0.1268 0.1781 0.8429
0.3225 0.1973 0.8460
0.5620 0.2364 0.8463
0.7812 0.2715 0.8467
0.9307 0.2948 0.8369
1.0000 0.3571 0.7977
0.0654 0.3749 0.8462
0.1580 0.3799 0.8466
0.3437 0.3936 0.8466
0.5697 0.4123 0.8472
0.7784 0.4280 0.8444
0.9234 0.4290 0.8307
1.0000 0.4602 0.7983
0.1359 0.6155 0.8470
0.2098 0.6170 0.8472
0.3701 0.6198 0.8471
0.5750 0.6217 0.8445
0.7677 0.6158 0.8354
0.9079 0.6031 0.8183
1.0000 0.5989 0.7952
0.1845 0.8065 0.8424
0.2466 0.8050 0.8411
0.3844 0.8007 0.8373
0.5662 0.7923 0.8298
0.7483 0.7783 0.8169
0.8865 0.7605 0.8002
0.9915 0.7406 0.7807
0.2197 0.9194 0.8184
0.2733 0.9173 0.8167
0.3949 0.9119 0.8121
0.5589 0.9026 0.8041
0.7272 0.8898 0.7927
0.8640 0.8741 0.7781
0.9707 0.8566 0.7603
0.2758 0.9944 0.7873
0.3174 0.9927 0.7859
0.4154 0.9883 0.7820
0.5555 0.9807 0.7753
0.7087 0.9704 0.7653
0.8431 0.9581 0.7519
0.9519 0.9449 0.7342
0.0976 0.1469 0.9681
0.1826 0.1571 0.9672
0.3569 0.1789 0.9658
0.5731 0.2037 0.9642
0.7749 0.2304 0.9575
0.9178 0.2413 0.9433
1.0000 0.3134 0.9105
0.1139 0.2345 0.9668
0.1952 0.2426 0.9658
0.3618 0.2553 0.9656
0.5742 0.2748 0.9632
0.7725 0.2930 0.9555
0.9144 0.3005 0.9407
1.0000 0.3542 0.9102
0.1422 0.4116 0.9656
0.2148 0.4144 0.9652
0.3728 0.4210 0.9638
0.5749 0.4292 0.9596
0.7658 0.4303 0.9501
0.9056 0.4309 0.9339
1.0000 0.4492 0.9091
0.1760 0.6217 0.9609
0.2408 0.6216 0.9600
0.3834 0.6203 0.9569
0.5692 0.6145 0.9503
0.7529 0.6049 0.9390
0.8912 0.5954 0.9224
0.9958 0.5838 0.9038
0.1994 0.7927 0.9470
0.2556 0.7909 0.9457
0.3860 0.7857 0.9413
0.5611 0.7765 0.9329
0.7357 0.7636 0.9213
0.8732 0.7477 0.9068
0.9792 0.7294 0.8905
0.2470 0.9031 0.9225
0.2946 0.9013 0.9210
0.4047 0.8965 0.9170
0.5572 0.8883 0.9102
0.7184 0.8768 0.9005
0.8542 0.8628 0.8884
0.9619 0.8468 0.8743
0.2918 0.9810 0.8960
0.3300 0.9796 0.8948
0.4213 0.9757 0.8916
0.5541 0.9692 0.8861
0.7024 0.9602 0.8782
0.8360 0.9495 0.8679
0.9458 0.9377 0.8554
0.2535 0.2992 1.0000
0.2991 0.3032 1.0000
0.4061 0.3126 1.0000
0.5576 0.3208 1.0000
0.7261 0.3210 1.0000
0.8772 0.3155 1.0000
0.9991 0.2912 0.9947
0.2653 0.3526 1.0000
0.3093 0.3558 1.0000
0.4128 0.3625 1.0000
0.5609 0.3669 1.0000
0.7278 0.3661 1.0000
0.8776 0.3561 1.0000
0.9965 0.3348 0.9927
0.2917 0.4723 1.0000
0.3315 0.4732 1.0000
0.4272 0.4745 1.0000
0.5679 0.4729 1.0000
0.7314 0.4697 1.0000
0.8782 0.4502 1.0000
0.9899 0.4359 0.9875
0.3214 0.6253 1.0000
0.3568 0.6247 1.0000
0.4447 0.6232 1.0000
0.5783 0.6194 1.0000
0.7333 0.6078 1.0000
0.8734 0.5859 0.9955
0.9794 0.5741 0.9789
0.3384 0.7733 1.0000
0.3700 0.7721 1.0000
0.4484 0.7686 1.0000
0.5700 0.7603 1.0000
0.7227 0.7467 0.9944
0.8590 0.7326 0.9815
0.9663 0.7157 0.9677
0.2748 0.8846 0.9956
0.3165 0.8831 0.9942
0.4151 0.8790 0.9906
0.5556 0.8719 0.9845
0.7090 0.8620 0.9760
0.8435 0.8495 0.9659
0.9523 0.8350 0.9549
0.3065 0.9663 0.9722
0.3415 0.9651 0.9712
0.4260 0.9619 0.9686
0.5513 0.9564 0.9641
0.6946 0.9489 0.9579
0.8277 0.9397 0.9503
0.9390 0.9297 0.9418
