public/luts/pitaia.cube
#Created by: Pixelmator Pro
#Color profile: "Display P3"
TITLE "analogico claro"
#Data domain
#LUT size
LUT_3D_SIZE 5
DOMAIN_MIN 0.000000 0.000000 0.000000
DOMAIN_MAX 0.823529 0.823529 0.823529
0.0000 0.0000 0.0000
0.1098 0.0029 0.0022
0.4382 0.0162 0.0100
0.8174 0.1099 0.0558
1.0000 0.2466 0.1728
0.0000 0.1617 0.0063
0.1285 0.1782 0.0050
0.4628 0.2102 0.0189
0.8186 0.2730 0.0735
1.0000 0.3610 0.1752
0.0001 0.5218 0.0222
0.1732 0.5327 0.0299
0.5033 0.5547 0.0594
0.8185 0.5775 0.1221
1.0000 0.5798 0.1662
0.1394 0.8443 0.1111
0.2674 0.8443 0.1195
0.5334 0.8411 0.1430
0.7991 0.8258 0.1635
0.9711 0.7960 0.2006
0.2129 0.9940 0.1736
0.3104 0.9897 0.1793
0.5245 0.9777 0.1943
0.7601 0.9580 0.2147
0.9326 0.9336 0.2280
0.0000 0.0067 0.0814
0.1207 0.0048 0.0973
0.4528 0.0264 0.1291
0.8184 0.1252 0.1952
1.0000 0.2514 0.3034
0.0000 0.1745 0.1018
0.1371 0.1878 0.1138
0.4730 0.2182 0.1437
0.8182 0.2835 0.2180
1.0000 0.3553 0.3123
0.0002 0.5309 0.1486
0.1822 0.5399 0.1596
0.5081 0.5590 0.2000
0.8179 0.5791 0.2660
1.0000 0.5746 0.2920
0.1477 0.8443 0.2553
0.2729 0.8438 0.2637
0.5338 0.8396 0.2837
0.7965 0.8232 0.2908
0.9680 0.7934 0.3147
0.2185 0.9905 0.2993
0.3138 0.9864 0.3027
0.5245 0.9746 0.3114
0.7582 0.9554 0.3214
0.9307 0.9317 0.3232
0.0001 0.0215 0.4728
0.1468 0.0190 0.5109
0.4833 0.0671 0.5627
0.8171 0.1718 0.6022
1.0000 0.2570 0.6107
0.0001 0.2031 0.5219
0.1610 0.2127 0.5415
0.4954 0.2444 0.5767
0.8185 0.3080 0.6086
1.0000 0.3532 0.6103
0.0484 0.5504 0.5804
0.2123 0.5561 0.5872
0.5206 0.5701 0.6038
0.8142 0.5816 0.6169
0.9927 0.5674 0.5989
0.1694 0.8422 0.6159
0.2861 0.8407 0.6168
0.5320 0.8332 0.6139
0.7878 0.8144 0.5994
0.9593 0.7859 0.5843
0.2342 0.9805 0.5940
0.3235 0.9767 0.5923
0.5247 0.9658 0.5870
0.7529 0.9480 0.5765
0.9254 0.9259 0.5577
0.0196 0.0776 0.8710
0.1953 0.0957 0.8738
0.5140 0.1524 0.8751
0.8166 0.2138 0.8730
0.9991 0.2436 0.8522
0.0510 0.2513 0.8746
0.2140 0.2633 0.8755
0.5211 0.3001 0.8744
0.8139 0.3340 0.8710
0.9921 0.3465 0.8475
0.1344 0.5724 0.8747
0.2641 0.5755 0.8749
0.5330 0.5810 0.8727
0.8006 0.5753 0.8602
0.9729 0.5618 0.8337
0.1936 0.8314 0.8637
0.2973 0.8283 0.8611
0.5252 0.8182 0.8522
0.7730 0.7985 0.8346
0.9452 0.7729 0.8107
0.2592 0.9638 0.8254
0.3393 0.9605 0.8226
0.5251 0.9511 0.8145
0.7442 0.9356 0.8002
0.9167 0.9160 0.7797
0.1911 0.2370 1.0000
0.2972 0.2456 1.0000
0.5314 0.2631 1.0000
0.7937 0.2494 1.0000
0.9686 0.2758 0.9758
0.2105 0.3524 1.0000
0.3107 0.3575 1.0000
0.5349 0.3641 1.0000
0.7919 0.3416 0.9988
0.9633 0.3623 0.9717
0.2392 0.5888 1.0000
0.3253 0.5864 1.0000
0.5292 0.5741 1.0000
0.7768 0.5637 0.9839
0.9488 0.5529 0.9602
0.2270 0.8072 0.9880
0.3190 0.8038 0.9848
0.5246 0.7939 0.9758
0.7553 0.7772 0.9609
0.9278 0.7549 0.9422
0.2879 0.9423 0.9535
0.3578 0.9397 0.9513
0.5254 0.9320 0.9450
0.7330 0.9193 0.9345
0.9056 0.9029 0.9206
